;FLAVOR:Marlin
;TIME:9356
;Filament used: 9.38387m
;Layer height: 0.2
;MINX:69.495
;MINY:52.25
;MINZ:0.2
;MAXX:185.505
;MAXY:157.75
;MAXZ:37
;Generated with Cura_SteamEngine 4.13.0
M140 S60
M105
M190 S60
M104 S200
M105
M109 S200
M82 ;absolute extrusion mode
M220 S100 ;reset feedrate
M221 S100 ;reset flowrate
G90 ;use absolute coordinates
M82 ;absolute extrusion mode
G28 ;home
G1 Z2 F1500 ;raise z
G92 E0 ;reset extruder

G1 X75 Y5 F5000 ;start position
G1 Z0.28 F1500 ;lower z
G1 E4 F500 ;prime the filament
G1 X180 E10 F500 ;1st line
G1 Y5.4 F5000
G1 X75 E20 F500 ;2nd line
G1 Z2 F1500 ;raise z
G92 E0 ;reset extruder
G92 E0
G92 E0
G1 F1500 E-6.5
;LAYER_COUNT:185
;LAYER:0
M107
G0 F9000 X72.065 Y56.364 Z0.2
;TYPE:SKIRT
G1 F1500 E0
G1 F1800 X72.697 Y55.657 E0.03943
G1 X73.387 Y55.006 E0.07887
G1 X74.13 Y54.416 E0.11831
G1 X74.919 Y53.89 E0.15773
G1 X75.75 Y53.433 E0.19716
G1 X76.617 Y53.047 E0.23662
G1 X77.513 Y52.736 E0.27605
G1 X78.432 Y52.501 E0.31549
G1 X79.367 Y52.345 E0.3549
G1 X80.439 Y52.263 E0.3996
G1 X80.76 Y52.254 E0.41295
G1 X81.075 Y52.25 E0.42605
G1 X173.548 Y52.25 E4.27063
G1 X174.407 Y52.261 E4.30634
G1 X175.354 Y52.315 E4.34578
G1 X176.293 Y52.448 E4.38521
G1 X177.218 Y52.66 E4.42466
G1 X178.121 Y52.948 E4.46407
G1 X178.997 Y53.312 E4.5035
G1 X179.839 Y53.749 E4.54294
G1 X180.641 Y54.255 E4.58237
G1 X181.398 Y54.826 E4.62179
G1 X182.104 Y55.46 E4.66124
G1 X182.755 Y56.15 E4.70068
G1 X183.344 Y56.893 E4.7401
G1 X183.869 Y57.683 E4.77954
G1 X184.326 Y58.514 E4.81896
G1 X184.711 Y59.381 E4.8584
G1 X185.022 Y60.277 E4.89784
G1 X185.256 Y61.196 E4.93726
G1 X185.411 Y62.132 E4.97671
G1 X185.492 Y63.194 E5.02099
G1 X185.501 Y63.514 E5.0343
G1 X185.505 Y63.83 E5.04744
G1 X185.504 Y145.903 E8.45964
G1 X185.495 Y146.63 E8.48986
G1 X185.443 Y147.577 E8.52929
G1 X185.312 Y148.517 E8.56875
G1 X185.102 Y149.442 E8.60819
G1 X184.815 Y150.346 E8.64762
G1 X184.453 Y151.222 E8.68703
G1 X184.018 Y152.065 E8.72647
G1 X183.514 Y152.868 E8.76588
G1 X182.944 Y153.626 E8.80531
G1 X182.312 Y154.334 E8.84477
G1 X181.622 Y154.985 E8.88421
G1 X180.881 Y155.576 E8.92361
G1 X180.092 Y156.103 E8.96306
G1 X179.261 Y156.561 E9.00251
G1 X178.395 Y156.948 E9.04195
G1 X177.5 Y157.26 E9.08135
G1 X176.581 Y157.496 E9.1208
G1 X175.646 Y157.654 E9.16022
G1 X174.561 Y157.737 E9.20546
G1 X174.24 Y157.746 E9.21881
G1 X173.925 Y157.75 E9.23191
G1 X81.307 Y157.749 E13.08252
G1 X80.609 Y157.74 E13.11154
G1 X79.662 Y157.688 E13.15097
G1 X78.723 Y157.556 E13.1904
G1 X77.798 Y157.346 E13.22983
G1 X76.894 Y157.058 E13.26928
G1 X76.018 Y156.695 E13.3087
G1 X75.175 Y156.26 E13.34814
G1 X74.372 Y155.755 E13.38758
G1 X73.614 Y155.185 E13.42701
G1 X72.907 Y154.553 E13.46643
G1 X72.256 Y153.863 E13.50587
G1 X71.665 Y153.121 E13.54531
G1 X71.139 Y152.332 E13.58473
G1 X70.681 Y151.501 E13.62418
G1 X70.295 Y150.635 E13.6636
G1 X69.983 Y149.739 E13.70305
G1 X69.748 Y148.82 E13.74248
G1 X69.591 Y147.885 E13.7819
G1 X69.508 Y146.795 E13.82735
G1 X69.499 Y146.462 E13.8412
G1 X69.495 Y146.158 E13.85384
G1 X69.496 Y64.022 E17.26866
G1 X69.505 Y63.357 E17.29631
G1 X69.558 Y62.41 E17.33574
G1 X69.69 Y61.471 E17.37516
G1 X69.901 Y60.546 E17.41461
G1 X70.189 Y59.642 E17.45405
G1 X70.553 Y58.766 E17.49349
G1 X70.988 Y57.924 E17.53289
G1 X71.494 Y57.121 E17.57235
G1 X72.065 Y56.364 E17.61178
G0 F9000 X72.558 Y56.553
G1 F1800 X73.188 Y55.873 E17.65032
G1 X73.874 Y55.249 E17.68887
G1 X74.611 Y54.687 E17.7274
G1 X75.394 Y54.191 E17.76594
G1 X76.217 Y53.763 E17.80451
G1 X77.073 Y53.409 E17.84302
G1 X77.957 Y53.129 E17.88157
G1 X78.862 Y52.927 E17.92012
G1 X79.781 Y52.803 E17.95867
G1 X80.453 Y52.763 E17.98666
G1 X80.774 Y52.754 E18.00001
G1 X81.075 Y52.75 E18.01253
G1 X173.548 Y52.75 E21.85711
G1 X174.4 Y52.761 E21.89253
G1 X175.326 Y52.814 E21.9311
G1 X176.243 Y52.947 E21.96962
G1 X177.146 Y53.159 E22.00818
G1 X178.027 Y53.447 E22.04672
G1 X178.88 Y53.81 E22.08526
G1 X179.699 Y54.246 E22.12383
G1 X180.477 Y54.75 E22.16237
G1 X181.208 Y55.319 E22.20089
G1 X181.888 Y55.95 E22.23945
G1 X182.511 Y56.636 E22.27798
G1 X183.073 Y57.374 E22.31655
G1 X183.569 Y58.157 E22.35508
G1 X183.995 Y58.981 E22.39365
G1 X184.349 Y59.837 E22.43216
G1 X184.628 Y60.722 E22.47074
G1 X184.83 Y61.627 E22.50929
G1 X184.953 Y62.546 E22.54784
G1 X184.992 Y63.208 E22.57541
G1 X185.001 Y63.528 E22.58872
G1 X185.005 Y63.83 E22.60127
G1 X185.004 Y145.897 E26.01322
G1 X184.995 Y146.624 E26.04345
G1 X184.944 Y147.55 E26.08201
G1 X184.813 Y148.468 E26.12056
G1 X184.603 Y149.371 E26.1591
G1 X184.316 Y150.252 E26.19763
G1 X183.955 Y151.106 E26.23617
G1 X183.521 Y151.926 E26.27475
G1 X183.018 Y152.705 E26.3133
G1 X182.45 Y153.437 E26.35182
G1 X181.821 Y154.118 E26.39036
G1 X181.136 Y154.743 E26.42891
G1 X180.399 Y155.306 E26.46747
G1 X179.617 Y155.803 E26.50599
G1 X178.794 Y156.231 E26.54456
G1 X177.938 Y156.587 E26.5831
G1 X177.055 Y156.868 E26.62163
G1 X176.15 Y157.071 E26.66019
G1 X175.231 Y157.196 E26.69875
G1 X174.547 Y157.237 E26.72724
G1 X174.226 Y157.246 E26.74059
G1 X173.925 Y157.25 E26.7531
G1 X81.313 Y157.249 E30.60346
G1 X80.615 Y157.24 E30.63248
G1 X79.69 Y157.188 E30.671
G1 X78.772 Y157.057 E30.70955
G1 X77.869 Y156.847 E30.7481
G1 X76.987 Y156.56 E30.78666
G1 X76.134 Y156.197 E30.8252
G1 X75.315 Y155.763 E30.86374
G1 X74.536 Y155.26 E30.90229
G1 X73.803 Y154.692 E30.94084
G1 X73.123 Y154.062 E30.97938
G1 X72.499 Y153.377 E31.0179
G1 X71.936 Y152.64 E31.05646
G1 X71.439 Y151.857 E31.09502
G1 X71.011 Y151.034 E31.13359
G1 X70.656 Y150.178 E31.17211
G1 X70.376 Y149.294 E31.21067
G1 X70.173 Y148.39 E31.24919
G1 X70.049 Y147.471 E31.28774
G1 X70.008 Y146.781 E31.31648
G1 X69.999 Y146.448 E31.33033
G1 X69.995 Y146.158 E31.34239
G1 X69.996 Y64.029 E34.75691
G1 X70.005 Y63.364 E34.78456
G1 X70.057 Y62.438 E34.82312
G1 X70.19 Y61.52 E34.86169
G1 X70.4 Y60.617 E34.90023
G1 X70.688 Y59.736 E34.93877
G1 X71.05 Y58.883 E34.97729
G1 X71.485 Y58.064 E35.01585
G1 X71.989 Y57.285 E35.05442
G1 X72.558 Y56.553 E35.09297
G0 F9000 X73.05 Y56.748
G1 F1800 X73.677 Y56.094 E35.13063
G1 X74.359 Y55.499 E35.16826
G1 X75.091 Y54.966 E35.20591
G1 X75.867 Y54.499 E35.24356
G1 X76.681 Y54.103 E35.2812
G1 X77.526 Y53.78 E35.31881
G1 X78.398 Y53.534 E35.35647
G1 X79.287 Y53.365 E35.3941
G1 X80.467 Y53.263 E35.44334
G1 X80.788 Y53.254 E35.45669
G1 X81.075 Y53.25 E35.46862
G1 X173.548 Y53.25 E39.3132
G1 X174.393 Y53.261 E39.34834
G1 X175.297 Y53.314 E39.38599
G1 X176.192 Y53.446 E39.4236
G1 X177.073 Y53.657 E39.46126
G1 X177.931 Y53.945 E39.49889
G1 X178.761 Y54.308 E39.53655
G1 X179.555 Y54.742 E39.57417
G1 X180.308 Y55.245 E39.61182
G1 X181.014 Y55.812 E39.64947
G1 X181.666 Y56.439 E39.68707
G1 X182.261 Y57.121 E39.7247
G1 X182.794 Y57.853 E39.76235
G1 X183.26 Y58.63 E39.80002
G1 X183.655 Y59.444 E39.83763
G1 X183.977 Y60.29 E39.87527
G1 X184.223 Y61.161 E39.9129
G1 X184.392 Y62.051 E39.95056
G1 X184.492 Y63.222 E39.99942
G1 X184.501 Y63.542 E40.01273
G1 X184.505 Y63.83 E40.0247
G1 X184.504 Y145.891 E43.4364
G1 X184.495 Y146.618 E43.46663
G1 X184.444 Y147.522 E43.50428
G1 X184.313 Y148.418 E43.54192
G1 X184.104 Y149.298 E43.57953
G1 X183.818 Y150.157 E43.61717
G1 X183.457 Y150.988 E43.65484
G1 X183.024 Y151.783 E43.69247
G1 X182.523 Y152.537 E43.73011
G1 X181.957 Y153.244 E43.76776
G1 X181.332 Y153.898 E43.80537
G1 X180.65 Y154.494 E43.84303
G1 X179.919 Y155.028 E43.88066
G1 X179.144 Y155.495 E43.91828
G1 X178.33 Y155.892 E43.95593
G1 X177.485 Y156.216 E43.99356
G1 X176.614 Y156.464 E44.03121
G1 X175.725 Y156.634 E44.06884
G1 X174.533 Y156.737 E44.11858
G1 X174.212 Y156.746 E44.13193
G1 X173.925 Y156.75 E44.14387
G1 X81.32 Y156.749 E47.99394
G1 X80.622 Y156.74 E48.02296
G1 X79.718 Y156.689 E48.0606
G1 X78.822 Y156.557 E48.09825
G1 X77.942 Y156.348 E48.13586
G1 X77.083 Y156.061 E48.17351
G1 X76.253 Y155.7 E48.21114
G1 X75.458 Y155.267 E48.24878
G1 X74.704 Y154.765 E48.28644
G1 X73.998 Y154.199 E48.32406
G1 X73.344 Y153.573 E48.3617
G1 X72.748 Y152.891 E48.39935
G1 X72.214 Y152.16 E48.43699
G1 X71.747 Y151.384 E48.47464
G1 X71.351 Y150.57 E48.51228
G1 X71.027 Y149.725 E48.5499
G1 X70.78 Y148.854 E48.58754
G1 X70.61 Y147.965 E48.62517
G1 X70.508 Y146.768 E48.67512
G1 X70.499 Y146.435 E48.68897
G1 X70.495 Y146.158 E48.70049
G1 X70.496 Y64.035 E52.11476
G1 X70.505 Y63.37 E52.14241
G1 X70.557 Y62.466 E52.18006
G1 X70.689 Y61.571 E52.21767
G1 X70.899 Y60.69 E52.25533
G1 X71.186 Y59.832 E52.29294
G1 X71.548 Y59.002 E52.33059
G1 X71.982 Y58.207 E52.36824
G1 X72.484 Y57.454 E52.40587
G1 X73.05 Y56.748 E52.44349
G1 F1500 E45.94349
;MESH:CtrlBox.stl
G0 F9000 X80.08 Y64.31
G0 X81.555 Y64.31
G0 X81.527 Y145.718
G0 X173.655 Y145.9
;TYPE:WALL-INNER
G1 F1500 E52.44349
G1 F1800 X81.345 Y145.9 E55.51373
G1 X81.345 Y64.1 E58.23441
G1 X173.655 Y64.1 E61.30465
G1 X173.655 Y145.9 E64.02533
G0 F9000 X174.055 Y146.3
;TYPE:WALL-OUTER
G1 F1800 X80.945 Y146.3 E67.12218
G1 X80.945 Y63.7 E69.86947
G1 X174.055 Y63.7 E72.96632
G1 X174.055 Y146.3 E75.71361
G0 F9000 X173.785 Y146.03
G0 X173.545 Y145.51
G0 X173.265 Y145.51
;TYPE:SKIN
G1 F1800 X81.735 Y145.51 E78.75791
G1 X81.735 Y64.49 E81.45265
G1 X173.265 Y64.49 E84.49695
G1 X173.265 Y145.51 E87.19168
G1 F1500 E80.69168
G0 F9000 X173.545 Y145.51
G0 X173.545 Y65.058
G1 F1500 E87.19168
G0 F9000 X173.104 Y65.058
G1 F1800 X172.695 Y64.65 E87.2109
G0 F9000 X172.13 Y64.65
G1 F1800 X173.104 Y65.624 E87.25671
G0 F9000 X173.104 Y66.19
G1 F1800 X171.564 Y64.65 E87.32915
G0 F9000 X170.998 Y64.65
G1 F1800 X173.104 Y66.755 E87.42818
G0 F9000 X173.104 Y67.321
G1 F1800 X170.433 Y64.65 E87.55382
G0 F9000 X169.867 Y64.65
G1 F1800 X173.104 Y67.887 E87.70608
G0 F9000 X173.104 Y68.452
G1 F1800 X169.301 Y64.65 E87.88494
G0 F9000 X168.736 Y64.65
G1 F1800 X173.104 Y69.018 E88.09039
G0 F9000 X173.104 Y69.584
G1 F1800 X168.17 Y64.65 E88.32247
G0 F9000 X167.604 Y64.65
G1 F1800 X173.104 Y70.149 E88.58115
G0 F9000 X173.104 Y70.715
G1 F1800 X167.039 Y64.65 E88.86643
G0 F9000 X166.473 Y64.65
G1 F1800 X173.104 Y71.281 E89.17833
G0 F9000 X173.104 Y71.846
G1 F1800 X165.907 Y64.65 E89.51684
G0 F9000 X165.342 Y64.65
G1 F1800 X173.104 Y72.412 E89.88194
G0 F9000 X173.104 Y72.978
G1 F1800 X164.776 Y64.65 E90.27366
G0 F9000 X164.21 Y64.65
G1 F1800 X173.104 Y73.544 E90.69201
G0 F9000 X173.104 Y74.109
G1 F1800 X163.645 Y64.65 E91.13693
G0 F9000 X163.079 Y64.65
G1 F1800 X173.104 Y74.675 E91.60847
G0 F9000 X173.104 Y75.241
G1 F1800 X162.513 Y64.65 E92.10664
G0 F9000 X161.947 Y64.65
G1 F1800 X173.104 Y75.806 E92.63141
G0 F9000 X173.104 Y76.372
G1 F1800 X161.382 Y64.65 E93.18278
G0 F9000 X160.816 Y64.65
G1 F1800 X173.104 Y76.938 E93.76077
G0 F9000 X173.104 Y77.503
G1 F1800 X160.25 Y64.65 E94.36536
G0 F9000 X159.685 Y64.65
G1 F1800 X173.104 Y78.069 E94.99654
G0 F9000 X173.104 Y78.635
G1 F1800 X159.119 Y64.65 E95.65436
G0 F9000 X158.553 Y64.65
G1 F1800 X173.104 Y79.2 E96.33877
G0 F9000 X173.104 Y79.766
G1 F1800 X157.988 Y64.65 E97.04978
G0 F9000 X157.422 Y64.65
G1 F1800 X173.104 Y80.332 E97.78741
G0 F9000 X173.104 Y80.897
G1 F1800 X156.856 Y64.65 E98.55164
G0 F9000 X156.291 Y64.65
G1 F1800 X173.104 Y81.463 E99.34248
G0 F9000 X173.104 Y82.029
G1 F1800 X155.725 Y64.65 E100.15993
G0 F9000 X155.159 Y64.65
G1 F1800 X173.104 Y82.595 E101.00401
G0 F9000 X173.104 Y83.16
G1 F1800 X154.594 Y64.65 E101.87466
G0 F9000 X154.028 Y64.65
G1 F1800 X173.104 Y83.726 E102.77194
G0 F9000 X173.104 Y84.292
G1 F1800 X153.462 Y64.65 E103.69584
G0 F9000 X152.896 Y64.65
G1 F1800 X173.104 Y84.857 E104.64634
G0 F9000 X173.104 Y85.423
G1 F1800 X152.331 Y64.65 E105.62343
G0 F9000 X151.765 Y64.65
G1 F1800 X173.104 Y85.989 E106.62716
G0 F9000 X173.104 Y86.554
G1 F1800 X151.199 Y64.65 E107.65748
G0 F9000 X150.634 Y64.65
G1 F1800 X173.104 Y87.12 E108.7144
G0 F9000 X173.104 Y87.686
G1 F1800 X150.068 Y64.65 E109.79794
G0 F9000 X149.502 Y64.65
G1 F1800 X173.104 Y88.251 E110.90808
G0 F9000 X173.104 Y88.817
G1 F1800 X148.937 Y64.65 E112.04482
G0 F9000 X148.371 Y64.65
G1 F1800 X173.104 Y89.383 E113.20819
G0 F9000 X173.104 Y89.948
G1 F1800 X147.805 Y64.65 E114.39815
G0 F9000 X147.24 Y64.65
G1 F1800 X173.104 Y90.514 E115.61471
G0 F9000 X173.104 Y91.08
G1 F1800 X146.674 Y64.65 E116.8579
G0 F9000 X146.108 Y64.65
G1 F1800 X173.104 Y91.645 E118.12769
G0 F9000 X173.104 Y92.211
G1 F1800 X145.543 Y64.65 E119.42407
G0 F9000 X144.977 Y64.65
G1 F1800 X173.104 Y92.777 E120.74708
G0 F9000 X173.104 Y93.343
G1 F1800 X144.411 Y64.65 E122.09671
G0 F9000 X143.846 Y64.65
G1 F1800 X173.104 Y93.908 E123.47292
G0 F9000 X173.104 Y94.474
G1 F1800 X143.28 Y64.65 E124.87575
G0 F9000 X142.714 Y64.65
G1 F1800 X173.104 Y95.04 E126.3052
G0 F9000 X173.104 Y95.605
G1 F1800 X142.148 Y64.65 E127.76125
G0 F9000 X141.583 Y64.65
G1 F1800 X173.104 Y96.171 E129.2439
G0 F9000 X173.104 Y96.737
G1 F1800 X141.017 Y64.65 E130.75318
G0 F9000 X140.451 Y64.65
G1 F1800 X173.104 Y97.302 E132.28905
G0 F9000 X173.104 Y97.868
G1 F1800 X139.886 Y64.65 E133.85152
G0 F9000 X139.32 Y64.65
G1 F1800 X173.104 Y98.434 E135.44062
G0 F9000 X173.104 Y98.999
G1 F1800 X138.754 Y64.65 E137.05631
G0 F9000 X138.189 Y64.65
G1 F1800 X173.104 Y99.565 E138.69861
G0 F9000 X173.104 Y100.131
G1 F1800 X137.623 Y64.65 E140.36752
G0 F9000 X137.057 Y64.65
G1 F1800 X173.104 Y100.696 E142.06304
G0 F9000 X173.104 Y101.262
G1 F1800 X136.492 Y64.65 E143.78516
G0 F9000 X135.926 Y64.65
G1 F1800 X173.104 Y101.828 E145.5339
G0 F9000 X173.104 Y102.394
G1 F1800 X135.36 Y64.65 E147.30926
G0 F9000 X134.795 Y64.65
G1 F1800 X173.104 Y102.959 E149.1112
G0 F9000 X173.104 Y103.525
G1 F1800 X134.229 Y64.65 E150.93976
G0 F9000 X133.663 Y64.65
G1 F1800 X173.104 Y104.091 E152.79494
G0 F9000 X173.104 Y104.656
G1 F1800 X133.098 Y64.65 E154.6767
G0 F9000 X132.532 Y64.65
G1 F1800 X173.104 Y105.222 E156.58508
G0 F9000 X173.104 Y105.788
G1 F1800 X131.966 Y64.65 E158.52009
G0 F9000 X131.4 Y64.65
G1 F1800 X173.104 Y106.353 E160.48169
G0 F9000 X173.104 Y106.919
G1 F1800 X130.835 Y64.65 E162.4699
G0 F9000 X130.269 Y64.65
G1 F1800 X173.104 Y107.485 E164.48473
G0 F9000 X173.104 Y108.05
G1 F1800 X129.703 Y64.65 E166.52615
G0 F9000 X129.138 Y64.65
G1 F1800 X173.104 Y108.616 E168.59418
G0 F9000 X173.104 Y109.182
G1 F1800 X128.572 Y64.65 E170.68883
G0 F9000 X128.006 Y64.65
G1 F1800 X173.104 Y109.747 E172.81007
G0 F9000 X173.104 Y110.313
G1 F1800 X127.441 Y64.65 E174.95792
G0 F9000 X126.875 Y64.65
G1 F1800 X173.104 Y110.879 E177.13239
G0 F9000 X173.104 Y111.444
G1 F1800 X126.309 Y64.65 E179.33346
G0 F9000 X125.744 Y64.65
G1 F1800 X173.104 Y112.01 E181.56113
G0 F9000 X173.104 Y112.576
G1 F1800 X125.178 Y64.65 E183.81542
G0 F9000 X124.612 Y64.65
G1 F1800 X173.104 Y113.142 E186.09634
G0 F9000 X173.104 Y113.707
G1 F1800 X124.047 Y64.65 E188.40383
G0 F9000 X123.481 Y64.65
G1 F1800 X173.104 Y114.273 E190.73794
G0 F9000 X173.104 Y114.839
G1 F1800 X122.915 Y64.65 E193.09868
G0 F9000 X122.349 Y64.65
G1 F1800 X173.104 Y115.404 E195.48602
G0 F9000 X173.104 Y115.97
G1 F1800 X121.784 Y64.65 E197.89995
G0 F9000 X121.218 Y64.65
G1 F1800 X173.104 Y116.536 E200.34051
G0 F9000 X173.104 Y117.101
G1 F1800 X120.652 Y64.65 E202.80767
G0 F9000 X120.087 Y64.65
G1 F1800 X173.104 Y117.667 E205.30142
G0 F9000 X173.104 Y118.233
G1 F1800 X119.521 Y64.65 E207.8218
G0 F9000 X118.955 Y64.65
G1 F1800 X173.104 Y118.798 E210.36878
G0 F9000 X173.104 Y119.364
G1 F1800 X118.39 Y64.65 E212.94236
G0 F9000 X117.824 Y64.65
G1 F1800 X173.104 Y119.93 E215.54256
G0 F9000 X173.104 Y120.495
G1 F1800 X117.258 Y64.65 E218.16937
G0 F9000 X116.693 Y64.65
G1 F1800 X173.104 Y121.061 E220.82277
G0 F9000 X173.104 Y121.627
G1 F1800 X116.127 Y64.65 E223.50279
G0 F9000 X115.561 Y64.65
G1 F1800 X173.104 Y122.193 E226.20944
G0 F9000 X173.104 Y122.758
G1 F1800 X114.996 Y64.65 E228.94266
G0 F9000 X114.43 Y64.65
G1 F1800 X173.104 Y123.324 E231.7025
G0 F9000 X173.104 Y123.89
G1 F1800 X113.864 Y64.65 E234.48897
G0 F9000 X113.299 Y64.65
G1 F1800 X173.104 Y124.455 E237.30201
G0 F9000 X173.104 Y125.021
G1 F1800 X112.733 Y64.65 E240.14168
G0 F9000 X112.167 Y64.65
G1 F1800 X173.104 Y125.587 E243.00797
G0 F9000 X173.104 Y126.152
G1 F1800 X111.601 Y64.65 E245.90086
G0 F9000 X111.036 Y64.65
G1 F1800 X173.104 Y126.718 E248.82035
G0 F9000 X173.104 Y127.284
