;FLAVOR:Marlin
;TIME:13525
;Filament used: 11.6371m
;Layer height: 0.2
;MINX:86.25
;MINY:32.25
;MINZ:0.2
;MAXX:168.75
;MAXY:177.75
;MAXZ:20.6
;Generated with Cura_SteamEngine 4.13.0
M140 S60
M105
M190 S60
M104 S200
M105
M109 S200
M82 ;absolute extrusion mode
M220 S100 ;reset feedrate
M221 S100 ;reset flowrate
G90 ;use absolute coordinates
M82 ;absolute extrusion mode
G28 ;home
G1 Z2 F1500 ;raise z
G92 E0 ;reset extruder

G1 X75 Y5 F5000 ;start position
G1 Z0.28 F1500 ;lower z
G1 E4 F500 ;prime the filament
G1 X180 E10 F500 ;1st line
G1 Y5.4 F5000
G1 X75 E20 F500 ;2nd line
G1 Z2 F1500 ;raise z
G92 E0 ;reset extruder
G92 E0
G92 E0
G1 F1500 E-6.5
;LAYER_COUNT:103
;LAYER:0
M107
G0 F9000 X87.308 Y38.766 Z0.2
;TYPE:SKIRT
G1 F1500 E0
G1 F1800 X87.743 Y37.924 E0.0394
G1 X88.249 Y37.121 E0.07886
G1 X88.82 Y36.364 E0.11828
G1 X89.452 Y35.657 E0.15771
G1 X90.142 Y35.006 E0.19715
G1 X90.885 Y34.416 E0.23659
G1 X91.674 Y33.89 E0.27602
G1 X92.505 Y33.433 E0.31545
G1 X93.372 Y33.047 E0.3549
G1 X94.268 Y32.736 E0.39434
G1 X95.187 Y32.501 E0.43377
G1 X96.122 Y32.345 E0.47318
G1 X97.194 Y32.263 E0.51788
G1 X97.515 Y32.254 E0.53123
G1 X97.83 Y32.25 E0.54433
G1 X156.793 Y32.25 E2.99573
G1 X157.652 Y32.261 E3.03144
G1 X158.599 Y32.315 E3.07088
G1 X159.538 Y32.448 E3.11031
G1 X160.463 Y32.66 E3.14976
G1 X161.366 Y32.948 E3.18917
G1 X162.242 Y33.312 E3.2286
G1 X163.084 Y33.749 E3.26804
G1 X163.886 Y34.255 E3.30747
G1 X164.643 Y34.826 E3.34689
G1 X165.349 Y35.46 E3.38634
G1 X166 Y36.15 E3.42578
G1 X166.589 Y36.893 E3.4652
G1 X167.114 Y37.683 E3.50464
G1 X167.571 Y38.514 E3.54406
G1 X167.956 Y39.381 E3.5835
G1 X168.267 Y40.277 E3.62294
G1 X168.501 Y41.196 E3.66236
G1 X168.656 Y42.132 E3.70181
G1 X168.737 Y43.194 E3.74609
G1 X168.746 Y43.514 E3.7594
G1 X168.75 Y43.83 E3.77254
G1 X168.749 Y165.903 E8.84774
G1 X168.74 Y166.63 E8.87797
G1 X168.688 Y167.577 E8.9174
G1 X168.557 Y168.517 E8.95686
G1 X168.347 Y169.442 E8.99629
G1 X168.06 Y170.346 E9.03573
G1 X167.698 Y171.222 E9.07513
G1 X167.263 Y172.065 E9.11457
G1 X166.759 Y172.868 E9.15399
G1 X166.189 Y173.626 E9.19342
G1 X165.557 Y174.334 E9.23288
G1 X164.867 Y174.985 E9.27231
G1 X164.126 Y175.576 E9.31172
G1 X163.337 Y176.103 E9.35117
G1 X162.506 Y176.561 E9.39062
G1 X161.64 Y176.948 E9.43005
G1 X160.745 Y177.26 E9.46946
G1 X159.826 Y177.496 E9.50891
G1 X158.891 Y177.654 E9.54833
G1 X157.806 Y177.737 E9.59357
G1 X157.485 Y177.746 E9.60692
G1 X157.17 Y177.75 E9.62002
G1 X98.062 Y177.749 E12.07744
G1 X97.364 Y177.74 E12.10647
G1 X96.417 Y177.688 E12.1459
G1 X95.478 Y177.556 E12.18532
G1 X94.553 Y177.346 E12.22475
G1 X93.649 Y177.058 E12.2642
G1 X92.773 Y176.695 E12.30362
G1 X91.93 Y176.26 E12.34306
G1 X91.127 Y175.755 E12.3825
G1 X90.369 Y175.185 E12.42193
G1 X89.662 Y174.553 E12.46136
G1 X89.011 Y173.863 E12.5008
G1 X88.42 Y173.121 E12.54023
G1 X87.894 Y172.332 E12.57966
G1 X87.436 Y171.501 E12.61911
G1 X87.05 Y170.635 E12.65852
G1 X86.738 Y169.739 E12.69797
G1 X86.503 Y168.82 E12.73741
G1 X86.346 Y167.885 E12.77682
G1 X86.263 Y166.795 E12.82227
G1 X86.254 Y166.462 E12.83612
G1 X86.25 Y166.158 E12.84876
G1 X86.251 Y44.022 E17.92659
G1 X86.26 Y43.357 E17.95424
G1 X86.313 Y42.41 E17.99367
G1 X86.445 Y41.471 E18.03309
G1 X86.656 Y40.546 E18.07254
G1 X86.944 Y39.642 E18.11198
G1 X87.308 Y38.766 E18.15142
G0 F9000 X87.805 Y38.883
G1 F1800 X88.24 Y38.064 E18.18998
G1 X88.744 Y37.285 E18.22855
G1 X89.313 Y36.553 E18.2671
G1 X89.943 Y35.873 E18.30564
G1 X90.629 Y35.249 E18.34419
G1 X91.366 Y34.687 E18.38272
G1 X92.149 Y34.191 E18.42126
G1 X92.972 Y33.763 E18.45983
G1 X93.828 Y33.409 E18.49834
G1 X94.712 Y33.129 E18.53689
G1 X95.617 Y32.927 E18.57544
G1 X96.536 Y32.803 E18.61399
G1 X97.208 Y32.763 E18.64198
G1 X97.529 Y32.754 E18.65533
G1 X97.83 Y32.75 E18.66785
G1 X156.793 Y32.75 E21.11925
G1 X157.645 Y32.761 E21.15467
G1 X158.571 Y32.814 E21.19323
G1 X159.488 Y32.947 E21.23176
G1 X160.391 Y33.159 E21.27032
G1 X161.272 Y33.447 E21.30885
G1 X162.125 Y33.81 E21.3474
G1 X162.944 Y34.246 E21.38597
G1 X163.722 Y34.75 E21.42451
G1 X164.453 Y35.319 E21.46302
G1 X165.133 Y35.95 E21.50159
G1 X165.756 Y36.636 E21.54012
G1 X166.318 Y37.374 E21.57868
G1 X166.814 Y38.157 E21.61722
G1 X167.24 Y38.981 E21.65578
G1 X167.594 Y39.837 E21.69429
G1 X167.873 Y40.722 E21.73287
G1 X168.075 Y41.627 E21.77143
G1 X168.198 Y42.546 E21.80997
G1 X168.237 Y43.208 E21.83754
G1 X168.246 Y43.528 E21.85085
G1 X168.25 Y43.83 E21.86341
G1 X168.249 Y165.897 E26.93837
G1 X168.24 Y166.624 E26.96859
G1 X168.189 Y167.55 E27.00715
G1 X168.058 Y168.468 E27.0457
G1 X167.848 Y169.371 E27.08425
G1 X167.561 Y170.252 E27.12277
G1 X167.2 Y171.106 E27.16132
G1 X166.766 Y171.926 E27.19989
G1 X166.263 Y172.705 E27.23844
G1 X165.695 Y173.437 E27.27696
G1 X165.066 Y174.118 E27.3155
G1 X164.381 Y174.743 E27.35406
G1 X163.644 Y175.306 E27.39261
G1 X162.862 Y175.803 E27.43114
G1 X162.039 Y176.231 E27.4697
G1 X161.183 Y176.587 E27.50825
G1 X160.3 Y176.868 E27.54677
G1 X159.395 Y177.071 E27.58533
G1 X158.476 Y177.196 E27.62389
G1 X157.792 Y177.237 E27.65238
G1 X157.471 Y177.246 E27.66573
G1 X157.17 Y177.25 E27.67825
G1 X98.068 Y177.249 E30.13542
G1 X97.37 Y177.24 E30.16444
G1 X96.445 Y177.188 E30.20296
G1 X95.527 Y177.057 E30.24151
G1 X94.624 Y176.847 E30.28006
G1 X93.742 Y176.56 E30.31862
G1 X92.889 Y176.197 E30.35716
G1 X92.07 Y175.763 E30.3957
G1 X91.291 Y175.26 E30.43425
G1 X90.558 Y174.692 E30.4728
G1 X89.878 Y174.062 E30.51134
G1 X89.254 Y173.377 E30.54986
G1 X88.691 Y172.64 E30.58842
G1 X88.194 Y171.857 E30.62698
G1 X87.766 Y171.034 E30.66555
G1 X87.411 Y170.178 E30.70407
G1 X87.131 Y169.294 E30.74263
G1 X86.928 Y168.39 E30.78115
G1 X86.804 Y167.471 E30.8197
G1 X86.763 Y166.781 E30.84844
G1 X86.754 Y166.448 E30.86229
G1 X86.75 Y166.158 E30.87434
G1 X86.751 Y44.029 E35.95188
G1 X86.76 Y43.364 E35.97953
G1 X86.812 Y42.438 E36.01809
G1 X86.945 Y41.52 E36.05665
G1 X87.155 Y40.617 E36.0952
G1 X87.443 Y39.736 E36.13373
G1 X87.805 Y38.883 E36.17226
G0 F9000 X88.303 Y39.002
G1 F1800 X88.737 Y38.207 E36.20991
G1 X89.239 Y37.454 E36.24754
G1 X89.805 Y36.748 E36.28516
G1 X90.432 Y36.094 E36.32283
G1 X91.114 Y35.499 E36.36045
G1 X91.846 Y34.966 E36.3981
G1 X92.622 Y34.499 E36.43575
G1 X93.436 Y34.103 E36.47339
G1 X94.281 Y33.78 E36.511
G1 X95.153 Y33.534 E36.54867
G1 X96.042 Y33.365 E36.58629
G1 X97.222 Y33.263 E36.63553
G1 X97.543 Y33.254 E36.64888
G1 X97.83 Y33.25 E36.66082
G1 X156.793 Y33.25 E39.11221
G1 X157.638 Y33.261 E39.14735
G1 X158.542 Y33.314 E39.18499
G1 X159.437 Y33.446 E39.22261
G1 X160.318 Y33.657 E39.26027
G1 X161.176 Y33.945 E39.2979
G1 X162.006 Y34.308 E39.33556
G1 X162.8 Y34.742 E39.37318
G1 X163.553 Y35.245 E39.41083
G1 X164.259 Y35.812 E39.44848
G1 X164.911 Y36.439 E39.48608
G1 X165.506 Y37.121 E39.52371
G1 X166.039 Y37.853 E39.56136
G1 X166.505 Y38.63 E39.59903
G1 X166.9 Y39.444 E39.63664
G1 X167.222 Y40.29 E39.67428
G1 X167.468 Y41.161 E39.7119
G1 X167.637 Y42.051 E39.74957
G1 X167.737 Y43.222 E39.79843
G1 X167.746 Y43.542 E39.81174
G1 X167.75 Y43.83 E39.82371
G1 X167.749 Y165.891 E44.89842
G1 X167.74 Y166.618 E44.92865
G1 X167.689 Y167.522 E44.96629
G1 X167.558 Y168.418 E45.00394
G1 X167.349 Y169.298 E45.04154
G1 X167.063 Y170.157 E45.07918
G1 X166.702 Y170.988 E45.11685
G1 X166.269 Y171.783 E45.15449
G1 X165.768 Y172.537 E45.19213
G1 X165.202 Y173.244 E45.22978
G1 X164.577 Y173.898 E45.26739
G1 X163.895 Y174.494 E45.30504
G1 X163.164 Y175.028 E45.34268
G1 X162.389 Y175.495 E45.3803
G1 X161.575 Y175.892 E45.41795
G1 X160.73 Y176.216 E45.45558
G1 X159.859 Y176.464 E45.49323
G1 X158.97 Y176.634 E45.53086
G1 X157.778 Y176.737 E45.5806
G1 X157.457 Y176.746 E45.59395
G1 X157.17 Y176.75 E45.60588
G1 X98.075 Y176.749 E48.06277
G1 X97.377 Y176.74 E48.09179
G1 X96.473 Y176.689 E48.12943
G1 X95.577 Y176.557 E48.16709
G1 X94.697 Y176.348 E48.20469
G1 X93.838 Y176.061 E48.24234
G1 X93.008 Y175.7 E48.27997
G1 X92.213 Y175.267 E48.31761
G1 X91.459 Y174.765 E48.35527
G1 X90.753 Y174.199 E48.39289
G1 X90.099 Y173.573 E48.43053
G1 X89.503 Y172.891 E48.46819
G1 X88.969 Y172.16 E48.50582
G1 X88.502 Y171.384 E48.54348
G1 X88.106 Y170.57 E48.58111
G1 X87.782 Y169.725 E48.61874
G1 X87.535 Y168.854 E48.65638
G1 X87.365 Y167.965 E48.69401
G1 X87.263 Y166.768 E48.74395
G1 X87.254 Y166.435 E48.7578
G1 X87.25 Y166.158 E48.76932
G1 X87.251 Y44.035 E53.8466
G1 X87.26 Y43.37 E53.87425
G1 X87.312 Y42.466 E53.9119
G1 X87.444 Y41.571 E53.94951
G1 X87.654 Y40.69 E53.98717
G1 X87.941 Y39.832 E54.02478
G1 X88.303 Y39.002 E54.06243
G1 F1500 E47.56243
;MESH:BattaryHolderX6Box.stl
G0 F9000 X96.835 Y44.31
G0 X98.31 Y44.31
G0 X156.718 Y44.282
G0 X156.9 Y165.9
;TYPE:WALL-INNER
G1 F1500 E54.06243
G1 F1800 X98.1 Y165.9 E56.01812
G1 X98.1 Y44.1 E60.06921
G1 X156.9 Y44.1 E62.0249
G1 X156.9 Y165.9 E66.07599
G0 F9000 X157.3 Y166.3
;TYPE:WALL-OUTER
G1 F1800 X97.7 Y166.3 E68.05829
G1 X97.7 Y43.7 E72.13598
G1 X157.3 Y43.7 E74.11829
G1 X157.3 Y166.3 E78.19598
G0 F9000 X157.03 Y166.03
G0 X156.79 Y165.51
G0 X156.51 Y165.51
;TYPE:SKIN
G1 F1800 X98.49 Y165.51 E80.12573
G1 X98.49 Y44.49 E84.15088
G1 X156.51 Y44.49 E86.08063
G1 X156.51 Y165.51 E90.10577
G1 F1500 E83.60577
G0 F9000 X156.79 Y165.51
G0 X99.163 Y165.79
G1 F1500 E90.10577
G0 F9000 X99.163 Y165.349
G1 F1800 X98.649 Y164.834 E90.12997
G0 F9000 X98.649 Y164.268
G1 F1800 X99.729 Y165.349 E90.18079
G0 F9000 X100.295 Y165.349
G1 F1800 X98.649 Y163.702 E90.25824
G0 F9000 X98.649 Y163.137
G1 F1800 X100.861 Y165.349 E90.36229
G0 F9000 X101.426 Y165.349
G1 F1800 X98.649 Y162.571 E90.49293
G0 F9000 X98.649 Y162.005
G1 F1800 X101.992 Y165.349 E90.6502
G0 F9000 X102.558 Y165.349
G1 F1800 X98.649 Y161.44 E90.83407
G0 F9000 X98.649 Y160.874
G1 F1800 X103.123 Y165.349 E91.04453
G0 F9000 X103.689 Y165.349
G1 F1800 X98.649 Y160.308 E91.28162
G0 F9000 X98.649 Y159.743
G1 F1800 X104.255 Y165.349 E91.54531
G0 F9000 X104.82 Y165.349
G1 F1800 X98.649 Y159.177 E91.8356
G0 F9000 X98.649 Y158.611
G1 F1800 X105.386 Y165.349 E92.15251
G0 F9000 X105.952 Y165.349
G1 F1800 X98.649 Y158.046 E92.49602
G0 F9000 X98.649 Y157.48
G1 F1800 X106.517 Y165.349 E92.86613
G0 F9000 X107.083 Y165.349
G1 F1800 X98.649 Y156.914 E93.26287
G0 F9000 X98.649 Y156.349
G1 F1800 X107.649 Y165.349 E93.6862
G0 F9000 X108.214 Y165.349
G1 F1800 X98.649 Y155.783 E94.13613
G0 F9000 X98.649 Y155.217
G1 F1800 X108.78 Y165.349 E94.61268
G0 F9000 X109.346 Y165.349
G1 F1800 X98.649 Y154.652 E95.11584
G0 F9000 X98.649 Y154.086
G1 F1800 X109.911 Y165.349 E95.64559
G0 F9000 X110.477 Y165.349
G1 F1800 X98.649 Y153.52 E96.20197
G0 F9000 X98.649 Y152.954
G1 F1800 X111.043 Y165.349 E96.78497
G0 F9000 X111.609 Y165.349
G1 F1800 X98.649 Y152.389 E97.39457
G0 F9000 X98.649 Y151.823
G1 F1800 X112.174 Y165.349 E98.03076
G0 F9000 X112.74 Y165.349
G1 F1800 X98.649 Y151.257 E98.69358
G0 F9000 X98.649 Y150.692
G1 F1800 X113.306 Y165.349 E99.38301
G0 F9000 X113.871 Y165.349
G1 F1800 X98.649 Y150.126 E100.09903
G0 F9000 X98.649 Y149.56
G1 F1800 X114.437 Y165.349 E100.84167
G0 F9000 X115.003 Y165.349
G1 F1800 X98.649 Y148.995 E101.61091
G0 F9000 X98.649 Y148.429
G1 F1800 X115.568 Y165.349 E102.40675
G0 F9000 X116.134 Y165.349
G1 F1800 X98.649 Y147.863 E103.22922
G0 F9000 X98.649 Y147.298
G1 F1800 X116.7 Y165.349 E104.07828
G0 F9000 X117.265 Y165.349
G1 F1800 X98.649 Y146.732 E104.95394
G0 F9000 X98.649 Y146.166
G1 F1800 X117.831 Y165.349 E105.85623
G0 F9000 X118.397 Y165.349
G1 F1800 X98.649 Y145.601 E106.78511
G0 F9000 X98.649 Y145.035
G1 F1800 X118.962 Y165.349 E107.7406
G0 F9000 X119.528 Y165.349
G1 F1800 X98.649 Y144.469 E108.72271
G0 F9000 X98.649 Y143.904
G1 F1800 X120.094 Y165.349 E109.73141
G0 F9000 X120.659 Y165.349
G1 F1800 X98.649 Y143.338 E110.76672
G0 F9000 X98.649 Y142.772
G1 F1800 X121.225 Y165.349 E111.82865
G0 F9000 X121.791 Y165.349
G1 F1800 X98.649 Y142.206 E112.9172
G0 F9000 X98.649 Y141.641
G1 F1800 X122.357 Y165.349 E114.03235
G0 F9000 X122.922 Y165.349
G1 F1800 X98.649 Y141.075 E115.1741
G0 F9000 X98.649 Y140.509
G1 F1800 X123.488 Y165.349 E116.34248
G0 F9000 X124.054 Y165.349
G1 F1800 X98.649 Y139.944 E117.53745
G0 F9000 X98.649 Y139.378
G1 F1800 X124.619 Y165.349 E118.75902
G0 F9000 X125.185 Y165.349
G1 F1800 X98.649 Y138.812 E120.00722
G0 F9000 X98.649 Y138.247
G1 F1800 X125.751 Y165.349 E121.28201
G0 F9000 X126.316 Y165.349
G1 F1800 X98.649 Y137.681 E122.58341
G0 F9000 X98.649 Y137.115
G1 F1800 X126.882 Y165.349 E123.91143
G0 F9000 X127.448 Y165.349
G1 F1800 X98.649 Y136.55 E125.26604
G0 F9000 X98.649 Y135.984
G1 F1800 X128.013 Y165.349 E126.64726
G0 F9000 X128.579 Y165.349
G1 F1800 X98.649 Y135.418 E128.0551
G0 F9000 X98.649 Y134.853
G1 F1800 X129.145 Y165.349 E129.48954
G0 F9000 X129.71 Y165.349
G1 F1800 X98.649 Y134.287 E130.95057
G0 F9000 X98.649 Y133.721
G1 F1800 X130.276 Y165.349 E132.43823
G0 F9000 X130.842 Y165.349
G1 F1800 X98.649 Y133.155 E133.95252
G0 F9000 X98.649 Y132.59
G1 F1800 X131.408 Y165.349 E135.4934
G0 F9000 X131.973 Y165.349
G1 F1800 X98.649 Y132.024 E137.06088
G0 F9000 X98.649 Y131.458
G1 F1800 X132.539 Y165.349 E138.65499
G0 F9000 X133.105 Y165.349
G1 F1800 X98.649 Y130.893 E140.27569
G0 F9000 X98.649 Y130.327
G1 F1800 X133.67 Y165.349 E141.923
G0 F9000 X134.236 Y165.349
G1 F1800 X98.649 Y129.761 E143.59692
G0 F9000 X98.649 Y129.196
G1 F1800 X134.802 Y165.349 E145.29745
G0 F9000 X135.367 Y165.349
G1 F1800 X98.649 Y128.63 E147.02458
G0 F9000 X98.649 Y128.064
G1 F1800 X135.933 Y165.349 E148.77832
G0 F9000 X136.499 Y165.349
G1 F1800 X98.649 Y127.499 E150.55867
G0 F9000 X98.649 Y126.933
G1 F1800 X137.064 Y165.349 E152.36562
G0 F9000 X137.63 Y165.349
G1 F1800 X98.649 Y126.367 E154.19919
G0 F9000 X98.649 Y125.802
G1 F1800 X138.196 Y165.349 E156.05936
G0 F9000 X138.761 Y165.349
G1 F1800 X98.649 Y125.236 E157.94613
G0 F9000 X98.649 Y124.67
G1 F1800 X139.327 Y165.349 E159.85952
G0 F9000 X139.893 Y165.349
G1 F1800 X98.649 Y124.105 E161.79951
G0 F9000 X98.649 Y123.539
G1 F1800 X140.458 Y165.349 E163.7661
G0 F9000 X141.024 Y165.349
G1 F1800 X98.649 Y122.973 E165.75932
G0 F9000 X98.649 Y122.407
G1 F1800 X141.59 Y165.349 E167.77915
G0 F9000 X142.156 Y165.349
G1 F1800 X98.649 Y121.842 E169.82559
G0 F9000 X98.649 Y121.276
G1 F1800 X142.721 Y165.349 E171.89862
G0 F9000 X143.287 Y165.349
G1 F1800 X98.649 Y120.71 E173.99828
G0 F9000 X98.649 Y120.145
G1 F1800 X143.853 Y165.349 E176.12454
G0 F9000 X144.418 Y165.349
G1 F1800 X98.649 Y119.579 E178.2774
G0 F9000 X98.649 Y119.013
G1 F1800 X144.984 Y165.349 E180.45688
G0 F9000 X145.55 Y165.349
G1 F1800 X98.649 Y118.448 E182.66296
G0 F9000 X98.649 Y117.882
G1 F1800 X146.115 Y165.349 E184.89563
G0 F9000 X146.681 Y165.349
G1 F1800 X98.649 Y117.316 E187.15494
G0 F9000 X98.649 Y116.751
G1 F1800 X147.247 Y165.349 E189.44084
G0 F9000 X147.812 Y165.349
G1 F1800 X98.649 Y116.185 E191.75334
G0 F9000 X98.649 Y115.619
G1 F1800 X148.378 Y165.349 E194.09246
G0 F9000 X148.944 Y165.349
G1 F1800 X98.649 Y115.054 E196.45818
G0 F9000 X98.649 Y114.488
G1 F1800 X149.509 Y165.349 E198.8505
G0 F9000 X150.075 Y165.349
G1 F1800 X98.649 Y113.922 E201.26945
G0 F9000 X98.649 Y113.356
G1 F1800 X150.641 Y165.349 E203.71502
G0 F9000 X151.207 Y165.349
G1 F1800 X98.649 Y112.791 E206.18718
G0 F9000 X98.649 Y112.225
G1 F1800 X151.772 Y165.349 E208.68595
G0 F9000 X152.338 Y165.349
G1 F1800 X98.649 Y111.659 E211.21134
G0 F9000 X98.649 Y111.094
G1 F1800 X152.904 Y165.349 E213.76333
G0 F9000 X153.469 Y165.349
G1 F1800 X98.649 Y110.528 E216.34192
G0 F9000 X98.649 Y109.962
G1 F1800 X154.035 Y165.349 E218.94713
G0 F9000 X154.601 Y165.349
G1 F1800 X98.649 Y109.397 E221.57894
G0 F9000 X98.649 Y108.831
G1 F1800 X155.166 Y165.349 E224.23735
G0 F9000 X155.732 Y165.349
G1 F1800 X98.649 Y108.265 E226.92238
G0 F9000 X98.649 Y107.7
G1 F1800 X156.298 Y165.349 E229.63401
G0 F9000 X156.35 Y164.835
G1 F1800 X98.649 Y107.134 E232.34809
G0 F9000 X98.649 Y106.568
G1 F1800 X156.35 Y164.27 E235.06219
G0 F9000 X156.35 Y163.704
G1 F1800 X98.649 Y106.003 E237.77627
G0 F9000 X98.649 Y105.437
G1 F1800 X156.35 Y163.138 E240.49035
G0 F9000 X156.35 Y162.573
G1 F1800 X98.649 Y104.871 E243.20445
G0 F9000 X98.649 Y104.306
G1 F1800 X156.35 Y162.007 E245.91853
G0 F9000 X156.35 Y161.441
