;FLAVOR:Marlin
;TIME:339
;Filament used: 0.202893m
;Layer height: 0.2
;MINX:96.828
;MINY:80.796
;MINZ:0.2
;MAXX:145.234
;MAXY:122.733
;MAXZ:3
;Generated with Cura_SteamEngine 4.13.0
M140 S60
M105
M190 S60
M104 S200
M105
M109 S200
M82 ;absolute extrusion mode
M220 S100 ;reset feedrate
M221 S100 ;reset flowrate
G90 ;use absolute coordinates
M82 ;absolute extrusion mode
G28 ;home
G1 Z2 F1500 ;raise z
G92 E0 ;reset extruder

G1 X75 Y5 F5000 ;start position
G1 Z0.28 F1500 ;lower z
G1 E4 F500 ;prime the filament
G1 X180 E10 F500 ;1st line
G1 Y5.4 F5000
G1 X75 E20 F500 ;2nd line
G1 Z2 F1500 ;raise z
G92 E0 ;reset extruder
G92 E0
G92 E0
G1 F1500 E-6.5
;LAYER_COUNT:15
;LAYER:0
M107
G0 F9000 X101.153 Y86.918 Z0.2
;TYPE:SKIRT
G1 F1500 E0
G1 F1800 X101.914 Y86.097 E0.04654
G1 X102.403 Y85.619 E0.07497
G1 X103.035 Y85.047 E0.11041
G1 X103.316 Y84.816 E0.12553
G1 X103.787 Y84.441 E0.15056
G1 X104.412 Y83.978 E0.1829
G1 X104.592 Y83.854 E0.19199
G1 X105.201 Y83.462 E0.2221
G1 X105.482 Y83.294 E0.23571
G1 X105.81 Y83.105 E0.25145
G1 X106.168 Y82.907 E0.26846
G1 X106.863 Y82.554 E0.30087
G1 X107.243 Y82.377 E0.3183
G1 X107.934 Y82.083 E0.34952
G1 X108.376 Y81.912 E0.36922
G1 X109.081 Y81.666 E0.40026
G1 X109.526 Y81.527 E0.41965
G1 X110.256 Y81.325 E0.45114
G1 X110.602 Y81.242 E0.46593
G1 X111.114 Y81.132 E0.4877
G1 X111.386 Y81.08 E0.49921
G1 X112.011 Y80.979 E0.52554
G1 X112.431 Y80.923 E0.54315
G1 X112.911 Y80.869 E0.56323
G1 X113.321 Y80.836 E0.58034
G1 X113.802 Y80.809 E0.60036
G1 X113.934 Y80.804 E0.60586
G1 X114.36 Y80.796 E0.62357
G1 X114.674 Y80.796 E0.63662
G1 X115.068 Y80.803 E0.65301
G1 X115.41 Y80.815 E0.66724
G1 X115.959 Y80.848 E0.6901
G1 X116.161 Y80.865 E0.69853
G1 X116.768 Y80.932 E0.72392
G1 X117.221 Y80.995 E0.74293
G1 X117.792 Y81.09 E0.767
G1 X118.016 Y81.133 E0.77648
G1 X118.585 Y81.257 E0.80069
G1 X118.922 Y81.34 E0.81512
G1 X119.633 Y81.54 E0.84583
G1 X120.169 Y81.71 E0.86921
G1 X120.89 Y81.966 E0.90102
G1 X121.243 Y82.105 E0.91679
G1 X121.916 Y82.396 E0.94727
G1 X122.385 Y82.617 E0.96883
G1 X123.055 Y82.96 E1.00012
G1 X123.854 Y83.404 E1.03813
G1 X124.068 Y83.527 E1.04839
G1 X124.808 Y83.96 E1.08403
G1 X127.022 Y85.171 E1.18895
G1 X129.237 Y86.303 E1.29237
G1 X131.515 Y87.387 E1.39725
G1 X133.453 Y88.249 E1.48544
G1 X134.451 Y88.679 E1.53062
G1 X134.769 Y88.822 E1.54511
G1 X135.085 Y88.97 E1.55962
G1 X135.493 Y89.172 E1.57855
G1 X135.84 Y89.352 E1.5948
G1 X136.456 Y89.696 E1.62413
G1 X136.822 Y89.916 E1.64189
G1 X137.472 Y90.338 E1.67411
G1 X137.914 Y90.647 E1.69653
G1 X138.814 Y91.346 E1.7439
G1 X139.307 Y91.771 E1.77097
G1 X139.894 Y92.316 E1.80427
G1 X140.08 Y92.501 E1.81517
G1 X140.296 Y92.721 E1.82799
G1 X140.474 Y92.908 E1.83873
G1 X140.753 Y93.212 E1.85588
G1 X141.064 Y93.574 E1.87572
G1 X141.259 Y93.811 E1.88848
G1 X141.489 Y94.1 E1.90384
G1 X141.729 Y94.412 E1.9202
G1 X142.111 Y94.94 E1.9473
G1 X142.239 Y95.128 E1.95675
G1 X142.493 Y95.517 E1.97607
G1 X142.744 Y95.934 E1.9963
G1 X142.982 Y96.348 E2.01616
G1 X143.336 Y97.013 E2.04748
G1 X143.491 Y97.33 E2.06215
G1 X143.692 Y97.766 E2.08211
G1 X143.868 Y98.177 E2.1007
G1 X144.009 Y98.523 E2.11623
G1 X144.157 Y98.903 E2.13319
G1 X144.432 Y99.729 E2.16938
G1 X144.589 Y100.268 E2.19272
G1 X144.771 Y100.979 E2.22323
G1 X144.863 Y101.394 E2.24091
G1 X145.003 Y102.143 E2.27258
G1 X145.06 Y102.519 E2.2884
G1 X145.122 Y102.993 E2.30827
G1 X145.158 Y103.361 E2.32364
G1 X145.19 Y103.75 E2.33987
G1 X145.221 Y104.276 E2.36178
G1 X145.229 Y104.503 E2.37122
G1 X145.234 Y105.102 E2.39612
G1 X145.226 Y105.546 E2.41459
G1 X145.182 Y106.362 E2.44856
G1 X145.138 Y106.846 E2.46877
G1 X145.048 Y107.574 E2.49926
G1 X144.99 Y107.943 E2.51479
G1 X144.847 Y108.685 E2.54621
G1 X144.749 Y109.117 E2.56463
G1 X144.56 Y109.839 E2.59566
G1 X144.409 Y110.346 E2.61765
G1 X144.169 Y111.064 E2.64912
G1 X144.109 Y111.225 E2.65627
G1 X143.969 Y111.581 E2.67217
G1 X143.845 Y111.882 E2.68571
G1 X143.539 Y112.56 E2.71663
G1 X143.276 Y113.095 E2.74142
G1 X142.92 Y113.762 E2.77285
G1 X142.783 Y113.999 E2.78423
G1 X142.371 Y114.658 E2.81654
G1 X142.013 Y115.189 E2.84317
G1 X141.335 Y116.093 E2.89015
G1 X140.935 Y116.574 E2.91616
G1 X140.156 Y117.419 E2.96394
G1 X139.676 Y117.889 E2.99187
G1 X139.132 Y118.388 E3.02256
G1 X139.012 Y118.491 E3.02913
G1 X138.683 Y118.763 E3.04688
G1 X138.362 Y119.018 E3.06393
G1 X137.777 Y119.452 E3.09421
G1 X137.421 Y119.699 E3.11222
G1 X136.769 Y120.119 E3.14447
G1 X136.4 Y120.339 E3.16233
G1 X135.766 Y120.69 E3.19246
G1 X135.473 Y120.84 E3.20614
G1 X135.052 Y121.044 E3.22559
G1 X134.735 Y121.19 E3.2401
G1 X134.116 Y121.453 E3.26806
G1 X133.757 Y121.593 E3.28408
G1 X132.988 Y121.861 E3.31794
G1 X132.528 Y122.003 E3.33796
G1 X131.834 Y122.194 E3.36788
G1 X131.342 Y122.312 E3.38892
G1 X130.567 Y122.469 E3.42179
G1 X130.309 Y122.512 E3.43267
G1 X129.559 Y122.611 E3.46412
G1 X128.907 Y122.675 E3.49136
G1 X128.24 Y122.721 E3.51915
G1 X128.136 Y122.725 E3.52348
G1 X127.704 Y122.733 E3.54144
G1 X127.384 Y122.733 E3.55475
G1 X126.955 Y122.725 E3.57259
G1 X126.667 Y122.714 E3.58457
G1 X125.952 Y122.664 E3.61437
G1 X125.375 Y122.605 E3.63848
G1 X124.557 Y122.491 E3.67282
G1 X124.286 Y122.443 E3.68426
G1 X123.601 Y122.299 E3.71336
G1 X123.126 Y122.184 E3.73368
G1 X122.394 Y121.981 E3.76526
G1 X121.889 Y121.822 E3.78727
G1 X121.118 Y121.548 E3.82129
G1 X120.803 Y121.423 E3.83538
G1 X120.2 Y121.163 E3.86268
G1 X119.934 Y121.039 E3.87488
G1 X119.522 Y120.836 E3.89398
G1 X118.988 Y120.56 E3.91897
G1 X118.607 Y120.354 E3.93698
G1 X118.337 Y120.2 E3.9499
G1 X117.229 Y119.554 E4.00322
G1 X115.004 Y118.339 E4.10862
G1 X112.786 Y117.208 E4.21213
G1 X110.503 Y116.124 E4.3172
G1 X108.653 Y115.308 E4.40127
G1 X107.545 Y114.824 E4.45154
G1 X107.249 Y114.69 E4.46505
G1 X106.952 Y114.55 E4.4787
G1 X106.589 Y114.371 E4.49552
G1 X106.279 Y114.211 E4.51003
G1 X105.657 Y113.865 E4.53962
G1 X105.213 Y113.599 E4.56114
G1 X104.515 Y113.144 E4.59578
G1 X104.173 Y112.903 E4.61317
G1 X103.834 Y112.656 E4.63061
G1 X103.209 Y112.156 E4.66389
G1 X102.802 Y111.806 E4.6862
G1 X102.232 Y111.281 E4.71842
G1 X102.071 Y111.122 E4.72783
G1 X101.802 Y110.847 E4.74382
G1 X101.471 Y110.497 E4.76385
G1 X100.933 Y109.884 E4.79776
G1 X100.675 Y109.562 E4.81491
G1 X100.346 Y109.135 E4.83733
G1 X99.909 Y108.526 E4.86849
G1 X99.737 Y108.269 E4.88135
G1 X99.332 Y107.618 E4.91322
G1 X99.055 Y107.136 E4.93633
G1 X98.71 Y106.487 E4.96689
G1 X98.576 Y106.214 E4.97953
G1 X98.386 Y105.808 E4.99817
G1 X98.271 Y105.548 E5.00999
G1 X98.008 Y104.899 E5.0391
G1 X97.856 Y104.488 E5.05732
G1 X97.721 Y104.1 E5.0744
G1 X97.673 Y103.954 E5.08079
G1 X97.564 Y103.603 E5.09607
G1 X97.506 Y103.405 E5.10465
G1 X97.397 Y103.007 E5.12181
G1 X97.344 Y102.798 E5.13077
G1 X97.241 Y102.355 E5.14968
G1 X97.183 Y102.08 E5.16136
G1 X97.066 Y101.43 E5.18882
G1 X96.985 Y100.891 E5.21148
G1 X96.896 Y100.119 E5.24379
G1 X96.866 Y99.745 E5.25939
G1 X96.832 Y99.041 E5.28869
G1 X96.828 Y98.812 E5.29822
G1 X96.828 Y98.405 E5.31514
G1 X96.837 Y97.926 E5.33506
G1 X96.878 Y97.151 E5.36732
G1 X96.908 Y96.81 E5.38155
G1 X97 Y96.058 E5.41305
G1 X97.091 Y95.476 E5.43754
G1 X97.23 Y94.744 E5.46852
G1 X97.284 Y94.504 E5.47875
G1 X97.387 Y94.086 E5.49664
G1 X97.499 Y93.68 E5.51415
G1 X97.577 Y93.414 E5.52568
G1 X97.73 Y92.931 E5.54674
G1 X97.849 Y92.584 E5.56199
G1 X98.093 Y91.938 E5.5907
G1 X98.188 Y91.708 E5.60105
G1 X98.326 Y91.388 E5.61554
G1 X98.483 Y91.039 E5.63145
G1 X98.648 Y90.688 E5.64757
G1 X98.709 Y90.564 E5.65332
G1 X99.081 Y89.871 E5.68602
G1 X99.347 Y89.414 E5.708
G1 X99.535 Y89.103 E5.72311
G1 X99.602 Y88.996 E5.72836
G1 X100.021 Y88.373 E5.75957
G1 X100.332 Y87.943 E5.78164
G1 X100.823 Y87.312 E5.81488
G1 X101.153 Y86.918 E5.83625
G0 F9000 X101.537 Y87.239
G1 F1800 X102.264 Y86.455 E5.8807
G1 X102.753 Y85.977 E5.90913
G1 X103.356 Y85.43 E5.94298
G1 X103.627 Y85.207 E5.95757
G1 X104.098 Y84.832 E5.9826
G1 X104.695 Y84.389 E6.0135
G1 X104.875 Y84.265 E6.02259
G1 X105.458 Y83.891 E6.05139
G1 X105.739 Y83.723 E6.065
G1 X106.052 Y83.543 E6.08001
G1 X106.41 Y83.345 E6.09702
G1 X107.074 Y83.007 E6.128
G1 X107.454 Y82.83 E6.14543
G1 X108.114 Y82.549 E6.17525
G1 X108.556 Y82.378 E6.19495
G1 X109.23 Y82.143 E6.22463
G1 X109.675 Y82.004 E6.24401
G1 X110.372 Y81.812 E6.27407
G1 X110.718 Y81.729 E6.28886
G1 X111.207 Y81.623 E6.30966
G1 X111.479 Y81.571 E6.32118
G1 X112.077 Y81.474 E6.34636
G1 X112.497 Y81.418 E6.36398
G1 X112.96 Y81.366 E6.38335
G1 X113.352 Y81.335 E6.3997
G1 X113.821 Y81.309 E6.41923
G1 X113.953 Y81.304 E6.42472
G1 X114.36 Y81.296 E6.44164
G1 X114.674 Y81.296 E6.4547
G1 X115.051 Y81.303 E6.47037
G1 X115.393 Y81.315 E6.4846
G1 X115.918 Y81.346 E6.50647
G1 X116.12 Y81.363 E6.51489
G1 X116.699 Y81.427 E6.53911
G1 X117.152 Y81.49 E6.55813
G1 X117.698 Y81.581 E6.58114
G1 X117.922 Y81.624 E6.59062
G1 X118.466 Y81.743 E6.61378
G1 X118.803 Y81.826 E6.62821
G1 X119.482 Y82.017 E6.65753
G1 X120.018 Y82.187 E6.68091
G1 X120.707 Y82.432 E6.71131
G1 X121.06 Y82.571 E6.72708
G1 X121.703 Y82.849 E6.75621
G1 X122.172 Y83.07 E6.77776
G1 X122.812 Y83.397 E6.80764
G1 X123.611 Y83.841 E6.84565
G1 X123.816 Y83.958 E6.85546
G1 X124.568 Y84.398 E6.89168
G1 X126.791 Y85.615 E6.99705
G1 X129.018 Y86.753 E7.10102
G1 X131.322 Y87.848 E7.20708
G1 X133.238 Y88.7 E7.29426
G1 X134.253 Y89.138 E7.34022
G1 X134.557 Y89.275 E7.35408
G1 X134.873 Y89.423 E7.36859
G1 X135.263 Y89.615 E7.38666
G1 X135.61 Y89.795 E7.40291
G1 X136.198 Y90.124 E7.43093
G1 X136.564 Y90.344 E7.44868
G1 X137.185 Y90.748 E7.47948
G1 X137.627 Y91.057 E7.5019
G1 X138.487 Y91.725 E7.54718
G1 X138.98 Y92.15 E7.57424
G1 X139.542 Y92.67 E7.60607
G1 X139.728 Y92.855 E7.61698
G1 X139.933 Y93.065 E7.62918
G1 X140.111 Y93.252 E7.63991
G1 X140.381 Y93.546 E7.65651
G1 X140.678 Y93.892 E7.67547
G1 X140.873 Y94.129 E7.68823
G1 X141.093 Y94.405 E7.7029
G1 X141.333 Y94.717 E7.71926
G1 X141.698 Y95.221 E7.74514
G1 X141.826 Y95.409 E7.75459
G1 X142.068 Y95.782 E7.77308
G1 X142.311 Y96.183 E7.79257
G1 X142.549 Y96.597 E7.81243
G1 X142.886 Y97.233 E7.84235
G1 X143.041 Y97.55 E7.85702
G1 X143.234 Y97.967 E7.87612
G1 X143.405 Y98.366 E7.89417
G1 X143.546 Y98.712 E7.90971
G1 X143.689 Y99.08 E7.92612
G1 X143.952 Y99.869 E7.9607
G1 X144.109 Y100.408 E7.98404
G1 X144.283 Y101.087 E8.01318
G1 X144.375 Y101.502 E8.03085
G1 X144.509 Y102.218 E8.06114
G1 X144.566 Y102.594 E8.07695
G1 X144.625 Y103.051 E8.0961
G1 X144.66 Y103.402 E8.11077
G1 X144.692 Y103.791 E8.127
G1 X144.721 Y104.293 E8.1479
G1 X144.729 Y104.52 E8.15735
G1 X144.734 Y105.093 E8.18117
G1 X144.726 Y105.537 E8.19963
G1 X144.684 Y106.316 E8.23207
G1 X144.64 Y106.8 E8.25227
G1 X144.554 Y107.496 E8.28143
G1 X144.496 Y107.865 E8.29696
G1 X144.36 Y108.574 E8.32697
G1 X144.262 Y109.006 E8.34539
G1 X144.081 Y109.696 E8.37505
G1 X143.93 Y110.203 E8.39704
G1 X143.7 Y110.889 E8.42712
G1 X143.64 Y111.05 E8.43426
G1 X143.507 Y111.391 E8.44948
G1 X143.383 Y111.692 E8.46301
G1 X143.09 Y112.34 E8.49258
G1 X142.827 Y112.875 E8.51737
G1 X142.487 Y113.512 E8.54739
G1 X142.35 Y113.749 E8.55877
G1 X141.956 Y114.378 E8.58963
G1 X141.598 Y114.909 E8.61625
G1 X140.95 Y115.774 E8.66118
G1 X140.55 Y116.255 E8.68719
G1 X139.806 Y117.062 E8.73283
G1 X139.326 Y117.532 E8.76076
G1 X138.807 Y118.008 E8.79004
G1 X138.687 Y118.111 E8.79661
G1 X138.372 Y118.371 E8.81359
G1 X138.051 Y118.626 E8.83064
G1 X137.492 Y119.041 E8.85958
G1 X137.136 Y119.288 E8.8776
G1 X136.513 Y119.689 E8.9084
G1 X136.144 Y119.909 E8.92626
G1 X135.538 Y120.245 E8.95507
G1 X135.245 Y120.395 E8.96875
G1 X134.843 Y120.59 E8.98733
G1 X134.526 Y120.736 E9.00184
G1 X133.935 Y120.987 E9.02853
G1 X133.576 Y121.127 E9.04455
G1 X132.841 Y121.384 E9.07693
G1 X132.381 Y121.526 E9.09694
G1 X131.717 Y121.708 E9.12556
G1 X131.225 Y121.826 E9.1466
G1 X130.485 Y121.976 E9.17799
G1 X130.227 Y122.019 E9.18886
G1 X129.51 Y122.114 E9.21893
G1 X128.858 Y122.178 E9.24617
G1 X128.221 Y122.221 E9.27272
G1 X128.117 Y122.225 E9.27704
G1 X127.704 Y122.233 E9.29422
G1 X127.384 Y122.233 E9.30752
G1 X126.974 Y122.225 E9.32457
G1 X126.686 Y122.214 E9.33655
G1 X126.002 Y122.166 E9.36506
G1 X125.425 Y122.107 E9.38917
G1 X124.644 Y121.998 E9.42196
G1 X124.373 Y121.95 E9.4334
G1 X123.718 Y121.813 E9.46122
G1 X123.243 Y121.698 E9.48154
G1 X122.545 Y121.504 E9.51166
G1 X122.04 Y121.345 E9.53367
G1 X121.303 Y121.083 E9.56619
G1 X120.988 Y120.958 E9.58028
G1 X120.411 Y120.709 E9.60641
G1 X120.145 Y120.585 E9.61861
G1 X119.751 Y120.392 E9.63685
G1 X119.217 Y120.116 E9.66184
G1 X118.853 Y119.919 E9.67905
G1 X118.589 Y119.768 E9.69169
G1 X117.469 Y119.115 E9.74559
G1 X115.262 Y117.91 E9.85014
G1 X112.976 Y116.744 E9.95683
G1 X110.74 Y115.683 E10.05972
G1 X108.855 Y114.851 E10.14539
G1 X107.745 Y114.366 E10.19575
G1 X107.462 Y114.238 E10.20866
G1 X107.165 Y114.098 E10.22231
G1 X106.819 Y113.927 E10.23836
G1 X106.509 Y113.767 E10.25286
G1 X105.914 Y113.436 E10.28117
G1 X105.47 Y113.17 E10.30269
G1 X104.803 Y112.735 E10.33579
G1 X104.461 Y112.494 E10.35319
G1 X104.132 Y112.254 E10.37012
G1 X103.535 Y111.777 E10.40189
G1 X103.128 Y111.427 E10.42421
G1 X102.583 Y110.925 E10.45501
G1 X102.422 Y110.766 E10.46442
G1 X102.166 Y110.503 E10.47968
G1 X101.835 Y110.153 E10.49971
G1 X101.32 Y109.568 E10.53211
G1 X101.071 Y109.257 E10.54867
G1 X100.742 Y108.83 E10.57108
G1 X100.324 Y108.248 E10.60087
G1 X100.152 Y107.991 E10.61373
G1 X99.766 Y107.368 E10.6442
G1 X99.489 Y106.886 E10.66731
G1 X99.159 Y106.267 E10.69648
G1 X99.025 Y105.994 E10.70912
G1 X98.844 Y105.605 E10.72696
G1 X98.729 Y105.345 E10.73878
G1 X98.477 Y104.726 E10.76657
G1 X98.325 Y104.315 E10.78478
G1 X98.196 Y103.943 E10.80115
G1 X98.148 Y103.797 E10.80754
G1 X98.044 Y103.462 E10.82213
G1 X97.986 Y103.264 E10.8307
G1 X97.882 Y102.884 E10.84708
G1 X97.829 Y102.675 E10.85605
G1 X97.73 Y102.251 E10.87415
G1 X97.672 Y101.976 E10.88583
G1 X97.56 Y101.356 E10.91203
G1 X97.479 Y100.817 E10.93469
G1 X97.394 Y100.079 E10.96557
G1 X97.364 Y99.705 E10.98117
G1 X97.332 Y99.033 E11.00914
G1 X97.328 Y98.804 E11.01867
G1 X97.328 Y98.414 E11.03488
G1 X97.337 Y97.935 E11.0548
G1 X97.376 Y97.195 E11.08561
G1 X97.406 Y96.854 E11.09984
G1 X97.494 Y96.135 E11.12995
G1 X97.585 Y95.553 E11.15444
G1 X97.718 Y94.854 E11.18403
G1 X97.772 Y94.614 E11.19425
G1 X97.87 Y94.214 E11.21138
G1 X97.978 Y93.821 E11.22832
G1 X98.056 Y93.555 E11.23985
G1 X98.203 Y93.093 E11.26
G1 X98.322 Y92.746 E11.27525
G1 X98.555 Y92.129 E11.30267
G1 X98.65 Y91.899 E11.31302
G1 X98.782 Y91.593 E11.32687
G1 X98.939 Y91.244 E11.34279
G1 X99.097 Y90.909 E11.35818
G1 X99.158 Y90.785 E11.36393
G1 X99.513 Y90.122 E11.3952
G1 X99.779 Y89.665 E11.41718
G1 X100.026 Y89.261 E11.43687
G1 X100.426 Y88.666 E11.46667
G1 X100.737 Y88.236 E11.48874
G1 X101.207 Y87.633 E11.52052
G1 X101.537 Y87.239 E11.54189
G0 F9000 X101.92 Y87.561
G1 F1800 X102.613 Y86.812 E11.58431
G1 X103.102 Y86.334 E11.61274
G1 X103.678 Y85.813 E11.64503
G1 X103.939 Y85.598 E11.65909
G1 X104.41 Y85.223 E11.68412
G1 X104.979 Y84.801 E11.71358
G1 X105.159 Y84.677 E11.72266
G1 X105.714 Y84.32 E11.7501
G1 X105.995 Y84.152 E11.76371
G1 X106.294 Y83.98 E11.77805
G1 X106.652 Y83.782 E11.79506
G1 X107.285 Y83.461 E11.82457
G1 X107.665 Y83.284 E11.842
G1 X108.295 Y83.015 E11.87048
G1 X108.737 Y82.844 E11.89018
G1 X109.379 Y82.62 E11.91845
G1 X109.824 Y82.481 E11.93783
G1 X110.489 Y82.298 E11.96651
G1 X110.835 Y82.215 E11.9813
G1 X111.301 Y82.114 E12.00112
G1 X111.573 Y82.062 E12.01264
G1 X112.143 Y81.97 E12.03664
G1 X112.563 Y81.914 E12.05426
G1 X113.009 Y81.864 E12.07292
G1 X113.383 Y81.834 E12.08852
G1 X113.84 Y81.808 E12.10755
G1 X113.972 Y81.803 E12.11304
G1 X114.36 Y81.796 E12.12917
G1 X114.674 Y81.796 E12.14223
G1 X115.033 Y81.802 E12.15715
G1 X115.375 Y81.814 E12.17138
G1 X115.876 Y81.844 E12.19225
G1 X116.078 Y81.861 E12.20068
G1 X116.63 Y81.923 E12.22377
G1 X117.083 Y81.986 E12.24278
G1 X117.603 Y82.072 E12.2647
G1 X117.827 Y82.115 E12.27418
G1 X118.346 Y82.228 E12.29626
G1 X118.683 Y82.311 E12.31069
G1 X119.331 Y82.494 E12.33869
G1 X119.867 Y82.664 E12.36206
G1 X120.523 Y82.897 E12.39101
G1 X120.876 Y83.036 E12.40678
G1 X121.49 Y83.301 E12.43458
G1 X121.959 Y83.522 E12.45614
