;FLAVOR:Marlin
;TIME:4693
;Filament used: 4.35644m
;Layer height: 0.2
;MINX:86.25
;MINY:32.25
;MINZ:0.2
;MAXX:168.75
;MAXY:177.75
;MAXZ:3
;Generated with Cura_SteamEngine 4.13.0
M140 S60
M105
M190 S60
M104 S200
M105
M109 S200
M82 ;absolute extrusion mode
M220 S100 ;reset feedrate
M221 S100 ;reset flowrate
G90 ;use absolute coordinates
M82 ;absolute extrusion mode
G28 ;home
G1 Z2 F1500 ;raise z
G92 E0 ;reset extruder

G1 X75 Y5 F5000 ;start position
G1 Z0.28 F1500 ;lower z
G1 E4 F500 ;prime the filament
G1 X180 E10 F500 ;1st line
G1 Y5.4 F5000
G1 X75 E20 F500 ;2nd line
G1 Z2 F1500 ;raise z
G92 E0 ;reset extruder
G92 E0
G92 E0
G1 F1500 E-6.5
;LAYER_COUNT:15
;LAYER:0
M107
G0 F9000 X87.308 Y38.766 Z0.2
;TYPE:SKIRT
G1 F1500 E0
G1 F1800 X87.743 Y37.924 E0.0394
G1 X88.249 Y37.121 E0.07886
G1 X88.82 Y36.364 E0.11828
G1 X89.452 Y35.657 E0.15771
G1 X90.142 Y35.006 E0.19715
G1 X90.885 Y34.416 E0.23659
G1 X91.674 Y33.89 E0.27602
G1 X92.505 Y33.433 E0.31545
G1 X93.372 Y33.047 E0.3549
G1 X94.268 Y32.736 E0.39434
G1 X95.187 Y32.501 E0.43377
G1 X96.122 Y32.345 E0.47318
G1 X97.194 Y32.263 E0.51788
G1 X97.515 Y32.254 E0.53123
G1 X97.83 Y32.25 E0.54433
G1 X156.793 Y32.25 E2.99573
G1 X157.652 Y32.261 E3.03144
G1 X158.599 Y32.315 E3.07088
G1 X159.538 Y32.448 E3.11031
G1 X160.463 Y32.66 E3.14976
G1 X161.366 Y32.948 E3.18917
G1 X162.242 Y33.312 E3.2286
G1 X163.084 Y33.749 E3.26804
G1 X163.886 Y34.255 E3.30747
G1 X164.643 Y34.826 E3.34689
G1 X165.349 Y35.46 E3.38634
G1 X166 Y36.15 E3.42578
G1 X166.589 Y36.893 E3.4652
G1 X167.114 Y37.683 E3.50464
G1 X167.571 Y38.514 E3.54406
G1 X167.956 Y39.381 E3.5835
G1 X168.267 Y40.277 E3.62294
G1 X168.501 Y41.196 E3.66236
G1 X168.656 Y42.132 E3.70181
G1 X168.737 Y43.194 E3.74609
G1 X168.746 Y43.514 E3.7594
G1 X168.75 Y43.83 E3.77254
G1 X168.749 Y165.903 E8.84774
G1 X168.74 Y166.63 E8.87797
G1 X168.688 Y167.577 E8.9174
G1 X168.557 Y168.517 E8.95686
G1 X168.347 Y169.442 E8.99629
G1 X168.06 Y170.346 E9.03573
G1 X167.698 Y171.222 E9.07513
G1 X167.263 Y172.065 E9.11457
G1 X166.759 Y172.868 E9.15399
G1 X166.189 Y173.626 E9.19342
G1 X165.557 Y174.334 E9.23288
G1 X164.867 Y174.985 E9.27231
G1 X164.126 Y175.576 E9.31172
G1 X163.337 Y176.103 E9.35117
G1 X162.506 Y176.561 E9.39062
G1 X161.64 Y176.948 E9.43005
G1 X160.745 Y177.26 E9.46946
G1 X159.826 Y177.496 E9.50891
G1 X158.891 Y177.654 E9.54833
G1 X157.806 Y177.737 E9.59357
G1 X157.485 Y177.746 E9.60692
G1 X157.17 Y177.75 E9.62002
G1 X98.062 Y177.749 E12.07744
G1 X97.364 Y177.74 E12.10647
G1 X96.417 Y177.688 E12.1459
G1 X95.478 Y177.556 E12.18532
G1 X94.553 Y177.346 E12.22475
G1 X93.649 Y177.058 E12.2642
G1 X92.773 Y176.695 E12.30362
G1 X91.93 Y176.26 E12.34306
G1 X91.127 Y175.755 E12.3825
G1 X90.369 Y175.185 E12.42193
G1 X89.662 Y174.553 E12.46136
G1 X89.011 Y173.863 E12.5008
G1 X88.42 Y173.121 E12.54023
G1 X87.894 Y172.332 E12.57966
G1 X87.436 Y171.501 E12.61911
G1 X87.05 Y170.635 E12.65852
G1 X86.738 Y169.739 E12.69797
G1 X86.503 Y168.82 E12.73741
G1 X86.346 Y167.885 E12.77682
G1 X86.263 Y166.795 E12.82227
G1 X86.254 Y166.462 E12.83612
G1 X86.25 Y166.158 E12.84876
G1 X86.251 Y44.022 E17.92659
G1 X86.26 Y43.357 E17.95424
G1 X86.313 Y42.41 E17.99367
G1 X86.445 Y41.471 E18.03309
G1 X86.656 Y40.546 E18.07254
G1 X86.944 Y39.642 E18.11198
G1 X87.308 Y38.766 E18.15142
G0 F9000 X87.805 Y38.883
G1 F1800 X88.24 Y38.064 E18.18998
G1 X88.744 Y37.285 E18.22855
G1 X89.313 Y36.553 E18.2671
G1 X89.943 Y35.873 E18.30564
G1 X90.629 Y35.249 E18.34419
G1 X91.366 Y34.687 E18.38272
G1 X92.149 Y34.191 E18.42126
G1 X92.972 Y33.763 E18.45983
G1 X93.828 Y33.409 E18.49834
G1 X94.712 Y33.129 E18.53689
G1 X95.617 Y32.927 E18.57544
G1 X96.536 Y32.803 E18.61399
G1 X97.208 Y32.763 E18.64198
G1 X97.529 Y32.754 E18.65533
G1 X97.83 Y32.75 E18.66785
G1 X156.793 Y32.75 E21.11925
G1 X157.645 Y32.761 E21.15467
G1 X158.571 Y32.814 E21.19323
G1 X159.488 Y32.947 E21.23176
G1 X160.391 Y33.159 E21.27032
G1 X161.272 Y33.447 E21.30885
G1 X162.125 Y33.81 E21.3474
G1 X162.944 Y34.246 E21.38597
G1 X163.722 Y34.75 E21.42451
G1 X164.453 Y35.319 E21.46302
G1 X165.133 Y35.95 E21.50159
G1 X165.756 Y36.636 E21.54012
G1 X166.318 Y37.374 E21.57868
G1 X166.814 Y38.157 E21.61722
G1 X167.24 Y38.981 E21.65578
G1 X167.594 Y39.837 E21.69429
G1 X167.873 Y40.722 E21.73287
G1 X168.075 Y41.627 E21.77143
G1 X168.198 Y42.546 E21.80997
G1 X168.237 Y43.208 E21.83754
G1 X168.246 Y43.528 E21.85085
G1 X168.25 Y43.83 E21.86341
G1 X168.249 Y165.897 E26.93837
G1 X168.24 Y166.624 E26.96859
G1 X168.189 Y167.55 E27.00715
G1 X168.058 Y168.468 E27.0457
G1 X167.848 Y169.371 E27.08425
G1 X167.561 Y170.252 E27.12277
G1 X167.2 Y171.106 E27.16132
G1 X166.766 Y171.926 E27.19989
G1 X166.263 Y172.705 E27.23844
G1 X165.695 Y173.437 E27.27696
G1 X165.066 Y174.118 E27.3155
G1 X164.381 Y174.743 E27.35406
G1 X163.644 Y175.306 E27.39261
G1 X162.862 Y175.803 E27.43114
G1 X162.039 Y176.231 E27.4697
G1 X161.183 Y176.587 E27.50825
G1 X160.3 Y176.868 E27.54677
G1 X159.395 Y177.071 E27.58533
G1 X158.476 Y177.196 E27.62389
G1 X157.792 Y177.237 E27.65238
G1 X157.471 Y177.246 E27.66573
G1 X157.17 Y177.25 E27.67825
G1 X98.068 Y177.249 E30.13542
G1 X97.37 Y177.24 E30.16444
G1 X96.445 Y177.188 E30.20296
G1 X95.527 Y177.057 E30.24151
G1 X94.624 Y176.847 E30.28006
G1 X93.742 Y176.56 E30.31862
G1 X92.889 Y176.197 E30.35716
G1 X92.07 Y175.763 E30.3957
G1 X91.291 Y175.26 E30.43425
G1 X90.558 Y174.692 E30.4728
G1 X89.878 Y174.062 E30.51134
G1 X89.254 Y173.377 E30.54986
G1 X88.691 Y172.64 E30.58842
G1 X88.194 Y171.857 E30.62698
G1 X87.766 Y171.034 E30.66555
G1 X87.411 Y170.178 E30.70407
G1 X87.131 Y169.294 E30.74263
G1 X86.928 Y168.39 E30.78115
G1 X86.804 Y167.471 E30.8197
G1 X86.763 Y166.781 E30.84844
G1 X86.754 Y166.448 E30.86229
G1 X86.75 Y166.158 E30.87434
G1 X86.751 Y44.029 E35.95188
G1 X86.76 Y43.364 E35.97953
G1 X86.812 Y42.438 E36.01809
G1 X86.945 Y41.52 E36.05665
G1 X87.155 Y40.617 E36.0952
G1 X87.443 Y39.736 E36.13373
G1 X87.805 Y38.883 E36.17226
G0 F9000 X88.303 Y39.002
G1 F1800 X88.737 Y38.207 E36.20991
G1 X89.239 Y37.454 E36.24754
G1 X89.805 Y36.748 E36.28516
G1 X90.432 Y36.094 E36.32283
G1 X91.114 Y35.499 E36.36045
G1 X91.846 Y34.966 E36.3981
G1 X92.622 Y34.499 E36.43575
G1 X93.436 Y34.103 E36.47339
G1 X94.281 Y33.78 E36.511
G1 X95.153 Y33.534 E36.54867
G1 X96.042 Y33.365 E36.58629
G1 X97.222 Y33.263 E36.63553
G1 X97.543 Y33.254 E36.64888
G1 X97.83 Y33.25 E36.66082
G1 X156.793 Y33.25 E39.11221
G1 X157.638 Y33.261 E39.14735
G1 X158.542 Y33.314 E39.18499
G1 X159.437 Y33.446 E39.22261
G1 X160.318 Y33.657 E39.26027
G1 X161.176 Y33.945 E39.2979
G1 X162.006 Y34.308 E39.33556
G1 X162.8 Y34.742 E39.37318
G1 X163.553 Y35.245 E39.41083
G1 X164.259 Y35.812 E39.44848
G1 X164.911 Y36.439 E39.48608
G1 X165.506 Y37.121 E39.52371
G1 X166.039 Y37.853 E39.56136
G1 X166.505 Y38.63 E39.59903
G1 X166.9 Y39.444 E39.63664
G1 X167.222 Y40.29 E39.67428
G1 X167.468 Y41.161 E39.7119
G1 X167.637 Y42.051 E39.74957
G1 X167.737 Y43.222 E39.79843
G1 X167.746 Y43.542 E39.81174
G1 X167.75 Y43.83 E39.82371
G1 X167.749 Y165.891 E44.89842
G1 X167.74 Y166.618 E44.92865
G1 X167.689 Y167.522 E44.96629
G1 X167.558 Y168.418 E45.00394
G1 X167.349 Y169.298 E45.04154
G1 X167.063 Y170.157 E45.07918
G1 X166.702 Y170.988 E45.11685
G1 X166.269 Y171.783 E45.15449
G1 X165.768 Y172.537 E45.19213
G1 X165.202 Y173.244 E45.22978
G1 X164.577 Y173.898 E45.26739
G1 X163.895 Y174.494 E45.30504
G1 X163.164 Y175.028 E45.34268
G1 X162.389 Y175.495 E45.3803
G1 X161.575 Y175.892 E45.41795
G1 X160.73 Y176.216 E45.45558
G1 X159.859 Y176.464 E45.49323
G1 X158.97 Y176.634 E45.53086
G1 X157.778 Y176.737 E45.5806
G1 X157.457 Y176.746 E45.59395
G1 X157.17 Y176.75 E45.60588
G1 X98.075 Y176.749 E48.06277
G1 X97.377 Y176.74 E48.09179
G1 X96.473 Y176.689 E48.12943
G1 X95.577 Y176.557 E48.16709
G1 X94.697 Y176.348 E48.20469
G1 X93.838 Y176.061 E48.24234
G1 X93.008 Y175.7 E48.27997
G1 X92.213 Y175.267 E48.31761
G1 X91.459 Y174.765 E48.35527
G1 X90.753 Y174.199 E48.39289
G1 X90.099 Y173.573 E48.43053
G1 X89.503 Y172.891 E48.46819
G1 X88.969 Y172.16 E48.50582
G1 X88.502 Y171.384 E48.54348
G1 X88.106 Y170.57 E48.58111
G1 X87.782 Y169.725 E48.61874
G1 X87.535 Y168.854 E48.65638
G1 X87.365 Y167.965 E48.69401
G1 X87.263 Y166.768 E48.74395
G1 X87.254 Y166.435 E48.7578
G1 X87.25 Y166.158 E48.76932
G1 X87.251 Y44.035 E53.8466
G1 X87.26 Y43.37 E53.87425
G1 X87.312 Y42.466 E53.9119
G1 X87.444 Y41.571 E53.94951
G1 X87.654 Y40.69 E53.98717
G1 X87.941 Y39.832 E54.02478
G1 X88.303 Y39.002 E54.06243
G1 F1500 E47.56243
G0 F9000 X116.025 Y72.853
G0 X118.069 Y67.792
;TYPE:SUPPORT-INTERFACE
G1 F1500 E54.06243
G1 F1800 X118.202 Y67.667 E54.06698
G1 X118.357 Y67.537 E54.07203
G1 X118.536 Y67.405 E54.07757
G1 X118.716 Y67.289 E54.08292
G1 X119.105 Y67.076 E54.09398
G1 X119.119 Y67.069 E54.09437
G1 X119.491 Y66.911 E54.10445
G1 X119.702 Y66.837 E54.11003
G1 X119.702 Y66.836 E54.11005
G1 X119.881 Y66.785 E54.1147
G1 X119.881 Y66.786 E54.11472
G1 X120.105 Y66.731 E54.12048
G1 X120.105 Y66.73 E54.1205
G1 X120.233 Y66.707 E54.12374
G1 X120.588 Y66.67 E54.13265
G1 X120.831 Y66.679 E54.13871
G1 X120.882 Y66.689 E54.14001
G1 X120.882 Y66.695 E54.14016
G1 X120.832 Y67.003 E54.14794
G1 X120.826 Y67.04 E54.14888
G1 X120.784 Y67.458 E54.15936
G1 X120.784 Y67.573 E54.16223
G1 X120.831 Y68.046 E54.17408
G1 X120.877 Y68.208 E54.17828
G1 X121.051 Y68.627 E54.1896
G1 X121.111 Y68.74 E54.19279
G1 X121.307 Y69.019 E54.2013
G1 X121.317 Y69.037 E54.20181
G1 X121.373 Y69.111 E54.20413
G1 X121.378 Y69.12 E54.20438
G1 X121.627 Y69.436 E54.21442
G1 X121.648 Y69.466 E54.21533
G1 X121.683 Y69.547 E54.21753
G1 X121.577 Y69.74 E54.22303
G1 X121.501 Y69.84 E54.22616
G1 X121.502 Y69.84 E54.22619
G1 X121.388 Y69.974 E54.23057
G1 X121.082 Y70.302 E54.24176
G1 X120.747 Y70.644 E54.25371
G1 X120.728 Y70.662 E54.25436
G1 X120.391 Y71.033 E54.26686
G1 X120.339 Y71.103 E54.26904
G1 X119.791 Y71.924 E54.29366
G1 X120.188 Y72.879 E54.31946
G1 X120.173 Y72.877 E54.31984
G1 X119.607 Y72.819 E54.33403
G1 X119.587 Y72.819 E54.33453
G1 X118.973 Y72.778 E54.34988
G1 X118.951 Y72.778 E54.35043
G1 X117.323 Y72.712 E54.39107
G1 X117.261 Y72.708 E54.39262
G1 X117.489 Y72.454 E54.40114
G1 X117.485 Y72.439 E54.40152
G1 X117.721 Y72.128 E54.41126
G1 X117.836 Y71.864 E54.41844
G1 X117.917 Y71.332 E54.43187
G1 X117.917 Y71.137 E54.43673
G1 X117.829 Y70.678 E54.44839
G1 X117.812 Y70.613 E54.45007
G1 X117.661 Y70.131 E54.46267
G1 X117.575 Y69.862 E54.46971
G1 X117.499 Y69.582 E54.47695
G1 X117.46 Y69.376 E54.48218
G1 X117.442 Y69.171 E54.48731
G1 X117.45 Y68.944 E54.49298
G1 X117.486 Y68.74 E54.49815
G1 X117.547 Y68.548 E54.50317
G1 X117.603 Y68.421 E54.50663
G1 X117.7 Y68.249 E54.51156
G1 X117.795 Y68.107 E54.51582
G1 X117.931 Y67.939 E54.52121
G1 X118.069 Y67.792 E54.52624
G0 F9000 X121.61 Y73.198
G1 F1800 X121.687 Y73.189 E54.52818
G1 X121.777 Y73.172 E54.53046
G1 X122.183 Y73.061 E54.54096
G1 X122.259 Y73.032 E54.54299
G1 X122.663 Y72.856 E54.55398
G1 X122.753 Y72.805 E54.55656
G1 X123.154 Y72.538 E54.56858
G1 X123.267 Y72.434 E54.57241
G1 X123.61 Y72.04 E54.58544
G1 X123.703 Y71.894 E54.58976
G1 X123.869 Y71.511 E54.60017
G1 X123.892 Y71.456 E54.60166
G1 X123.961 Y71.238 E54.60736
G1 X124.099 Y71.171 E54.61119
G1 X124.45 Y71.044 E54.6205
G1 X124.474 Y71.036 E54.62113
G1 X124.758 Y70.924 E54.62875
G1 X124.834 Y70.888 E54.63085
G1 X125.303 Y70.619 E54.64433
G1 X125.463 Y70.481 E54.6496
G1 X125.815 Y70.048 E54.66352
G1 X125.929 Y69.816 E54.66997
G1 X126.01 Y69.473 E54.67876
G1 X126.01 Y69.587 E54.68161
G1 X125.994 Y69.705 E54.68458
G1 X125.953 Y69.858 E54.68853
G1 X125.896 Y70.01 E54.69258
G1 X125.799 Y70.22 E54.69835
G1 X125.694 Y70.421 E54.70401
G1 X125.38 Y70.989 E54.7202
G1 X125.285 Y71.167 E54.72523
G1 X125.275 Y71.177 E54.72558
G1 X125.046 Y71.638 E54.73842
G1 X125.035 Y71.663 E54.7391
G1 X124.852 Y72.076 E54.75037
G1 X124.841 Y72.106 E54.75117
G1 X124.721 Y72.427 E54.75972
G1 X124.701 Y72.466 E54.76081
G1 X124.564 Y72.925 E54.77276
G1 X124.554 Y72.962 E54.77372
G1 X124.442 Y73.444 E54.78606
G1 X124.435 Y73.501 E54.78749
G1 X124.372 Y73.919 E54.79804
G1 X124.367 Y73.966 E54.79922
G1 X124.334 Y74.467 E54.81174
G1 X124.334 Y74.517 E54.81299
G1 X124.344 Y75.012 E54.82534
G1 X124.35 Y75.064 E54.82664
G1 X124.395 Y75.47 E54.83683
G1 X124.395 Y75.472 E54.83688
G1 X124.349 Y75.397 E54.83908
G1 X124.316 Y75.355 E54.84041
G1 X124.042 Y74.969 E54.85222
G1 X124.021 Y74.937 E54.85317
G1 X123.827 Y74.697 E54.86087
G1 X123.805 Y74.675 E54.86165
G1 X123.617 Y74.467 E54.86864
G1 X123.593 Y74.443 E54.86949
G1 X123.405 Y74.256 E54.8761
G1 X123.377 Y74.228 E54.87709
G1 X123.109 Y74 E54.88587
G1 X123.083 Y73.984 E54.88663
G1 X122.934 Y73.87 E54.89131
G1 X122.893 Y73.837 E54.89262
G1 X122.598 Y73.646 E54.90139
G1 X122.546 Y73.619 E54.90285
G1 X122.39 Y73.533 E54.90729
G1 X122.344 Y73.504 E54.90865
G1 X121.988 Y73.337 E54.91846
G1 X121.957 Y73.326 E54.91928
G1 X121.762 Y73.25 E54.9245
G1 X121.738 Y73.241 E54.92514
G1 X121.61 Y73.198 E54.92851
G0 F9000 X128.427 Y71.767
G1 F1800 X128.645 Y71.541 E54.93634
G1 X128.902 Y71.325 E54.94472
G1 X129.154 Y71.156 E54.95228
G1 X129.438 Y71.007 E54.96028
G1 X129.729 Y70.893 E54.96808
G1 X130.055 Y70.803 E54.97652
G1 X130.373 Y70.753 E54.98455
G1 X130.695 Y70.732 E54.9926
G1 X131.025 Y70.737 E55.00083
G1 X131.334 Y70.765 E55.00857
G1 X131.658 Y70.815 E55.01675
G1 X131.96 Y70.877 E55.02444
G1 X132.242 Y70.947 E55.03169
G1 X132.242 Y70.946 E55.03171
G1 X132.988 Y71.154 E55.05103
G1 X133.005 Y71.16 E55.05148
G1 X133.264 Y71.224 E55.05813
G1 X133.376 Y71.236 E55.06094
G1 X134.066 Y71.266 E55.07817
G1 X134.334 Y71.043 E55.08687
G1 X134.351 Y71.306 E55.09344
G1 X134.356 Y71.358 E55.09475
G1 X134.414 Y71.734 E55.10424
G1 X134.414 Y71.764 E55.10499
G1 X134.51 Y72.237 E55.11702
G1 X134.517 Y72.251 E55.11742
G1 X134.617 Y72.693 E55.12872
G1 X134.711 Y73.128 E55.13982
G1 X134.712 Y73.128 E55.13985
G1 X134.757 Y73.358 E55.14569
G1 X134.818 Y73.701 E55.15438
G1 X134.819 Y73.701 E55.15441
G1 X134.861 Y73.995 E55.16182
G1 X134.888 Y74.255 E55.16834
G1 X134.887 Y74.255 E55.16836
G1 X134.909 Y74.544 E55.17559
G1 X134.922 Y74.852 E55.18328
G1 X134.932 Y75.174 E55.19132
G1 X134.932 Y75.185 E55.19159
G1 X134.965 Y76.006 E55.21209
G1 X134.965 Y76.034 E55.21279
G1 X135.061 Y77.728 E55.25511
G1 X135.075 Y78.157 E55.26582
G1 X135.07 Y78.333 E55.27021
G1 X135.044 Y78.499 E55.2744
G1 X135.034 Y78.517 E55.27492
G1 X134.939 Y78.654 E55.27907
G1 X134.597 Y79.118 E55.29345
G1 X134.44 Y79.327 E55.29997
G1 X134.215 Y79.611 E55.30901
G1 X134.214 Y79.61 E55.30905
G1 X134.14 Y79.698 E55.31192
G1 X133.909 Y78.903 E55.33257
G1 X132.859 Y78.95 E55.35879
G1 X132.827 Y78.955 E55.35959
G1 X132.553 Y78.984 E55.36647
G1 X132.522 Y78.99 E55.36725
G1 X132.373 Y79.014 E55.37102
G1 X132.361 Y79.014 E55.37132
G1 X131.852 Y79.105 E55.38422
G1 X131.842 Y79.11 E55.3845
G1 X131.428 Y79.191 E55.39502
G1 X131.064 Y79.259 E55.40426
G1 X131.312 Y77.882 E55.43916
G1 X130.466 Y77.313 E55.46459
G1 X130.366 Y77.258 E55.46744
G1 X129.939 Y77.079 E55.47899
G1 X129.899 Y77.066 E55.48004
G1 X128.782 Y76.68 E55.50952
G1 X128.46 Y76.54 E55.51828
G1 X128.233 Y76.405 E55.52486
G1 X128.02 Y76.228 E55.53177
G1 X127.947 Y76.145 E55.53453
G1 X127.835 Y75.985 E55.5394
G1 X127.718 Y75.761 E55.54571
G1 X127.622 Y75.501 E55.55262
G1 X127.55 Y75.224 E55.55976
G1 X127.503 Y74.937 E55.56701
G1 X127.477 Y74.588 E55.57574
G1 X127.479 Y74.306 E55.58278
G1 X127.504 Y73.968 E55.59123
G1 X127.554 Y73.636 E55.59961
G1 X127.638 Y73.272 E55.60893
G1 X127.737 Y72.964 E55.617
G1 X127.753 Y72.92 E55.61816
G1 X127.881 Y72.616 E55.62639
G1 X128.044 Y72.305 E55.63515
G1 X128.217 Y72.034 E55.64317
G1 X128.427 Y71.767 E55.65165
G1 F1500 E49.15165
G0 F9000 X125.543 Y68.197
G0 X115.847 Y72.856
G0 X114.608 Y76.958
G1 F1500 E55.65165
G1 F1800 X114.875 Y76.794 E55.65946
G1 X115.094 Y76.677 E55.66566
G1 X115.094 Y76.678 E55.66568
G1 X115.393 Y76.537 E55.67393
G1 X115.694 Y76.416 E55.68202
G1 X115.96 Y76.328 E55.68901
G1 X116.273 Y76.237 E55.69714
G1 X116.558 Y76.168 E55.70445
G1 X116.867 Y76.109 E55.7123
G1 X117.188 Y76.061 E55.7204
G1 X117.51 Y76.03 E55.72847
