;FLAVOR:Marlin
;TIME:2226
;Filament used: 1.99664m
;Layer height: 0.2
;MINX:105.75
;MINY:65.5
;MINZ:0.2
;MAXX:149.25
;MAXY:144.5
;MAXZ:18.6
;Generated with Cura_SteamEngine 4.13.0
M140 S60
M105
M190 S60
M104 S200
M105
M109 S200
M82 ;absolute extrusion mode
M220 S100 ;reset feedrate
M221 S100 ;reset flowrate
G90 ;use absolute coordinates
M82 ;absolute extrusion mode
G28 ;home
G1 Z2 F1500 ;raise z
G92 E0 ;reset extruder

G1 X75 Y5 F5000 ;start position
G1 Z0.28 F1500 ;lower z
G1 E4 F500 ;prime the filament
G1 X180 E10 F500 ;1st line
G1 Y5.4 F5000
G1 X75 E20 F500 ;2nd line
G1 Z2 F1500 ;raise z
G92 E0 ;reset extruder
G92 E0
G92 E0
G1 F1500 E-6.5
;LAYER_COUNT:93
;LAYER:0
M107
G0 F9000 X107.749 Y70.371 Z0.2
;TYPE:SKIRT
G1 F1500 E0
G1 F1800 X108.32 Y69.614 E0.03942
G1 X108.952 Y68.907 E0.07885
G1 X109.642 Y68.256 E0.11829
G1 X110.385 Y67.666 E0.15773
G1 X111.174 Y67.14 E0.19716
G1 X112.005 Y66.683 E0.23658
G1 X112.872 Y66.297 E0.27604
G1 X113.768 Y65.986 E0.31547
G1 X114.687 Y65.751 E0.35491
G1 X115.622 Y65.595 E0.39432
G1 X116.694 Y65.513 E0.43902
G1 X117.015 Y65.504 E0.45237
G1 X117.33 Y65.5 E0.46547
G1 X137.293 Y65.5 E1.29543
G1 X138.152 Y65.511 E1.33115
G1 X139.099 Y65.565 E1.37058
G1 X140.038 Y65.698 E1.41001
G1 X140.963 Y65.91 E1.44947
G1 X141.866 Y66.198 E1.48887
G1 X142.742 Y66.562 E1.52831
G1 X143.584 Y66.999 E1.56775
G1 X144.386 Y67.505 E1.60718
G1 X145.143 Y68.076 E1.6466
G1 X145.849 Y68.71 E1.68605
G1 X146.5 Y69.4 E1.72549
G1 X147.089 Y70.143 E1.76491
G1 X147.614 Y70.933 E1.80434
G1 X148.071 Y71.764 E1.84377
G1 X148.456 Y72.631 E1.88321
G1 X148.767 Y73.527 E1.92264
G1 X149.001 Y74.446 E1.96207
G1 X149.156 Y75.382 E2.00151
G1 X149.237 Y76.444 E2.04579
G1 X149.246 Y76.764 E2.0591
G1 X149.25 Y77.08 E2.07224
G1 X149.249 Y132.653 E4.3827
G1 X149.24 Y133.38 E4.41293
G1 X149.188 Y134.327 E4.45236
G1 X149.057 Y135.267 E4.49182
G1 X148.847 Y136.192 E4.53125
G1 X148.56 Y137.096 E4.57068
G1 X148.198 Y137.972 E4.61009
G1 X147.763 Y138.815 E4.64953
G1 X147.259 Y139.618 E4.68895
G1 X146.689 Y140.376 E4.72838
G1 X146.057 Y141.084 E4.76783
G1 X145.367 Y141.735 E4.80727
G1 X144.626 Y142.326 E4.84668
G1 X143.837 Y142.853 E4.88613
G1 X143.006 Y143.311 E4.92557
G1 X142.14 Y143.698 E4.96501
G1 X141.245 Y144.01 E5.00442
G1 X140.326 Y144.246 E5.04386
G1 X139.391 Y144.404 E5.08329
G1 X138.306 Y144.487 E5.12853
G1 X137.985 Y144.496 E5.14188
G1 X137.67 Y144.5 E5.15498
G1 X117.562 Y144.499 E5.99097
G1 X116.864 Y144.49 E6.01999
G1 X115.917 Y144.438 E6.05942
G1 X114.978 Y144.306 E6.09885
G1 X114.053 Y144.096 E6.13828
G1 X113.149 Y143.808 E6.17773
G1 X112.273 Y143.445 E6.21715
G1 X111.43 Y143.01 E6.25659
G1 X110.627 Y142.505 E6.29603
G1 X109.869 Y141.935 E6.33546
G1 X109.162 Y141.303 E6.37488
G1 X108.511 Y140.613 E6.41432
G1 X107.92 Y139.871 E6.45376
G1 X107.394 Y139.082 E6.49318
G1 X106.936 Y138.251 E6.53263
G1 X106.55 Y137.385 E6.57205
G1 X106.238 Y136.489 E6.6115
G1 X106.003 Y135.57 E6.65093
G1 X105.846 Y134.635 E6.69035
G1 X105.763 Y133.545 E6.7358
G1 X105.754 Y133.212 E6.74965
G1 X105.75 Y132.908 E6.76229
G1 X105.751 Y77.272 E9.07536
G1 X105.76 Y76.607 E9.10301
G1 X105.813 Y75.66 E9.14245
G1 X105.945 Y74.721 E9.18187
G1 X106.156 Y73.796 E9.22131
G1 X106.444 Y72.892 E9.26076
G1 X106.808 Y72.016 E9.3002
G1 X107.243 Y71.174 E9.3396
G1 X107.749 Y70.371 E9.37906
G0 F9000 X108.244 Y70.535
G1 F1800 X108.813 Y69.803 E9.41761
G1 X109.443 Y69.123 E9.45615
G1 X110.129 Y68.499 E9.4947
G1 X110.866 Y67.937 E9.53323
G1 X111.649 Y67.441 E9.57177
G1 X112.472 Y67.013 E9.61034
G1 X113.328 Y66.659 E9.64885
G1 X114.212 Y66.379 E9.6874
G1 X115.117 Y66.177 E9.72595
G1 X116.036 Y66.053 E9.7645
G1 X116.708 Y66.013 E9.79249
G1 X117.029 Y66.004 E9.80584
G1 X117.33 Y66 E9.81836
G1 X137.293 Y66 E10.64832
G1 X138.145 Y66.011 E10.68375
G1 X139.071 Y66.064 E10.72231
G1 X139.988 Y66.197 E10.76083
G1 X140.891 Y66.409 E10.7994
G1 X141.772 Y66.697 E10.83793
G1 X142.625 Y67.06 E10.87647
G1 X143.444 Y67.496 E10.91505
G1 X144.222 Y68 E10.95359
G1 X144.953 Y68.569 E10.9921
G1 X145.633 Y69.2 E11.03067
G1 X146.256 Y69.886 E11.06919
G1 X146.818 Y70.624 E11.10776
G1 X147.314 Y71.407 E11.1463
G1 X147.74 Y72.231 E11.18486
G1 X148.094 Y73.087 E11.22337
G1 X148.373 Y73.972 E11.26195
G1 X148.575 Y74.877 E11.3005
G1 X148.698 Y75.796 E11.33905
G1 X148.737 Y76.458 E11.36662
G1 X148.746 Y76.778 E11.37993
G1 X148.75 Y77.08 E11.39249
G1 X148.749 Y132.647 E13.7027
G1 X148.74 Y133.374 E13.73292
G1 X148.689 Y134.3 E13.77148
G1 X148.558 Y135.218 E13.81003
G1 X148.348 Y136.121 E13.84858
G1 X148.061 Y137.002 E13.8871
G1 X147.7 Y137.856 E13.92565
G1 X147.266 Y138.676 E13.96422
G1 X146.763 Y139.455 E14.00277
G1 X146.195 Y140.187 E14.04129
G1 X145.566 Y140.868 E14.07983
G1 X144.881 Y141.493 E14.11838
G1 X144.144 Y142.056 E14.15694
G1 X143.362 Y142.553 E14.19547
G1 X142.539 Y142.981 E14.23403
G1 X141.683 Y143.337 E14.27258
G1 X140.8 Y143.618 E14.3111
G1 X139.895 Y143.821 E14.34966
G1 X138.976 Y143.946 E14.38822
G1 X138.292 Y143.987 E14.41671
G1 X137.971 Y143.996 E14.43006
G1 X137.67 Y144 E14.44257
G1 X117.568 Y143.999 E15.27832
G1 X116.87 Y143.99 E15.30734
G1 X115.945 Y143.938 E15.34586
G1 X115.027 Y143.807 E15.38441
G1 X114.124 Y143.597 E15.42296
G1 X113.242 Y143.31 E15.46152
G1 X112.389 Y142.947 E15.50006
G1 X111.57 Y142.513 E15.53859
G1 X110.791 Y142.01 E15.57715
G1 X110.058 Y141.442 E15.6157
G1 X109.378 Y140.812 E15.65424
G1 X108.754 Y140.127 E15.69276
G1 X108.191 Y139.39 E15.73132
G1 X107.694 Y138.607 E15.76988
G1 X107.266 Y137.784 E15.80844
G1 X106.911 Y136.928 E15.84697
G1 X106.631 Y136.044 E15.88552
G1 X106.428 Y135.14 E15.92404
G1 X106.304 Y134.221 E15.9626
G1 X106.263 Y133.531 E15.99134
G1 X106.254 Y133.198 E16.00519
G1 X106.25 Y132.908 E16.01724
G1 X106.251 Y77.279 E18.33003
G1 X106.26 Y76.614 E18.35768
G1 X106.312 Y75.688 E18.39624
G1 X106.445 Y74.77 E18.4348
G1 X106.655 Y73.867 E18.47335
G1 X106.943 Y72.986 E18.51188
G1 X107.305 Y72.133 E18.55041
G1 X107.74 Y71.314 E18.58896
G1 X108.244 Y70.535 E18.62754
G0 F9000 X108.739 Y70.704
G1 F1800 X109.305 Y69.998 E18.66516
G1 X109.932 Y69.344 E18.70282
G1 X110.614 Y68.749 E18.74045
G1 X111.346 Y68.216 E18.7781
G1 X112.122 Y67.749 E18.81575
G1 X112.936 Y67.353 E18.85339
G1 X113.781 Y67.03 E18.891
G1 X114.653 Y66.784 E18.92866
G1 X115.542 Y66.615 E18.96629
G1 X116.722 Y66.513 E19.01553
G1 X117.043 Y66.504 E19.02888
G1 X117.33 Y66.5 E19.04081
G1 X137.293 Y66.5 E19.87078
G1 X138.138 Y66.511 E19.90591
G1 X139.042 Y66.564 E19.94356
G1 X139.937 Y66.696 E19.98117
G1 X140.818 Y66.907 E20.01884
G1 X141.676 Y67.195 E20.05646
G1 X142.506 Y67.558 E20.09413
G1 X143.3 Y67.992 E20.13175
G1 X144.053 Y68.495 E20.1694
G1 X144.759 Y69.062 E20.20704
G1 X145.411 Y69.689 E20.24465
G1 X146.006 Y70.371 E20.28228
G1 X146.539 Y71.103 E20.31992
G1 X147.005 Y71.88 E20.35759
G1 X147.4 Y72.694 E20.39521
G1 X147.722 Y73.54 E20.43284
G1 X147.968 Y74.411 E20.47047
G1 X148.137 Y75.301 E20.50813
G1 X148.237 Y76.472 E20.55699
G1 X148.246 Y76.792 E20.5703
G1 X148.25 Y77.08 E20.58228
G1 X148.249 Y132.641 E22.89224
G1 X148.24 Y133.368 E22.92246
G1 X148.189 Y134.272 E22.96011
G1 X148.058 Y135.168 E22.99776
G1 X147.849 Y136.048 E23.03536
G1 X147.563 Y136.907 E23.073
G1 X147.202 Y137.738 E23.11067
G1 X146.769 Y138.533 E23.1483
G1 X146.268 Y139.287 E23.18594
G1 X145.702 Y139.994 E23.22359
G1 X145.077 Y140.648 E23.2612
G1 X144.395 Y141.244 E23.29886
G1 X143.664 Y141.778 E23.3365
G1 X142.889 Y142.245 E23.37412
G1 X142.075 Y142.642 E23.41177
G1 X141.23 Y142.966 E23.44939
G1 X140.359 Y143.214 E23.48704
G1 X139.47 Y143.384 E23.52467
G1 X138.278 Y143.487 E23.57442
G1 X137.957 Y143.496 E23.58777
G1 X137.67 Y143.5 E23.5997
G1 X117.575 Y143.499 E24.43515
G1 X116.877 Y143.49 E24.46418
G1 X115.973 Y143.439 E24.50182
G1 X115.077 Y143.307 E24.53947
G1 X114.197 Y143.098 E24.57708
G1 X113.338 Y142.811 E24.61473
G1 X112.508 Y142.45 E24.65236
G1 X111.713 Y142.017 E24.69
G1 X110.959 Y141.515 E24.72766
G1 X110.253 Y140.949 E24.76528
G1 X109.599 Y140.323 E24.80292
G1 X109.003 Y139.641 E24.84057
G1 X108.469 Y138.91 E24.87821
G1 X108.002 Y138.134 E24.91586
G1 X107.606 Y137.32 E24.9535
G1 X107.282 Y136.475 E24.99112
G1 X107.035 Y135.604 E25.02876
G1 X106.865 Y134.715 E25.06639
G1 X106.763 Y133.518 E25.11634
G1 X106.754 Y133.185 E25.13019
G1 X106.75 Y132.908 E25.1417
G1 X106.751 Y77.285 E27.45424
G1 X106.76 Y76.62 E27.48189
G1 X106.812 Y75.716 E27.51954
G1 X106.944 Y74.821 E27.55715
G1 X107.154 Y73.94 E27.5948
G1 X107.441 Y73.082 E27.63242
G1 X107.803 Y72.252 E27.67006
G1 X108.237 Y71.457 E27.70772
G1 X108.739 Y70.704 E27.74534
G1 F1500 E21.24534
;MESH:BattaryHolderCS.stl
G0 F9000 X116.335 Y77.17
G0 X117.42 Y77.17
G0 X117.782 Y132.468
G0 X137.4 Y132.65
;TYPE:WALL-INNER
G1 F1500 E27.74534
G1 F1800 X117.6 Y132.65 E28.4039
G1 X117.6 Y77.35 E30.24318
G1 X137.4 Y77.35 E30.90173
G1 X137.4 Y132.65 E32.74102
G0 F9000 X137.8 Y133.05
;TYPE:WALL-OUTER
G1 F1800 X117.2 Y133.05 E33.42618
G1 X117.2 Y76.95 E35.29207
G1 X137.8 Y76.95 E35.97723
G1 X137.8 Y133.05 E37.84312
G0 F9000 X137.53 Y132.78
G0 X137.29 Y132.26
G0 X137.01 Y132.26
;TYPE:SKIN
G1 F1800 X117.99 Y132.26 E38.47573
G1 X117.99 Y77.74 E40.28907
G1 X137.01 Y77.74 E40.92168
G1 X137.01 Y132.26 E42.73502
G0 F9000 X137.29 Y132.26
G0 X118.523 Y132.54
G0 X118.523 Y132.099
G1 F1800 X118.149 Y131.726 E42.75259
G0 F9000 X118.149 Y131.16
G1 F1800 X119.088 Y132.099 E42.79676
G0 F9000 X119.654 Y132.099
G1 F1800 X118.149 Y130.594 E42.86755
G0 F9000 X118.149 Y130.029
G1 F1800 X120.22 Y132.099 E42.96494
G0 F9000 X120.785 Y132.099
G1 F1800 X118.149 Y129.463 E43.08893
G0 F9000 X118.149 Y128.897
G1 F1800 X121.351 Y132.099 E43.23954
G0 F9000 X121.917 Y132.099
G1 F1800 X118.149 Y128.332 E43.41675
G0 F9000 X118.149 Y127.766
G1 F1800 X122.482 Y132.099 E43.62056
G0 F9000 X123.048 Y132.099
G1 F1800 X118.149 Y127.2 E43.851
G0 F9000 X118.149 Y126.635
G1 F1800 X123.614 Y132.099 E44.10803
G0 F9000 X124.179 Y132.099
G1 F1800 X118.149 Y126.069 E44.39166
G0 F9000 X118.149 Y125.503
G1 F1800 X124.745 Y132.099 E44.70192
G0 F9000 X125.311 Y132.099
G1 F1800 X118.149 Y124.937 E45.0388
G0 F9000 X118.149 Y124.372
G1 F1800 X125.877 Y132.099 E45.40228
G0 F9000 X126.442 Y132.099
G1 F1800 X118.149 Y123.806 E45.79235
G0 F9000 X118.149 Y123.24
G1 F1800 X127.008 Y132.099 E46.20905
G0 F9000 X127.574 Y132.099
G1 F1800 X118.149 Y122.675 E46.65235
G0 F9000 X118.149 Y122.109
G1 F1800 X128.139 Y132.099 E47.12225
G0 F9000 X128.705 Y132.099
G1 F1800 X118.149 Y121.543 E47.61877
G0 F9000 X118.149 Y120.978
G1 F1800 X129.271 Y132.099 E48.14189
G0 F9000 X129.836 Y132.099
G1 F1800 X118.149 Y120.412 E48.69162
G0 F9000 X118.149 Y119.846
G1 F1800 X130.402 Y132.099 E49.26796
G0 F9000 X130.968 Y132.099
G1 F1800 X118.149 Y119.281 E49.8709
G0 F9000 X118.149 Y118.715
G1 F1800 X131.533 Y132.099 E50.50044
G0 F9000 X132.099 Y132.099
G1 F1800 X118.149 Y118.149 E51.15661
G0 F9000 X118.149 Y117.584
G1 F1800 X132.665 Y132.099 E51.83937
G0 F9000 X133.23 Y132.099
G1 F1800 X118.149 Y117.018 E52.54874
G0 F9000 X118.149 Y116.452
G1 F1800 X133.796 Y132.099 E53.28472
G0 F9000 X134.362 Y132.099
G1 F1800 X118.149 Y115.887 E54.04731
G0 F9000 X118.149 Y115.321
G1 F1800 X134.927 Y132.099 E54.8365
G0 F9000 X135.493 Y132.099
G1 F1800 X118.149 Y114.755 E55.65231
G0 F9000 X118.149 Y114.189
G1 F1800 X136.059 Y132.099 E56.49474
G0 F9000 X136.625 Y132.099
G1 F1800 X118.149 Y113.624 E57.36377
G0 F9000 X118.149 Y113.058
G1 F1800 X136.849 Y131.758 E58.24336
G0 F9000 X136.849 Y131.192
G1 F1800 X118.149 Y112.492 E59.12295
G0 F9000 X118.149 Y111.927
G1 F1800 X136.849 Y130.626 E60.00252
G0 F9000 X136.849 Y130.06
G1 F1800 X118.149 Y111.361 E60.88208
G0 F9000 X118.149 Y110.795
G1 F1800 X136.849 Y129.495 E61.76167
G0 F9000 X136.849 Y128.929
G1 F1800 X118.149 Y110.23 E62.64124
G0 F9000 X118.149 Y109.664
G1 F1800 X136.849 Y128.363 E63.52081
G0 F9000 X136.849 Y127.798
G1 F1800 X118.149 Y109.098 E64.4004
G0 F9000 X118.149 Y108.533
G1 F1800 X136.849 Y127.232 E65.27997
G0 F9000 X136.849 Y126.666
G1 F1800 X118.149 Y107.967 E66.15953
G0 F9000 X118.149 Y107.401
G1 F1800 X136.849 Y126.101 E67.03912
G0 F9000 X136.849 Y125.535
G1 F1800 X118.149 Y106.836 E67.91869
G0 F9000 X118.149 Y106.27
G1 F1800 X136.849 Y124.969 E68.79826
G0 F9000 X136.849 Y124.404
G1 F1800 X118.149 Y105.704 E69.67785
G0 F9000 X118.149 Y105.139
G1 F1800 X136.849 Y123.838 E70.55742
G0 F9000 X136.849 Y123.272
G1 F1800 X118.149 Y104.573 E71.43698
G0 F9000 X118.149 Y104.007
G1 F1800 X136.849 Y122.707 E72.31657
G0 F9000 X136.849 Y122.141
G1 F1800 X118.149 Y103.441 E73.19616
G0 F9000 X118.149 Y102.876
G1 F1800 X136.849 Y121.575 E74.07573
G0 F9000 X136.849 Y121.01
G1 F1800 X118.149 Y102.31 E74.95532
G0 F9000 X118.149 Y101.744
G1 F1800 X136.849 Y120.444 E75.83491
G0 F9000 X136.849 Y119.878
G1 F1800 X118.149 Y101.179 E76.71448
G0 F9000 X118.149 Y100.613
G1 F1800 X136.849 Y119.312 E77.59405
G0 F9000 X136.849 Y118.747
G1 F1800 X118.149 Y100.047 E78.47364
G0 F9000 X118.149 Y99.482
G1 F1800 X136.849 Y118.181 E79.3532
G0 F9000 X136.849 Y117.615
G1 F1800 X118.149 Y98.916 E80.23277
G0 F9000 X118.149 Y98.35
G1 F1800 X136.849 Y117.05 E81.11236
G0 F9000 X136.849 Y116.484
G1 F1800 X118.149 Y97.785 E81.99193
G0 F9000 X118.149 Y97.219
G1 F1800 X136.849 Y115.918 E82.8715
G0 F9000 X136.849 Y115.353
G1 F1800 X118.149 Y96.653 E83.75109
G0 F9000 X118.149 Y96.088
G1 F1800 X136.849 Y114.787 E84.63065
G0 F9000 X136.849 Y114.221
G1 F1800 X118.149 Y95.522 E85.51022
G0 F9000 X118.149 Y94.956
G1 F1800 X136.849 Y113.656 E86.38981
G0 F9000 X136.849 Y113.09
G1 F1800 X118.149 Y94.39 E87.2694
G0 F9000 X118.149 Y93.825
G1 F1800 X136.849 Y112.524 E88.14897
G0 F9000 X136.849 Y111.959
G1 F1800 X118.149 Y93.259 E89.02856
G0 F9000 X118.149 Y92.693
G1 F1800 X136.849 Y111.393 E89.90815
G0 F9000 X136.849 Y110.827
G1 F1800 X118.149 Y92.128 E90.78772
G0 F9000 X118.149 Y91.562
G1 F1800 X136.849 Y110.261 E91.66729
G0 F9000 X136.849 Y109.696
G1 F1800 X118.149 Y90.996 E92.54688
G0 F9000 X118.149 Y90.431
G1 F1800 X136.849 Y109.13 E93.42644
G0 F9000 X136.849 Y108.564
G1 F1800 X118.149 Y89.865 E94.30601
G0 F9000 X118.149 Y89.299
G1 F1800 X136.849 Y107.999 E95.1856
G0 F9000 X136.849 Y107.433
G1 F1800 X118.149 Y88.734 E96.06517
G0 F9000 X118.149 Y88.168
G1 F1800 X136.849 Y106.867 E96.94474
G0 F9000 X136.849 Y106.302
G1 F1800 X118.149 Y87.602 E97.82433
G0 F9000 X118.149 Y87.037
G1 F1800 X136.849 Y105.736 E98.70389
G0 F9000 X136.849 Y105.17
G1 F1800 X118.149 Y86.471 E99.58346
G0 F9000 X118.149 Y85.905
G1 F1800 X136.849 Y104.605 E100.46305
G0 F9000 X136.849 Y104.039
G1 F1800 X118.149 Y85.34 E101.34262
G0 F9000 X118.149 Y84.774
G1 F1800 X136.849 Y103.473 E102.22219
G0 F9000 X136.849 Y102.908
G1 F1800 X118.149 Y84.208 E103.10178
G0 F9000 X118.149 Y83.642
G1 F1800 X136.849 Y102.342 E103.98137
G0 F9000 X136.849 Y101.776
G1 F1800 X118.149 Y83.077 E104.86093
G0 F9000 X118.149 Y82.511
G1 F1800 X136.849 Y101.211 E105.74053
G0 F9000 X136.849 Y100.645
G1 F1800 X118.149 Y81.945 E106.62012
G0 F9000 X118.149 Y81.38
G1 F1800 X136.849 Y100.079 E107.49968
G0 F9000 X136.849 Y99.513
G1 F1800 X118.149 Y80.814 E108.37925
G0 F9000 X118.149 Y80.248
G1 F1800 X136.849 Y98.948 E109.25884
G0 F9000 X136.849 Y98.382
G1 F1800 X118.149 Y79.683 E110.13841
G0 F9000 X118.149 Y79.117
G1 F1800 X136.849 Y97.816 E111.01798
G0 F9000 X136.849 Y97.251
G1 F1800 X118.149 Y78.551 E111.89757
G0 F9000 X118.149 Y77.986
G1 F1800 X136.849 Y96.685 E112.77713
G0 F9000 X136.849 Y96.119
G1 F1800 X118.629 Y77.9 E113.63412
G0 F9000 X119.195 Y77.9
G1 F1800 X136.849 Y95.554 E114.46451
G0 F9000 X136.849 Y94.988
G1 F1800 X119.761 Y77.9 E115.26828
G0 F9000 X120.326 Y77.9
G1 F1800 X136.849 Y94.422 E116.04545
G0 F9000 X136.849 Y93.857
G1 F1800 X120.892 Y77.9 E116.79602
G0 F9000 X121.458 Y77.9
G1 F1800 X136.849 Y93.291 E117.51996
G0 F9000 X136.849 Y92.725
G1 F1800 X122.024 Y77.9 E118.21728
G0 F9000 X122.589 Y77.9
G1 F1800 X136.849 Y92.16 E118.88803
G0 F9000 X136.849 Y91.594
G1 F1800 X123.155 Y77.9 E119.53215
G0 F9000 X123.721 Y77.9
G1 F1800 X136.849 Y91.028 E120.14965
G0 F9000 X136.849 Y90.462
G1 F1800 X124.286 Y77.9 E120.74056
G0 F9000 X124.852 Y77.9
G1 F1800 X136.849 Y89.897 E121.30486
