;FLAVOR:Marlin
;TIME:13133
;Filament used: 13.1584m
;Layer height: 0.2
;MINX:45.864
;MINY:55.45
;MINZ:0.2
;MAXX:208.8
;MAXY:177.08
;MAXZ:8.8
;Generated with Cura_SteamEngine 4.13.0
M140 S60
M105
M190 S60
M104 S195
M105
M109 S195
M82 ;absolute extrusion mode
M220 S100 ;reset feedrate
M221 S100 ;reset flowrate
G90 ;use absolute coordinates
M82 ;absolute extrusion mode
G28 ;home
G1 Z2 F1500 ;raise z
G92 E0 ;reset extruder

G1 X75 Y5 F5000 ;start position
G1 Z0.28 F1500 ;lower z
G1 E4 F500 ;prime the filament
G1 X180 E10 F500 ;1st line
G1 Y5.4 F5000
G1 X75 E20 F500 ;2nd line
G1 Z2 F1500 ;raise z
G92 E0 ;reset extruder
G92 E0
G92 E0
G1 F1500 E-6.5
;LAYER_COUNT:44
;LAYER:0
M107
G0 F9000 X59.55 Y92.232 Z0.2
;TYPE:SKIRT
G1 F1500 E0
G1 F1800 X59.782 Y92.289 E0.00993
G1 X60.413 Y92.343 E0.03626
G1 X77.236 Y92.344 E0.73568
G1 X77.236 Y97.415 E0.94651
G1 X77.276 Y97.961 E0.96927
G1 X77.369 Y98.38 E0.98711
G1 X77.328 Y98.515 E0.99298
G1 X77.247 Y99.056 E1.01572
G1 X77.236 Y99.342 E1.02762
G1 X77.236 Y161.106 E3.59547
G1 X77.276 Y161.652 E3.61823
G1 X77.365 Y162.053 E3.63531
G1 X77.348 Y162.106 E3.63762
G1 X77.254 Y162.645 E3.66037
G1 X77.236 Y163.017 E3.67585
G1 X77.236 Y168.073 E3.88606
G1 X60.387 Y168.074 E4.58656
G1 X59.841 Y168.114 E4.60932
G1 X59.55 Y168.183 E4.62175
G1 X59.55 Y92.232 E7.77943
G0 F9000 X59.901 Y91.802
G1 F1800 X60.413 Y91.843 E7.80078
G1 X77.736 Y91.844 E8.52099
G1 X77.736 Y97.415 E8.7526
G1 X77.776 Y97.923 E8.77379
G1 X77.888 Y98.391 E8.7938
G1 X77.808 Y98.66 E8.80546
G1 X77.736 Y99.342 E8.83398
G1 X77.736 Y161.106 E11.40183
G1 X77.776 Y161.614 E11.42301
G1 X77.886 Y162.07 E11.44251
G1 X77.795 Y162.399 E11.4567
G1 X77.736 Y163.017 E11.48252
G1 X77.736 Y168.573 E11.71351
G1 X60.387 Y168.574 E12.43479
G1 X59.879 Y168.614 E12.45598
G1 X59.358 Y168.741 E12.47827
G1 X59.05 Y168.844 E12.49178
G1 X59.05 Y91.567 E15.70458
G1 X59.405 Y91.683 E15.72011
G1 X59.901 Y91.802 E15.74131
G0 F9000 X59.56 Y91.207
G1 F1800 X60.017 Y91.314 E15.76083
G1 X60.413 Y91.343 E15.77734
G1 X78.236 Y91.344 E16.51833
G1 X78.236 Y97.415 E16.77073
G1 X78.276 Y97.882 E16.79022
G1 X78.395 Y98.335 E16.80969
G1 X78.414 Y98.377 E16.81161
G1 X78.29 Y98.802 E16.83002
G1 X78.236 Y99.342 E16.85258
G1 X78.236 Y161.106 E19.42043
G1 X78.276 Y161.573 E19.43991
G1 X78.395 Y162.026 E19.45939
G1 X78.414 Y162.07 E19.46138
G1 X78.354 Y162.222 E19.46817
G1 X78.257 Y162.68 E19.48764
G1 X78.236 Y163.017 E19.50167
G1 X78.236 Y169.073 E19.75345
G1 X60.387 Y169.074 E20.49553
G1 X59.92 Y169.114 E20.51502
G1 X59.516 Y169.216 E20.53234
G1 X58.55 Y169.539 E20.57469
G1 X58.55 Y90.878 E23.84503
G1 X59.56 Y91.207 E23.88919
G0 F9000 X59.715 Y90.732
G1 F1800 X60.129 Y90.825 E23.90683
G1 X60.413 Y90.843 E23.91867
G1 X78.736 Y90.844 E24.68045
G1 X78.736 Y97.415 E24.95364
G1 X78.776 Y97.837 E24.97126
G1 X78.894 Y98.244 E24.98888
G1 X78.953 Y98.36 E24.99429
G1 X78.887 Y98.532 E25.00195
G1 X78.772 Y98.94 E25.01957
G1 X78.736 Y99.342 E25.03635
G1 X78.736 Y161.106 E27.6042
G1 X78.776 Y161.528 E27.62182
G1 X78.894 Y161.935 E27.63944
G1 X78.953 Y162.063 E27.6453
G1 X78.922 Y162.12 E27.648
G1 X78.791 Y162.523 E27.66562
G1 X78.736 Y163.017 E27.68628
G1 X78.736 Y169.573 E27.95885
G1 X60.387 Y169.574 E28.72171
G1 X59.965 Y169.614 E28.73934
G1 X59.674 Y169.69 E28.75184
G1 X58.05 Y170.232 E28.82302
G1 X58.05 Y90.189 E32.15082
G1 X59.715 Y90.732 E32.22363
G0 F9000 X59.87 Y90.257
G1 F1800 X60.413 Y90.343 E32.24649
G1 X79.236 Y90.344 E33.02906
G1 X79.236 Y97.415 E33.32303
G1 X79.276 Y97.786 E33.33855
G1 X79.394 Y98.141 E33.3541
G1 X79.497 Y98.339 E33.36338
G1 X79.353 Y98.712 E33.38
G1 X79.257 Y99.073 E33.39553
G1 X79.236 Y99.342 E33.40675
G1 X79.236 Y161.106 E35.9746
G1 X79.276 Y161.477 E35.99011
G1 X79.44 Y161.927 E36.01003
G1 X79.517 Y162.072 E36.01685
G1 X79.492 Y162.105 E36.01857
G1 X79.333 Y162.443 E36.0341
G1 X79.249 Y162.807 E36.04963
G1 X79.236 Y163.017 E36.05838
G1 X79.236 Y170.073 E36.35174
G1 X60.387 Y170.074 E37.13539
G1 X60.015 Y170.114 E37.15094
G1 X59.833 Y170.164 E37.15879
G1 X57.55 Y170.926 E37.25885
G1 X57.55 Y89.5 E40.64415
G1 X59.87 Y90.257 E40.74561
G0 F9000 X60.025 Y89.781
G1 F1800 X60.413 Y89.843 E40.76195
G1 X79.736 Y89.844 E41.5653
G1 X79.736 Y97.415 E41.88007
G1 X79.776 Y97.728 E41.89319
G1 X79.893 Y98.021 E41.90631
G1 X80.079 Y98.276 E41.91943
G1 X80.099 Y98.293 E41.92052
G1 X79.964 Y98.519 E41.93146
G1 X79.82 Y98.892 E41.94809
G1 X79.736 Y99.342 E41.96712
G1 X79.736 Y161.106 E44.53497
G1 X79.776 Y161.419 E44.54809
G1 X79.882 Y161.692 E44.56026
G1 X79.959 Y161.837 E44.56709
G1 X80.141 Y162.095 E44.58021
G1 X80.048 Y162.19 E44.58574
G1 X79.871 Y162.451 E44.59885
G1 X79.765 Y162.749 E44.612
G1 X79.736 Y163.017 E44.62321
G1 X79.736 Y170.573 E44.93735
G1 X60.387 Y170.574 E45.74179
G1 X59.991 Y170.638 E45.75847
G1 X57.05 Y171.62 E45.88738
G1 X57.05 Y88.811 E49.33017
G1 X60.025 Y89.781 E49.46027
G0 F9000 X60.18 Y89.306
G1 F1800 X60.413 Y89.343 E49.47008
G1 X80.236 Y89.344 E50.29422
G1 X80.236 Y97.415 E50.62977
G1 X80.276 Y97.656 E50.63993
G1 X80.391 Y97.871 E50.65007
G1 X80.568 Y98.038 E50.66019
G1 X80.906 Y98.263 E50.67707
G1 X80.615 Y98.424 E50.69089
G1 X80.43 Y98.699 E50.70467
G1 X80.286 Y99.072 E50.7213
G1 X80.236 Y99.342 E50.73271
G1 X80.236 Y161.106 E53.30056
G1 X80.324 Y161.458 E53.31565
G1 X80.549 Y161.797 E53.33256
G1 X80.684 Y161.898 E53.33957
G1 X81.029 Y162.1 E53.35619
G1 X80.897 Y162.172 E53.36244
G1 X80.566 Y162.396 E53.37906
G1 X80.388 Y162.564 E53.38924
G1 X80.275 Y162.78 E53.39937
G1 X80.236 Y163.017 E53.40936
G1 X80.236 Y171.073 E53.74429
G1 X60.387 Y171.074 E54.56951
G1 X60.149 Y171.113 E54.57954
G1 X56.55 Y172.315 E54.73729
G1 X56.55 Y88.122 E58.23763
G1 X60.18 Y89.306 E58.39637
G0 F9000 X60.335 Y88.831
G1 F1800 X60.413 Y88.843 E58.39965
G1 X80.736 Y88.844 E59.24459
G1 X80.736 Y97.415 E59.60093
G1 X80.775 Y97.549 E59.60673
G1 X80.847 Y97.623 E59.61102
G1 X81.178 Y97.845 E59.62759
G1 X81.311 Y97.887 E59.63339
G1 X81.413 Y97.868 E59.6377
G1 X84.96 Y96.398 E59.79733
G1 X85.072 Y96.306 E59.80336
G1 X85.217 Y96.09 E59.81418
G1 X85.564 Y96.234 E59.82979
G1 X85.66 Y96.253 E59.83386
G1 X87.136 Y96.253 E59.89523
G1 X87.609 Y96.726 E59.92304
G1 X87.786 Y96.799 E59.931
G1 X167.214 Y96.799 E63.23323
G1 X167.391 Y96.726 E63.24119
G1 X167.865 Y96.252 E63.26906
G1 X169.34 Y96.253 E63.33038
G1 X169.435 Y96.234 E63.33441
G1 X169.786 Y96.089 E63.3502
G1 X169.928 Y96.301 E63.36081
G1 X170.04 Y96.393 E63.36684
G1 X173.586 Y97.863 E63.52643
G1 X173.725 Y97.878 E63.53224
G1 X173.821 Y97.84 E63.53653
G1 X174.153 Y97.617 E63.55316
G1 X174.243 Y97.509 E63.559
G1 X174.264 Y97.409 E63.56325
G1 X174.264 Y88.844 E63.91934
G1 X194.596 Y88.844 E64.76465
G1 X194.675 Y88.831 E64.76798
G1 X198.95 Y87.409 E64.95529
G1 X198.95 Y172.993 E68.51346
G1 X198.765 Y172.923 E68.52168
G1 X194.665 Y171.586 E68.70097
G1 X194.587 Y171.574 E68.70425
G1 X174.264 Y171.573 E69.54919
G1 X174.264 Y163.006 E69.90536
G1 X174.225 Y162.872 E69.91116
G1 X174.153 Y162.798 E69.91546
G1 X173.822 Y162.576 E69.93203
G1 X173.689 Y162.534 E69.93782
G1 X173.587 Y162.553 E69.94214
G1 X170.04 Y164.023 E70.10177
G1 X169.928 Y164.115 E70.10779
G1 X169.786 Y164.328 E70.11844
G1 X169.436 Y164.183 E70.13419
G1 X169.34 Y164.164 E70.13826
G1 X167.863 Y164.164 E70.19966
G1 X167.391 Y163.692 E70.22741
G1 X167.214 Y163.619 E70.23537
G1 X87.786 Y163.619 E73.53761
G1 X87.609 Y163.692 E73.54557
G1 X87.136 Y164.165 E73.57338
G1 X85.66 Y164.163 E73.63474
G1 X85.564 Y164.182 E73.63881
G1 X85.228 Y164.321 E73.65393
G1 X85.069 Y164.086 E73.66572
G1 X84.956 Y163.994 E73.67178
G1 X81.411 Y162.561 E73.83075
G1 X81.271 Y162.547 E73.8366
G1 X81.177 Y162.586 E73.84083
G1 X80.846 Y162.81 E73.85745
G1 X80.757 Y162.918 E73.86327
G1 X80.736 Y163.017 E73.86748
G1 X80.736 Y171.573 E74.22319
G1 X60.387 Y171.574 E75.06921
G1 X60.308 Y171.587 E75.07253
G1 X56.05 Y173.009 E75.25917
G1 X56.05 Y87.424 E78.81738
G1 X56.235 Y87.494 E78.82561
G1 X60.335 Y88.831 E79.0049
G1 F1500 E72.5049
G0 F9000 X77.639 Y91.941
G0 X80.753 Y99.252
G1 F1500 E79.0049
G1 F1800 X80.736 Y99.342 E79.00871
G1 X80.736 Y161.106 E81.57656
G1 X80.842 Y161.368 E81.58831
G1 X80.937 Y161.467 E81.59401
G1 X81.282 Y161.669 E81.61063
G1 X81.58 Y161.698 E81.62308
G1 X81.668 Y161.679 E81.62682
G1 X84.96 Y160.315 E81.77497
G1 X85.072 Y160.223 E81.781
G1 X85.214 Y160.01 E81.79164
G1 X85.564 Y160.155 E81.80739
G1 X85.66 Y160.174 E81.81146
G1 X87.137 Y160.174 E81.87287
G1 X87.609 Y160.646 E81.90062
G1 X87.786 Y160.719 E81.90858
G1 X167.214 Y160.719 E85.21081
G1 X167.391 Y160.646 E85.21877
G1 X167.864 Y160.173 E85.24658
G1 X169.34 Y160.175 E85.30795
G1 X169.436 Y160.156 E85.31202
G1 X169.773 Y160.016 E85.32719
G1 X169.931 Y160.251 E85.33896
G1 X170.044 Y160.343 E85.34502
G1 X173.38 Y161.692 E85.49462
G1 X173.665 Y161.691 E85.50647
G1 X173.79 Y161.64 E85.51209
G1 X174.106 Y161.398 E85.52863
G1 X174.247 Y161.135 E85.54104
G1 X174.264 Y161.045 E85.54485
G1 X174.264 Y99.308 E88.11157
G1 X174.158 Y99.046 E88.12332
G1 X174.063 Y98.947 E88.12903
G1 X173.718 Y98.745 E88.14565
G1 X173.42 Y98.716 E88.1581
G1 X173.332 Y98.735 E88.16184
G1 X170.04 Y100.099 E88.30999
G1 X169.928 Y100.191 E88.31602
G1 X169.783 Y100.407 E88.32683
G1 X169.436 Y100.263 E88.34245
G1 X169.34 Y100.244 E88.34652
G1 X167.863 Y100.244 E88.40793
G1 X167.391 Y99.772 E88.43568
G1 X167.214 Y99.699 E88.44364
G1 X87.786 Y99.699 E91.74587
G1 X87.609 Y99.772 E91.75383
G1 X87.136 Y100.245 E91.78164
G1 X85.66 Y100.244 E91.84301
G1 X85.564 Y100.263 E91.84707
G1 X85.236 Y100.399 E91.86184
G1 X85.069 Y100.151 E91.87427
G1 X84.957 Y100.06 E91.88027
G1 X81.621 Y98.697 E92.03009
G1 X81.5 Y98.679 E92.03518
G1 X81.104 Y98.72 E92.05173
G1 X80.975 Y98.773 E92.05753
G1 X80.897 Y98.879 E92.063
G1 X80.753 Y99.252 E92.07962
G0 F9000 X81.823 Y98.239
G1 F1800 X85.151 Y96.86 E92.22939
G1 X85.386 Y96.699 E92.24124
G1 X85.66 Y96.753 E92.25285
G1 X86.93 Y96.753 E92.30565
G1 X87.256 Y97.079 E92.32481
G1 X87.454 Y97.222 E92.33497
G1 X87.786 Y97.299 E92.34914
G1 X167.214 Y97.299 E95.65137
G1 X167.455 Y97.259 E95.66153
G1 X167.744 Y97.079 E95.67568
G1 X168.071 Y96.752 E95.69491
G1 X169.34 Y96.753 E95.74767
G1 X169.623 Y96.697 E95.75966
G1 X169.849 Y96.855 E95.77113
G1 X173.226 Y98.255 E95.92311
G1 X173.141 Y98.273 E95.92672
G1 X169.849 Y99.637 E96.07487
G1 X169.614 Y99.798 E96.08672
G1 X169.34 Y99.744 E96.09833
G1 X168.069 Y99.744 E96.15117
G1 X167.744 Y99.419 E96.17028
G1 X167.546 Y99.276 E96.18043
G1 X167.214 Y99.199 E96.1946
G1 X87.786 Y99.199 E99.49683
G1 X87.545 Y99.239 E99.50699
G1 X87.256 Y99.419 E99.52115
G1 X86.93 Y99.745 E99.54031
G1 X85.66 Y99.744 E99.59311
G1 X85.41 Y99.793 E99.6037
G1 X85.146 Y99.597 E99.61737
G1 X81.823 Y98.239 E99.76662
G0 F9000 X83.137 Y98.236
G1 F1800 X85.343 Y97.322 E99.8659
G1 X85.484 Y97.241 E99.87266
G1 X85.66 Y97.253 E99.87999
G1 X86.722 Y97.253 E99.92414
G1 X86.902 Y97.433 E99.93473
G1 X87.152 Y97.626 E99.94786
G1 X87.442 Y97.751 E99.96099
G1 X87.786 Y97.799 E99.97543
G1 X167.214 Y97.799 E103.27766
G1 X167.527 Y97.759 E103.29078
G1 X167.82 Y97.642 E103.3039
G1 X168.098 Y97.433 E103.31835
G1 X168.279 Y97.252 E103.329
G1 X169.339 Y97.253 E103.37307
G1 X169.519 Y97.23 E103.38061
G1 X169.657 Y97.317 E103.38739
G1 X171.899 Y98.246 E103.48829
G1 X169.658 Y99.175 E103.58915
G1 X169.516 Y99.256 E103.59595
G1 X169.34 Y99.244 E103.60328
G1 X168.277 Y99.244 E103.64747
G1 X168.098 Y99.065 E103.658
G1 X167.848 Y98.872 E103.67113
G1 X167.558 Y98.747 E103.68426
G1 X167.214 Y98.699 E103.6987
G1 X87.786 Y98.699 E107.00093
G1 X87.473 Y98.739 E107.01405
G1 X87.18 Y98.856 E107.02717
G1 X86.902 Y99.065 E107.04163
G1 X86.722 Y99.245 E107.05221
G1 X85.661 Y99.244 E107.09632
G1 X85.537 Y99.26 E107.10152
G1 X85.335 Y99.134 E107.11142
G1 X83.137 Y98.236 E107.21013
G0 F9000 X84.451 Y98.233
G1 F1800 X85.534 Y97.784 E107.25887
G1 X85.66 Y97.753 E107.26427
G1 X86.516 Y97.753 E107.29986
G1 X86.549 Y97.786 E107.3018
G1 X86.839 Y98.021 E107.31732
G1 X87.173 Y98.188 E107.33284
G1 X87.396 Y98.245 E107.34241
G1 X87.06 Y98.357 E107.35714
G1 X86.738 Y98.547 E107.37268
G1 X86.549 Y98.712 E107.38311
G1 X86.516 Y98.745 E107.38505
G1 X85.668 Y98.744 E107.42031
G1 X85.524 Y98.671 E107.42702
G1 X84.451 Y98.233 E107.4752
G1 F1500 E100.9752
G0 F9000 X85.383 Y160.619
G1 F1500 E107.4752
G1 F1800 X85.66 Y160.674 E107.48694
G1 X86.931 Y160.674 E107.53979
G1 X87.256 Y160.999 E107.55889
G1 X87.454 Y161.142 E107.56905
G1 X87.786 Y161.219 E107.58322
G1 X167.214 Y161.219 E110.88545
G1 X167.455 Y161.179 E110.89561
G1 X167.744 Y160.999 E110.90976
G1 X168.07 Y160.673 E110.92893
G1 X169.339 Y160.675 E110.98169
G1 X169.603 Y160.623 E110.99288
G1 X169.857 Y160.806 E111.00589
G1 X173.193 Y162.155 E111.1555
G1 X173.224 Y162.162 E111.15682
G1 X169.849 Y163.561 E111.30871
G1 X169.617 Y163.719 E111.32038
G1 X169.34 Y163.664 E111.33212
G1 X168.069 Y163.664 E111.38496
G1 X167.744 Y163.339 E111.40407
G1 X167.546 Y163.196 E111.41423
G1 X167.214 Y163.119 E111.4284
G1 X87.786 Y163.119 E114.73063
G1 X87.545 Y163.159 E114.74079
G1 X87.256 Y163.339 E114.75494
G1 X86.93 Y163.665 E114.77411
G1 X85.661 Y163.663 E114.82687
G1 X85.397 Y163.715 E114.83805
G1 X85.143 Y163.531 E114.85109
G1 X81.758 Y162.163 E115.00288
G1 X81.859 Y162.141 E115.00718
G1 X85.151 Y160.777 E115.15533
G1 X85.383 Y160.619 E115.167
G0 F9000 X85.484 Y161.162
G1 F1800 X85.66 Y161.174 E115.17433
G1 X86.723 Y161.174 E115.21853
G1 X86.902 Y161.353 E115.22905
G1 X87.152 Y161.546 E115.24218
G1 X87.442 Y161.671 E115.25531
G1 X87.786 Y161.719 E115.26975
G1 X167.214 Y161.719 E118.57199
G1 X167.527 Y161.679 E118.5851
G1 X167.82 Y161.562 E118.59822
G1 X168.098 Y161.353 E118.61268
G1 X168.277 Y161.174 E118.62321
G1 X169.338 Y161.175 E118.66732
G1 X169.486 Y161.157 E118.67352
G1 X169.669 Y161.27 E118.68246
G1 X171.897 Y162.171 E118.78237
G1 X169.657 Y163.099 E118.88318
G1 X169.516 Y163.176 E118.88986
G1 X169.34 Y163.164 E118.89719
G1 X168.277 Y163.164 E118.94139
G1 X168.098 Y162.985 E118.95191
G1 X167.848 Y162.792 E118.96504
G1 X167.558 Y162.667 E118.97817
G1 X167.214 Y162.619 E118.99261
G1 X87.786 Y162.619 E122.29484
G1 X87.473 Y162.659 E122.30796
G1 X87.18 Y162.776 E122.32108
G1 X86.902 Y162.985 E122.33554
G1 X86.723 Y163.164 E122.34606
G1 X85.662 Y163.163 E122.39017
G1 X85.515 Y163.181 E122.39633
G1 X85.33 Y163.067 E122.40537
G1 X83.103 Y162.167 E122.50523
G1 X85.342 Y161.239 E122.60599
G1 X85.484 Y161.162 E122.61271
G0 F9000 X85.534 Y161.701
G1 F1800 X85.66 Y161.674 E122.61807
G1 X86.517 Y161.674 E122.6537
G1 X86.549 Y161.706 E122.65558
G1 X86.839 Y161.941 E122.6711
G1 X87.173 Y162.108 E122.68662
G1 X87.396 Y162.165 E122.69619
G1 X87.06 Y162.277 E122.71092
G1 X86.738 Y162.467 E122.72646
G1 X86.549 Y162.632 E122.73689
G1 X86.517 Y162.664 E122.73877
G1 X85.662 Y162.663 E122.77432
G1 X84.423 Y162.161 E122.8299
G1 X85.534 Y161.701 E122.87989
G1 F1500 E116.37989
G0 F9000 X167.604 Y162.173
G1 F1500 E122.87989
G1 F1800 X167.94 Y162.061 E122.89462
G1 X168.262 Y161.871 E122.91016
G1 X168.451 Y161.706 E122.92059
G1 X168.483 Y161.674 E122.92247
G1 X169.338 Y161.675 E122.95802
G1 X169.482 Y161.733 E122.96447
G1 X170.578 Y162.176 E123.01362
G1 X169.466 Y162.637 E123.06367
G1 X169.34 Y162.664 E123.06903
G1 X168.483 Y162.664 E123.10466
G1 X168.451 Y162.632 E123.10654
G1 X168.161 Y162.397 E123.12206
G1 X167.827 Y162.23 E123.13758
G1 X167.604 Y162.173 E123.14715
G1 F1500 E116.64715
G0 F9000 X167.661 Y159.826
G0 X167.661 Y100.592
G0 X167.604 Y98.253
G1 F1500 E123.14715
G1 F1800 X167.94 Y98.141 E123.16188
G1 X168.262 Y97.951 E123.17742
G1 X168.451 Y97.786 E123.18785
G1 X168.485 Y97.752 E123.18985
G1 X169.339 Y97.753 E123.22535
G1 X169.466 Y97.779 E123.23074
G1 X170.593 Y98.246 E123.28146
G1 X169.466 Y98.713 E123.33218
G1 X169.34 Y98.744 E123.33758
G1 X168.483 Y98.744 E123.37321
G1 X168.451 Y98.712 E123.37509
G1 X168.161 Y98.477 E123.39061
G1 X167.827 Y98.31 E123.40613
G1 X167.604 Y98.253 E123.4157
G0 F9000 X173.97 Y98.314
G1 F1800 X174.1 Y98.255 E123.42164
G1 X174.432 Y98.032 E123.43826
G1 X174.61 Y97.864 E123.44844
G1 X174.725 Y97.649 E123.45858
G1 X174.764 Y97.409 E123.46869
G1 X174.764 Y89.344 E123.80399
G1 X194.596 Y89.344 E124.62851
