;FLAVOR:Marlin
;TIME:2008
;Filament used: 1.86633m
;Layer height: 0.2
;MINX:106.4
;MINY:66.4
;MINZ:0.2
;MAXX:148.6
;MAXY:143.6
;MAXZ:10.8
;Generated with Cura_SteamEngine 4.13.0
M140 S60
M105
M190 S60
M104 S195
M105
M109 S195
M82 ;absolute extrusion mode
M220 S100 ;reset feedrate
M221 S100 ;reset flowrate
G90 ;use absolute coordinates
M82 ;absolute extrusion mode
G28 ;home
G1 Z2 F1500 ;raise z
G92 E0 ;reset extruder

G1 X75 Y5 F5000 ;start position
G1 Z0.28 F1500 ;lower z
G1 E4 F500 ;prime the filament
G1 X180 E10 F500 ;1st line
G1 Y5.4 F5000
G1 X75 E20 F500 ;2nd line
G1 Z2 F1500 ;raise z
G92 E0 ;reset extruder
G92 E0
G92 E0
G1 F1500 E-6.5
;LAYER_COUNT:54
;LAYER:0
M107
;MESH:MotorDek.stl
G0 F9000 X147.4 Y142.4 Z0.2
;TYPE:WALL-INNER
G1 F1500 E0
G1 F1800 X107.6 Y142.4 E1.32375
G1 X107.6 Y67.6 E3.81161
G1 X147.4 Y67.6 E5.13536
G1 X147.4 Y142.4 E7.62322
G0 F9000 X147.8 Y142.8
G1 F1800 X107.2 Y142.8 E8.97358
G1 X107.2 Y67.2 E11.48805
G1 X147.8 Y67.2 E12.83841
G1 X147.8 Y142.8 E15.35288
G0 F9000 X148.2 Y143.2
G1 F1800 X106.8 Y143.2 E16.72985
G1 X106.8 Y66.8 E19.27092
G1 X148.2 Y66.8 E20.64789
G1 X148.2 Y143.2 E23.18897
G0 F9000 X148.6 Y143.6
;TYPE:WALL-OUTER
G1 F1800 X106.4 Y143.6 E24.59254
G1 X106.4 Y66.4 E27.16023
G1 X148.6 Y66.4 E28.5638
G1 X148.6 Y143.6 E31.13149
G0 F9000 X148.33 Y143.33
G0 X147.29 Y142.01
G0 X147.01 Y142.01
;TYPE:SKIN
G1 F1800 X107.99 Y142.01 E32.4293
G1 X107.99 Y67.99 E34.89121
G1 X147.01 Y67.99 E36.18902
G1 X147.01 Y142.01 E38.65094
G1 F1500 E32.15094
G0 F9000 X147.29 Y142.01
G0 X108.473 Y142.29
G1 F1500 E38.65094
G0 F9000 X108.473 Y141.849
G1 F1800 X108.149 Y141.524 E38.6662
G0 F9000 X108.149 Y140.958
G1 F1800 X109.039 Y141.849 E38.70809
G0 F9000 X109.605 Y141.849
G1 F1800 X108.149 Y140.393 E38.77657
G0 F9000 X108.149 Y139.827
G1 F1800 X110.17 Y141.849 E38.87166
G0 F9000 X110.736 Y141.849
G1 F1800 X108.149 Y139.261 E38.99337
G0 F9000 X108.149 Y138.696
G1 F1800 X111.302 Y141.849 E39.14167
G0 F9000 X111.867 Y141.849
G1 F1800 X108.149 Y138.13 E39.31658
G0 F9000 X108.149 Y137.564
G1 F1800 X112.433 Y141.849 E39.51811
G0 F9000 X112.999 Y141.849
G1 F1800 X108.149 Y136.999 E39.74624
G0 F9000 X108.149 Y136.433
G1 F1800 X113.564 Y141.849 E40.00097
G0 F9000 X114.13 Y141.849
G1 F1800 X108.149 Y135.867 E40.28232
G0 F9000 X108.149 Y135.302
G1 F1800 X114.696 Y141.849 E40.59027
G0 F9000 X115.261 Y141.849
G1 F1800 X108.149 Y134.736 E40.92482
G0 F9000 X108.149 Y134.17
G1 F1800 X115.827 Y141.849 E41.28599
G0 F9000 X116.393 Y141.849
G1 F1800 X108.149 Y133.604 E41.67379
G0 F9000 X108.149 Y133.039
G1 F1800 X116.958 Y141.849 E42.08816
G0 F9000 X117.524 Y141.849
G1 F1800 X108.149 Y132.473 E42.52916
G0 F9000 X108.149 Y131.907
G1 F1800 X118.09 Y141.849 E42.99677
G0 F9000 X118.656 Y141.849
G1 F1800 X108.149 Y131.342 E43.49099
G0 F9000 X108.149 Y130.776
G1 F1800 X119.221 Y141.849 E44.01181
G0 F9000 X119.787 Y141.849
G1 F1800 X108.149 Y130.21 E44.55925
G0 F9000 X108.149 Y129.645
G1 F1800 X120.353 Y141.849 E45.13329
G0 F9000 X120.918 Y141.849
G1 F1800 X108.149 Y129.079 E45.73392
G0 F9000 X108.149 Y128.513
G1 F1800 X121.484 Y141.849 E46.36118
G0 F9000 X122.05 Y141.849
G1 F1800 X108.149 Y127.948 E47.01505
G0 F9000 X108.149 Y127.382
G1 F1800 X122.615 Y141.849 E47.69551
G0 F9000 X123.181 Y141.849
G1 F1800 X108.149 Y126.816 E48.40259
G0 F9000 X108.149 Y126.251
G1 F1800 X123.747 Y141.849 E49.13627
G0 F9000 X124.312 Y141.849
G1 F1800 X108.149 Y125.685 E49.89655
G0 F9000 X108.149 Y125.119
G1 F1800 X124.878 Y141.849 E50.68346
G0 F9000 X125.444 Y141.849
G1 F1800 X108.149 Y124.554 E51.49696
G0 F9000 X108.149 Y123.988
G1 F1800 X126.009 Y141.849 E52.33706
G0 F9000 X126.575 Y141.849
G1 F1800 X108.149 Y123.422 E53.20379
G0 F9000 X108.149 Y122.856
G1 F1800 X127.141 Y141.849 E54.09714
G0 F9000 X127.707 Y141.849
G1 F1800 X108.149 Y122.291 E55.01709
G0 F9000 X108.149 Y121.725
G1 F1800 X128.272 Y141.849 E55.96363
G0 F9000 X128.838 Y141.849
G1 F1800 X108.149 Y121.159 E56.9368
G0 F9000 X108.149 Y120.594
G1 F1800 X129.404 Y141.849 E57.93657
G0 F9000 X129.969 Y141.849
G1 F1800 X108.149 Y120.028 E58.96294
G0 F9000 X108.149 Y119.462
G1 F1800 X130.535 Y141.849 E60.01594
G0 F9000 X131.101 Y141.849
G1 F1800 X108.149 Y118.897 E61.09553
G0 F9000 X108.149 Y118.331
G1 F1800 X131.666 Y141.849 E62.20172
G0 F9000 X132.232 Y141.849
G1 F1800 X108.149 Y117.765 E63.33453
G0 F9000 X108.149 Y117.2
G1 F1800 X132.798 Y141.849 E64.49395
G0 F9000 X133.363 Y141.849
G1 F1800 X108.149 Y116.634 E65.67996
G0 F9000 X108.149 Y116.068
G1 F1800 X133.929 Y141.849 E66.8926
G0 F9000 X134.495 Y141.849
G1 F1800 X108.149 Y115.503 E68.13183
G0 F9000 X108.149 Y114.937
G1 F1800 X135.06 Y141.849 E69.39766
G0 F9000 X135.626 Y141.849
G1 F1800 X108.149 Y114.371 E70.69012
G0 F9000 X108.149 Y113.806
G1 F1800 X136.192 Y141.849 E72.00918
G0 F9000 X136.757 Y141.849
G1 F1800 X108.149 Y113.24 E73.35483
G0 F9000 X108.149 Y112.674
G1 F1800 X137.323 Y141.849 E74.72711
G0 F9000 X137.889 Y141.849
G1 F1800 X108.149 Y112.108 E76.12602
G0 F9000 X108.149 Y111.543
G1 F1800 X138.455 Y141.849 E77.55152
G0 F9000 X139.02 Y141.849
G1 F1800 X108.149 Y110.977 E79.00362
G0 F9000 X108.149 Y110.411
G1 F1800 X139.586 Y141.849 E80.48234
G0 F9000 X140.152 Y141.849
G1 F1800 X108.149 Y109.846 E81.98766
G0 F9000 X108.149 Y109.28
G1 F1800 X140.717 Y141.849 E83.51959
G0 F9000 X141.283 Y141.849
G1 F1800 X108.149 Y108.714 E85.07813
G0 F9000 X108.149 Y108.149
G1 F1800 X141.849 Y141.849 E86.66328
G0 F9000 X142.414 Y141.849
G1 F1800 X108.149 Y107.583 E88.27502
G0 F9000 X108.149 Y107.017
G1 F1800 X142.98 Y141.849 E89.91339
G0 F9000 X143.546 Y141.849
G1 F1800 X108.149 Y106.452 E91.57835
G0 F9000 X108.149 Y105.886
G1 F1800 X144.111 Y141.849 E93.26992
G0 F9000 X144.677 Y141.849
G1 F1800 X108.149 Y105.32 E94.98811
G0 F9000 X108.149 Y104.755
G1 F1800 X145.243 Y141.849 E96.7329
G0 F9000 X145.808 Y141.849
G1 F1800 X108.149 Y104.189 E98.50428
G0 F9000 X108.149 Y103.623
G1 F1800 X146.374 Y141.849 E100.30229
G0 F9000 X146.849 Y141.757
G1 F1800 X108.149 Y103.057 E102.12262
G0 F9000 X108.149 Y102.492
G1 F1800 X146.849 Y141.192 E103.94295
G0 F9000 X146.849 Y140.626
G1 F1800 X108.149 Y101.926 E105.76328
G0 F9000 X108.149 Y101.36
G1 F1800 X146.849 Y140.06 E107.58361
G0 F9000 X146.849 Y139.495
G1 F1800 X108.149 Y100.795 E109.40394
G0 F9000 X108.149 Y100.229
G1 F1800 X146.849 Y138.929 E111.22427
G0 F9000 X146.849 Y138.363
G1 F1800 X108.149 Y99.663 E113.0446
G0 F9000 X108.149 Y99.098
G1 F1800 X146.849 Y137.798 E114.86493
G0 F9000 X146.849 Y137.232
G1 F1800 X108.149 Y98.532 E116.68526
G0 F9000 X108.149 Y97.966
G1 F1800 X146.849 Y136.666 E118.50559
G0 F9000 X146.849 Y136.101
G1 F1800 X108.149 Y97.401 E120.32592
G0 F9000 X108.149 Y96.835
G1 F1800 X146.849 Y135.535 E122.14625
G0 F9000 X146.849 Y134.969
G1 F1800 X108.149 Y96.269 E123.96658
G0 F9000 X108.149 Y95.704
G1 F1800 X146.849 Y134.404 E125.78691
G0 F9000 X146.849 Y133.838
G1 F1800 X108.149 Y95.138 E127.60723
G0 F9000 X108.149 Y94.572
G1 F1800 X146.849 Y133.272 E129.42756
G0 F9000 X146.849 Y132.706
G1 F1800 X108.149 Y94.007 E131.24787
G0 F9000 X108.149 Y93.441
G1 F1800 X146.849 Y132.141 E133.0682
G0 F9000 X146.849 Y131.575
G1 F1800 X108.149 Y92.875 E134.88853
G0 F9000 X108.149 Y92.309
G1 F1800 X146.849 Y131.009 E136.70886
G0 F9000 X146.849 Y130.444
G1 F1800 X108.149 Y91.744 E138.52919
G0 F9000 X108.149 Y91.178
G1 F1800 X146.849 Y129.878 E140.34952
G0 F9000 X146.849 Y129.312
G1 F1800 X108.149 Y90.612 E142.16985
G0 F9000 X108.149 Y90.047
G1 F1800 X146.849 Y128.747 E143.99018
G0 F9000 X146.849 Y128.181
G1 F1800 X108.149 Y89.481 E145.8105
G0 F9000 X108.149 Y88.915
G1 F1800 X146.849 Y127.615 E147.63083
G0 F9000 X146.849 Y127.05
G1 F1800 X108.149 Y88.35 E149.45116
G0 F9000 X108.149 Y87.784
G1 F1800 X146.849 Y126.484 E151.27149
G0 F9000 X146.849 Y125.918
G1 F1800 X108.149 Y87.218 E153.09182
G0 F9000 X108.149 Y86.653
G1 F1800 X146.849 Y125.353 E154.91215
G0 F9000 X146.849 Y124.787
G1 F1800 X108.149 Y86.087 E156.73248
G0 F9000 X108.149 Y85.521
G1 F1800 X146.849 Y124.221 E158.55281
G0 F9000 X146.849 Y123.656
G1 F1800 X108.149 Y84.956 E160.37314
G0 F9000 X108.149 Y84.39
G1 F1800 X146.849 Y123.09 E162.19347
G0 F9000 X146.849 Y122.524
G1 F1800 X108.149 Y83.824 E164.0138
G0 F9000 X108.149 Y83.258
G1 F1800 X146.849 Y121.958 E165.83413
G0 F9000 X146.849 Y121.393
G1 F1800 X108.149 Y82.693 E167.65446
G0 F9000 X108.149 Y82.127
G1 F1800 X146.849 Y120.827 E169.47479
G0 F9000 X146.849 Y120.261
G1 F1800 X108.149 Y81.561 E171.29512
G0 F9000 X108.149 Y80.996
G1 F1800 X146.849 Y119.696 E173.11544
G0 F9000 X146.849 Y119.13
G1 F1800 X108.149 Y80.43 E174.93577
G0 F9000 X108.149 Y79.864
G1 F1800 X146.849 Y118.564 E176.7561
G0 F9000 X146.849 Y117.999
G1 F1800 X108.149 Y79.299 E178.57643
G0 F9000 X108.149 Y78.733
G1 F1800 X146.849 Y117.433 E180.39676
G0 F9000 X146.849 Y116.867
G1 F1800 X108.149 Y78.167 E182.21709
G0 F9000 X108.149 Y77.602
G1 F1800 X146.849 Y116.302 E184.03742
G0 F9000 X146.849 Y115.736
G1 F1800 X108.149 Y77.036 E185.85775
G0 F9000 X108.149 Y76.47
G1 F1800 X146.849 Y115.17 E187.67808
G0 F9000 X146.849 Y114.605
G1 F1800 X108.149 Y75.905 E189.49841
G0 F9000 X108.149 Y75.339
G1 F1800 X146.849 Y114.039 E191.31874
G0 F9000 X146.849 Y113.473
G1 F1800 X108.149 Y74.773 E193.13907
G0 F9000 X108.149 Y74.208
G1 F1800 X146.849 Y112.907 E194.95937
G0 F9000 X146.849 Y112.342
G1 F1800 X108.149 Y73.642 E196.7797
G0 F9000 X108.149 Y73.076
G1 F1800 X146.849 Y111.776 E198.60003
G0 F9000 X146.849 Y111.21
G1 F1800 X108.149 Y72.51 E200.42036
G0 F9000 X108.149 Y71.945
G1 F1800 X146.849 Y110.645 E202.24069
G0 F9000 X146.849 Y110.079
G1 F1800 X108.149 Y71.379 E204.06102
G0 F9000 X108.149 Y70.813
G1 F1800 X146.849 Y109.513 E205.88135
G0 F9000 X146.849 Y108.948
G1 F1800 X108.149 Y70.248 E207.70168
G0 F9000 X108.149 Y69.682
G1 F1800 X146.849 Y108.382 E209.52201
G0 F9000 X146.849 Y107.816
G1 F1800 X108.149 Y69.116 E211.34234
G0 F9000 X108.149 Y68.551
G1 F1800 X146.849 Y107.251 E213.16267
G0 F9000 X146.849 Y106.685
G1 F1800 X108.313 Y68.149 E214.97528
G0 F9000 X108.878 Y68.149
G1 F1800 X146.849 Y106.119 E216.7613
G0 F9000 X146.849 Y105.554
G1 F1800 X109.444 Y68.149 E218.52071
G0 F9000 X110.01 Y68.149
G1 F1800 X146.849 Y104.988 E220.25351
G0 F9000 X146.849 Y104.422
G1 F1800 X110.575 Y68.149 E221.9597
G0 F9000 X111.141 Y68.149
G1 F1800 X146.849 Y103.857 E223.6393
G0 F9000 X146.849 Y103.291
G1 F1800 X111.707 Y68.149 E225.29227
G0 F9000 X112.273 Y68.149
G1 F1800 X146.849 Y102.725 E226.91862
G0 F9000 X146.849 Y102.159
G1 F1800 X112.838 Y68.149 E228.51837
G0 F9000 X113.404 Y68.149
G1 F1800 X146.849 Y101.594 E230.09152
G0 F9000 X146.849 Y101.028
G1 F1800 X113.97 Y68.149 E231.63805
G0 F9000 X114.535 Y68.149
G1 F1800 X146.849 Y100.462 E233.15797
G0 F9000 X146.849 Y99.897
G1 F1800 X115.101 Y68.149 E234.6513
G0 F9000 X115.667 Y68.149
G1 F1800 X146.849 Y99.331 E236.11801
G0 F9000 X146.849 Y98.765
G1 F1800 X116.232 Y68.149 E237.55811
G0 F9000 X116.798 Y68.149
G1 F1800 X146.849 Y98.2 E238.97162
G0 F9000 X146.849 Y97.634
G1 F1800 X117.364 Y68.149 E240.3585
G0 F9000 X117.929 Y68.149
G1 F1800 X146.849 Y97.068 E241.71879
G0 F9000 X146.849 Y96.503
G1 F1800 X118.495 Y68.149 E243.05247
G0 F9000 X119.061 Y68.149
G1 F1800 X146.849 Y95.937 E244.35954
G0 F9000 X146.849 Y95.371
G1 F1800 X119.626 Y68.149 E245.64
G0 F9000 X120.192 Y68.149
G1 F1800 X146.849 Y94.806 E246.89386
G0 F9000 X146.849 Y94.24
G1 F1800 X120.758 Y68.149 E248.1211
G0 F9000 X121.323 Y68.149
G1 F1800 X146.849 Y93.674 E249.32175
G0 F9000 X146.849 Y93.108
G1 F1800 X121.889 Y68.149 E250.49576
G0 F9000 X122.455 Y68.149
G1 F1800 X146.849 Y92.543 E251.64318
G0 F9000 X146.849 Y91.977
G1 F1800 X123.021 Y68.149 E252.76398
G0 F9000 X123.586 Y68.149
G1 F1800 X146.849 Y91.411 E253.85818
G0 F9000 X146.849 Y90.846
G1 F1800 X124.152 Y68.149 E254.92577
G0 F9000 X124.718 Y68.149
G1 F1800 X146.849 Y90.28 E255.96675
G0 F9000 X146.849 Y89.714
G1 F1800 X125.283 Y68.149 E256.98112
G0 F9000 X125.849 Y68.149
G1 F1800 X146.849 Y89.149 E257.9689
G0 F9000 X146.849 Y88.583
G1 F1800 X126.415 Y68.149 E258.93005
G0 F9000 X126.98 Y68.149
G1 F1800 X146.849 Y88.017 E259.8646
G0 F9000 X146.849 Y87.452
G1 F1800 X127.546 Y68.149 E260.77256
G0 F9000 X128.112 Y68.149
G1 F1800 X146.849 Y86.886 E261.65389
G0 F9000 X146.849 Y86.32
G1 F1800 X128.677 Y68.149 E262.50862
G0 F9000 X129.243 Y68.149
G1 F1800 X146.849 Y85.755 E263.33675
G0 F9000 X146.849 Y85.189
G1 F1800 X129.809 Y68.149 E264.13826
G0 F9000 X130.374 Y68.149
G1 F1800 X146.849 Y84.623 E264.91317
G0 F9000 X146.849 Y84.058
G1 F1800 X130.94 Y68.149 E265.66148
G0 F9000 X131.506 Y68.149
G1 F1800 X146.849 Y83.492 E266.38317
G0 F9000 X146.849 Y82.926
G1 F1800 X132.071 Y68.149 E267.07826
G0 F9000 X132.637 Y68.149
G1 F1800 X146.849 Y82.36 E267.74672
G0 F9000 X146.849 Y81.795
G1 F1800 X133.203 Y68.149 E268.38859
G0 F9000 X133.769 Y68.149
G1 F1800 X146.849 Y81.229 E269.00383
G0 F9000 X146.849 Y80.663
G1 F1800 X134.334 Y68.149 E269.59248
G0 F9000 X134.9 Y68.149
G1 F1800 X146.849 Y80.098 E270.15452
G0 F9000 X146.849 Y79.532
G1 F1800 X135.466 Y68.149 E270.68994
G0 F9000 X136.031 Y68.149
G1 F1800 X146.849 Y78.966 E271.19876
G0 F9000 X146.849 Y78.401
G1 F1800 X136.597 Y68.149 E271.68099
G0 F9000 X137.163 Y68.149
G1 F1800 X146.849 Y77.835 E272.13659
G0 F9000 X146.849 Y77.269
G1 F1800 X137.728 Y68.149 E272.56559
G0 F9000 X138.294 Y68.149
G1 F1800 X146.849 Y76.704 E272.96799
G0 F9000 X146.849 Y76.138
G1 F1800 X138.86 Y68.149 E273.34377
G0 F9000 X139.425 Y68.149
G1 F1800 X146.849 Y75.572 E273.69295
G0 F9000 X146.849 Y75.007
G1 F1800 X139.991 Y68.149 E274.01552
G0 F9000 X140.557 Y68.149
G1 F1800 X146.849 Y74.441 E274.31148
G0 F9000 X146.849 Y73.875
G1 F1800 X141.122 Y68.149 E274.58084
G0 F9000 X141.688 Y68.149
G1 F1800 X146.849 Y73.31 E274.8236
G0 F9000 X146.849 Y72.744
G1 F1800 X142.254 Y68.149 E275.03973
G0 F9000 X142.82 Y68.149
G1 F1800 X146.849 Y72.178 E275.22924
G0 F9000 X146.849 Y71.612
G1 F1800 X143.385 Y68.149 E275.39215
G0 F9000 X143.951 Y68.149
G1 F1800 X146.849 Y71.047 E275.52847
G0 F9000 X146.849 Y70.481
G1 F1800 X144.517 Y68.149 E275.63816
G0 F9000 X145.082 Y68.149
G1 F1800 X146.849 Y69.915 E275.72125
G0 F9000 X146.849 Y69.35
G1 F1800 X145.648 Y68.149 E275.77774
G0 F9000 X146.214 Y68.149
G1 F1800 X146.849 Y68.784 E275.80761
G0 F9000 X146.849 Y68.218
G1 F1800 X146.779 Y68.149 E275.81088
G0 F9000 X146.779 Y67.41
G1 F1500 E269.31088
;MESH:NONMESH
G0 F300 X146.779 Y67.41 Z0.4
G0 F9000 X147.218 Y67.782
G0 X147.4 Y142.4
;TIME_ELAPSED:290.522959
;LAYER:1
M106 S85
;TYPE:WALL-INNER
;MESH:MotorDek.stl
G1 F1500 E275.81088
G1 F2700 X107.6 Y142.4 E277.13463
G1 X107.6 Y67.6 E279.62249
G1 X147.4 Y67.6 E280.94624
G1 X147.4 Y142.4 E283.4341
G0 F9000 X147.8 Y142.8
G1 F2700 X107.2 Y142.8 E284.78446
G1 X107.2 Y67.2 E287.29893
G1 X147.8 Y67.2 E288.64929
G1 X147.8 Y142.8 E291.16376
G0 F9000 X148.2 Y143.2
G1 F2700 X106.8 Y143.2 E292.54073
G1 X106.8 Y66.8 E295.0818
G1 X148.2 Y66.8 E296.45877
G1 X148.2 Y143.2 E298.99984
G0 F9000 X148.6 Y143.6
;TYPE:WALL-OUTER
G1 F1800 X106.4 Y143.6 E300.40342
G1 X106.4 Y66.4 E302.9711
G1 X148.6 Y66.4 E304.37468
G1 X148.6 Y143.6 E306.94236
G0 F9000 X148.33 Y143.33
G0 X147.29 Y142.01
G0 X147.01 Y142.01
;TYPE:SKIN
G1 F1800 X107.99 Y142.01 E308.24017
G1 X107.99 Y67.99 E310.70209
G1 X147.01 Y67.99 E311.9999
G1 X147.01 Y142.01 E314.46181
G0 F9000 X146.849 Y141.65
G1 F1800 X146.649 Y141.849 E314.4712
G0 F9000 X146.084 Y141.849
G1 F1800 X146.849 Y141.084 E314.50718
G0 F9000 X146.849 Y140.519
G1 F1800 X145.518 Y141.849 E314.56976
G0 F9000 X144.952 Y141.849
G1 F1800 X146.849 Y139.953 E314.65897
G0 F9000 X146.849 Y139.387
G1 F1800 X144.386 Y141.849 E314.7748
G0 F9000 X143.821 Y141.849
G1 F1800 X146.849 Y138.822 E314.9172
G0 F9000 X146.849 Y138.256
G1 F1800 X143.255 Y141.849 E315.08623
G0 F9000 X142.689 Y141.849
G1 F1800 X146.849 Y137.69 E315.28188
G0 F9000 X146.849 Y137.124
G1 F1800 X142.124 Y141.849 E315.50413
G0 F9000 X141.558 Y141.849
G1 F1800 X146.849 Y136.559 E315.75298
G0 F9000 X146.849 Y135.993
G1 F1800 X140.992 Y141.849 E316.02845
G0 F9000 X140.427 Y141.849
G1 F1800 X146.849 Y135.427 E316.33052
G0 F9000 X146.849 Y134.862
G1 F1800 X139.861 Y141.849 E316.65919
