;FLAVOR:Marlin
;TIME:6304
;Filament used: 10.5535m
;Layer height: 0.2
;MINX:97.698
;MINY:75.198
;MINZ:0.2
;MAXX:157.302
;MAXY:134.802
;MAXZ:45
;Generated with Cura_SteamEngine 4.13.0
M140 S60
M105
M190 S60
M104 S230
M105
M109 S230
M82 ;absolute extrusion mode
M220 S100 ;reset feedrate
M221 S100 ;reset flowrate
G90 ;use absolute coordinates
M82 ;absolute extrusion mode
G28 ;home
G1 Z2 F1500 ;raise z
G92 E0 ;reset extruder

G1 X75 Y5 F5000 ;start position
G1 Z0.28 F1500 ;lower z
G1 E4 F500 ;prime the filament
G1 X180 E10 F500 ;1st line
G1 Y5.4 F5000
G1 X75 E20 F500 ;2nd line
G1 Z2 F1500 ;raise z
G92 E0 ;reset extruder
G92 E0
G92 E0
G1 F1500 E-6.5
;LAYER_COUNT:225
;LAYER:0
M107
;MESH:WeelMatrixCenter.stl
G0 F6000 X128.51 Y134.384 Z0.2
;TYPE:WALL-INNER
G1 F1500 E0
G1 F900 X127.501 Y134.402 E0.03356
G1 X126.405 Y134.381 E0.07002
G1 X125.4 Y134.326 E0.1035
G1 X124.319 Y134.229 E0.1396
G1 X123.317 Y134.102 E0.17319
G1 X122.234 Y133.926 E0.20969
G1 X121.256 Y133.731 E0.24285
G1 X120.191 Y133.478 E0.27926
G1 X119.222 Y133.211 E0.31269
G1 X118.173 Y132.881 E0.34927
G1 X117.182 Y132.532 E0.38421
G1 X116.239 Y132.16 E0.41793
G1 X115.252 Y131.728 E0.45376
G1 X114.337 Y131.29 E0.4875
G1 X113.37 Y130.783 E0.52382
G1 X112.461 Y130.264 E0.55863
G1 X111.609 Y129.737 E0.59195
G1 X110.689 Y129.121 E0.62878
G1 X109.856 Y128.518 E0.66298
G1 X109.011 Y127.86 E0.6986
G1 X108.212 Y127.191 E0.73326
G1 X107.466 Y126.52 E0.76664
G1 X106.683 Y125.761 E0.80291
G1 X105.974 Y125.027 E0.83685
G1 X105.251 Y124.219 E0.87291
G1 X104.601 Y123.441 E0.90663
G1 X103.94 Y122.588 E0.94252
G1 X103.319 Y121.725 E0.97788
G1 X102.768 Y120.899 E1.01091
G1 X102.192 Y119.963 E1.04746
G1 X101.677 Y119.056 E1.08215
G1 X101.208 Y118.158 E1.11585
G1 X100.74 Y117.178 E1.15197
G1 X100.337 Y116.253 E1.18553
G1 X99.938 Y115.232 E1.22199
G1 X99.592 Y114.248 E1.25668
G1 X99.287 Y113.273 E1.29066
G1 X98.999 Y112.22 E1.32697
G1 X98.768 Y111.239 E1.36049
G1 X98.559 Y110.182 E1.39633
G1 X98.396 Y109.174 E1.43029
G1 X98.261 Y108.09 E1.46662
G1 X98.173 Y107.094 E1.49988
G1 X98.118 Y106.052 E1.53458
G1 X98.098 Y105.012 E1.56918
G1 X98.12 Y103.905 E1.606
G1 X98.173 Y102.907 E1.63924
G1 X98.27 Y101.826 E1.67534
G1 X98.396 Y100.826 E1.70887
G1 X98.574 Y99.734 E1.74567
G1 X98.768 Y98.761 E1.77866
G1 X99.02 Y97.698 E1.815
G1 X99.287 Y96.728 E1.84846
G1 X99.619 Y95.673 E1.88525
G1 X99.965 Y94.69 E1.91991
G1 X100.332 Y93.759 E1.95319
G1 X100.769 Y92.758 E1.98952
G1 X101.21 Y91.837 E2.02348
G1 X101.717 Y90.87 E2.0598
G1 X102.234 Y89.964 E2.09449
G1 X102.759 Y89.114 E2.12772
G1 X103.375 Y88.195 E2.16452
G1 X103.981 Y87.356 E2.19894
G1 X104.632 Y86.522 E2.23413
G1 X105.309 Y85.712 E2.26924
G1 X105.978 Y84.968 E2.30252
G1 X106.734 Y84.188 E2.33865
G1 X107.473 Y83.474 E2.37283
G1 X108.286 Y82.746 E2.40913
G1 X109.043 Y82.113 E2.44195
G1 X109.912 Y81.44 E2.4785
G1 X110.769 Y80.823 E2.51363
G1 X111.595 Y80.272 E2.54665
G1 X112.537 Y79.692 E2.58344
G1 X113.444 Y79.177 E2.61814
G1 X114.342 Y78.708 E2.65183
G1 X115.322 Y78.24 E2.68795
G1 X116.238 Y77.841 E2.72118
G1 X117.268 Y77.438 E2.75797
G1 X118.246 Y77.094 E2.79245
G1 X119.214 Y76.791 E2.82619
G1 X120.273 Y76.501 E2.86271
G1 X121.255 Y76.269 E2.89627
G1 X122.318 Y76.059 E2.93231
G1 X123.316 Y75.898 E2.96593
G1 X124.403 Y75.762 E3.00237
G1 X125.399 Y75.674 E3.03562
G1 X126.49 Y75.616 E3.07196
G1 X127.499 Y75.598 E3.10552
G1 X128.595 Y75.619 E3.14198
G1 X129.6 Y75.674 E3.17546
G1 X130.681 Y75.771 E3.21156
G1 X131.683 Y75.898 E3.24515
G1 X132.766 Y76.074 E3.28165
G1 X133.744 Y76.269 E3.31481
G1 X134.809 Y76.522 E3.35122
G1 X135.776 Y76.788 E3.38458
G1 X136.828 Y77.119 E3.42126
G1 X137.811 Y77.465 E3.45592
G1 X138.761 Y77.84 E3.48989
G1 X139.748 Y78.272 E3.52573
G1 X140.663 Y78.71 E3.55947
G1 X141.63 Y79.217 E3.59578
G1 X142.536 Y79.734 E3.63048
G1 X143.386 Y80.259 E3.6637
G1 X144.305 Y80.875 E3.7005
G1 X145.144 Y81.482 E3.73494
G1 X145.989 Y82.14 E3.77056
G1 X146.788 Y82.809 E3.80523
G1 X147.532 Y83.478 E3.8385
G1 X148.312 Y84.234 E3.87463
G1 X149.026 Y84.973 E3.90881
G1 X149.75 Y85.781 E3.94489
G1 X150.387 Y86.543 E3.97793
G1 X151.06 Y87.412 E4.01448
G1 X151.677 Y88.269 E4.04961
G1 X152.228 Y89.095 E4.08263
G1 X152.801 Y90.025 E4.11896
G1 X153.32 Y90.938 E4.15389
G1 X153.792 Y91.842 E4.18781
G1 X154.26 Y92.822 E4.22393
G1 X154.659 Y93.738 E4.25716
G1 X155.062 Y94.768 E4.29395
G1 X155.406 Y95.747 E4.32846
G1 X155.707 Y96.707 E4.36193
G1 X155.999 Y97.773 E4.39869
G1 X156.229 Y98.747 E4.43197
G1 X156.44 Y99.811 E4.46805
G1 X156.601 Y100.805 E4.50154
G1 X156.738 Y101.903 E4.53835
G1 X156.826 Y102.892 E4.57137
G1 X156.884 Y103.983 E4.60771
G1 X156.902 Y104.988 E4.64114
G1 X156.881 Y106.095 E4.67797
G1 X156.827 Y107.093 E4.71121
G1 X156.73 Y108.174 E4.74731
G1 X156.604 Y109.174 E4.78083
G1 X156.426 Y110.266 E4.81763
G1 X156.232 Y111.239 E4.85063
G1 X155.98 Y112.302 E4.88696
G1 X155.713 Y113.272 E4.92043
G1 X155.381 Y114.327 E4.95721
G1 X155.035 Y115.31 E4.99187
G1 X154.668 Y116.241 E5.02516
G1 X154.231 Y117.242 E5.06149
G1 X153.79 Y118.163 E5.09545
G1 X153.283 Y119.13 E5.13176
G1 X152.766 Y120.036 E5.16646
G1 X152.241 Y120.886 E5.19969
G1 X151.625 Y121.805 E5.23648
G1 X151.018 Y122.644 E5.27093
G1 X150.369 Y123.478 E5.30608
G1 X149.691 Y124.288 E5.34121
G1 X149.022 Y125.032 E5.37449
G1 X148.266 Y125.812 E5.41062
G1 X147.531 Y126.522 E5.44461
G1 X146.714 Y127.254 E5.48109
G1 X145.957 Y127.887 E5.51391
G1 X145.088 Y128.56 E5.55047
G1 X144.231 Y129.177 E5.58559
G1 X143.405 Y129.728 E5.61861
G1 X142.463 Y130.308 E5.65541
G1 X141.556 Y130.823 E5.6901
G1 X140.658 Y131.292 E5.7238
G1 X139.678 Y131.76 E5.75992
G1 X138.748 Y132.165 E5.79365
G1 X137.746 Y132.558 E5.82945
G1 X136.755 Y132.906 E5.86439
G1 X135.788 Y133.208 E5.89808
G1 X134.727 Y133.499 E5.93467
G1 X133.745 Y133.731 E5.96823
G1 X132.682 Y133.941 E6.00427
G1 X131.684 Y134.102 E6.0379
G1 X130.597 Y134.238 E6.07433
G1 X129.601 Y134.326 E6.10759
G1 X128.51 Y134.384 E6.14392
G0 F6000 X128.517 Y134.784
;TYPE:WALL-OUTER
G1 F900 X127.5 Y134.802 E6.17776
G1 X126.397 Y134.781 E6.21445
G1 X125.371 Y134.725 E6.24862
G1 X124.269 Y134.626 E6.28542
G1 X123.259 Y134.498 E6.31929
G1 X122.17 Y134.321 E6.35598
G1 X121.169 Y134.121 E6.38993
G1 X120.085 Y133.864 E6.42699
G1 X119.106 Y133.594 E6.46076
G1 X118.053 Y133.263 E6.49748
G1 X117.043 Y132.907 E6.53309
G1 X116.092 Y132.532 E6.56709
G1 X115.079 Y132.089 E6.60387
G1 X114.164 Y131.651 E6.63761
G1 X113.184 Y131.137 E6.67441
G1 X112.254 Y130.606 E6.71003
G1 X111.385 Y130.069 E6.74401
G1 X110.466 Y129.453 E6.78081
G1 X109.61 Y128.834 E6.81594
G1 X108.765 Y128.176 E6.85156
G1 X107.955 Y127.497 E6.88672
G1 X107.19 Y126.809 E6.92094
G1 X106.395 Y126.039 E6.95775
G1 X105.686 Y125.305 E6.99169
G1 X104.953 Y124.486 E7.02825
G1 X104.294 Y123.697 E7.06244
G1 X103.615 Y122.822 E7.09928
G1 X102.994 Y121.959 E7.13464
G1 X102.427 Y121.109 E7.16862
G1 X101.851 Y120.173 E7.20518
G1 X101.322 Y119.241 E7.24082
G1 X100.853 Y118.343 E7.27452
G1 X100.373 Y117.338 E7.31156
G1 X99.965 Y116.401 E7.34555
G1 X99.565 Y115.378 E7.38208
G1 X99.21 Y114.367 E7.41772
G1 X98.905 Y113.392 E7.4517
G1 X98.613 Y112.326 E7.48846
G1 X98.379 Y111.331 E7.52246
G1 X98.164 Y110.246 E7.55925
G1 X98.001 Y109.238 E7.59321
G1 X97.864 Y108.14 E7.63001
G1 X97.775 Y107.129 E7.66377
G1 X97.718 Y106.06 E7.69937
G1 X97.698 Y105.004 E7.7345
G1 X97.72 Y103.897 E7.77133
G1 X97.775 Y102.871 E7.8055
G1 X97.873 Y101.776 E7.84207
G1 X98.001 Y100.762 E7.87606
G1 X98.179 Y99.67 E7.91286
G1 X98.379 Y98.669 E7.94681
G1 X98.634 Y97.592 E7.98362
G1 X98.905 Y96.608 E8.01757
G1 X99.237 Y95.553 E8.05436
G1 X99.593 Y94.543 E8.08998
G1 X99.965 Y93.599 E8.12372
G1 X100.408 Y92.585 E8.16053
G1 X100.849 Y91.664 E8.19449
G1 X101.363 Y90.684 E8.2313
G1 X101.894 Y89.754 E8.26691
G1 X102.427 Y88.891 E8.30065
G1 X103.043 Y87.972 E8.33745
G1 X103.666 Y87.11 E8.37282
G1 X104.325 Y86.265 E8.40846
G1 X105.003 Y85.455 E8.4436
G1 X105.691 Y84.69 E8.47782
G1 X106.456 Y83.9 E8.51439
G1 X107.195 Y83.186 E8.54857
G1 X108.019 Y82.448 E8.58536
G1 X108.798 Y81.797 E8.61913
G1 X109.678 Y81.115 E8.65616
G1 X110.535 Y80.498 E8.69128
G1 X111.385 Y79.931 E8.72526
G1 X112.327 Y79.351 E8.76206
G1 X113.259 Y78.822 E8.7977
G1 X114.157 Y78.353 E8.8314
G1 X115.162 Y77.873 E8.86844
G1 X116.092 Y77.468 E8.90218
G1 X117.122 Y77.065 E8.93897
G1 X118.127 Y76.712 E8.97439
G1 X119.108 Y76.405 E9.00858
G1 X120.167 Y76.115 E9.0451
G1 X121.169 Y75.879 E9.07934
G1 X122.254 Y75.664 E9.11613
G1 X123.259 Y75.502 E9.14999
G1 X124.353 Y75.365 E9.18666
G1 X125.371 Y75.275 E9.22065
G1 X126.483 Y75.216 E9.25769
G1 X127.5 Y75.198 E9.29152
G1 X128.603 Y75.219 E9.32821
G1 X129.629 Y75.275 E9.36239
G1 X130.731 Y75.374 E9.39919
G1 X131.741 Y75.502 E9.43305
G1 X132.83 Y75.679 E9.46974
G1 X133.831 Y75.879 E9.50369
G1 X134.915 Y76.136 E9.54075
G1 X135.892 Y76.405 E9.57445
G1 X136.948 Y76.737 E9.61127
G1 X137.958 Y77.093 E9.64689
G1 X138.908 Y77.468 E9.68086
G1 X139.921 Y77.911 E9.71763
G1 X140.836 Y78.349 E9.75137
G1 X141.816 Y78.863 E9.78818
G1 X142.746 Y79.394 E9.8238
G1 X143.609 Y79.927 E9.85753
G1 X144.528 Y80.543 E9.89433
G1 X145.39 Y81.166 E9.9297
G1 X146.235 Y81.824 E9.96533
G1 X147.045 Y82.503 E10.00048
G1 X147.81 Y83.191 E10.0347
G1 X148.6 Y83.956 E10.07128
G1 X149.314 Y84.695 E10.10545
G1 X150.048 Y85.514 E10.14203
G1 X150.703 Y86.298 E10.17601
G1 X151.385 Y87.178 E10.21304
G1 X152.002 Y88.035 E10.24816
G1 X152.569 Y88.885 E10.28215
G1 X153.149 Y89.827 E10.31894
G1 X153.675 Y90.753 E10.35436
G1 X154.147 Y91.657 E10.38828
G1 X154.627 Y92.662 E10.42532
G1 X155.032 Y93.592 E10.45906
G1 X155.435 Y94.622 E10.49585
G1 X155.788 Y95.627 E10.53128
G1 X156.093 Y96.601 E10.56522
G1 X156.385 Y97.667 E10.60198
G1 X156.621 Y98.669 E10.63622
G1 X156.835 Y99.747 E10.67278
G1 X156.998 Y100.755 E10.70674
G1 X157.135 Y101.853 E10.74354
G1 X157.225 Y102.871 E10.77753
G1 X157.284 Y103.976 E10.81434
G1 X157.302 Y104.996 E10.84827
G1 X157.281 Y106.103 E10.88509
G1 X157.225 Y107.129 E10.91927
G1 X157.127 Y108.224 E10.95583
G1 X156.999 Y109.238 E10.98983
G1 X156.821 Y110.33 E11.02663
G1 X156.621 Y111.331 E11.06058
G1 X156.366 Y112.408 E11.09739
G1 X156.095 Y113.392 E11.13134
G1 X155.763 Y114.447 E11.16812
G1 X155.407 Y115.457 E11.20374
G1 X155.035 Y116.401 E11.23749
G1 X154.592 Y117.415 E11.27429
G1 X154.151 Y118.336 E11.30826
G1 X153.637 Y119.316 E11.34506
G1 X153.106 Y120.246 E11.38068
G1 X152.573 Y121.109 E11.41442
G1 X151.957 Y122.028 E11.45122
G1 X151.334 Y122.89 E11.48659
G1 X150.676 Y123.735 E11.52221
G1 X149.997 Y124.545 E11.55736
G1 X149.309 Y125.31 E11.59158
G1 X148.544 Y126.1 E11.62816
G1 X147.805 Y126.814 E11.66234
G1 X146.981 Y127.552 E11.69913
G1 X146.202 Y128.203 E11.7329
G1 X145.322 Y128.885 E11.76993
G1 X144.465 Y129.502 E11.80505
G1 X143.615 Y130.069 E11.83903
G1 X142.673 Y130.649 E11.87583
G1 X141.741 Y131.178 E11.91147
G1 X140.843 Y131.647 E11.94516
G1 X139.838 Y132.127 E11.98221
G1 X138.908 Y132.532 E12.01595
G1 X137.879 Y132.935 E12.0527
G1 X136.874 Y133.288 E12.08813
G1 X135.894 Y133.594 E12.12228
G1 X134.833 Y133.885 E12.15887
G1 X133.831 Y134.121 E12.19311
G1 X132.746 Y134.336 E12.2299
G1 X131.741 Y134.498 E12.26375
G1 X130.647 Y134.635 E12.30043
G1 X129.629 Y134.725 E12.33442
G1 X128.517 Y134.784 E12.37145
G0 F6000 X128.502 Y134.345
G0 X128.489 Y133.994
;TYPE:SKIN
G1 F900 X127.502 Y134.012 E12.40429
G1 X126.426 Y133.991 E12.44008
G1 X125.421 Y133.936 E12.47356
G1 X124.354 Y133.841 E12.50919
G1 X123.376 Y133.716 E12.54198
G1 X122.303 Y133.543 E12.57813
G1 X121.346 Y133.351 E12.61059
G1 X120.281 Y133.098 E12.647
G1 X119.331 Y132.836 E12.67978
G1 X118.29 Y132.509 E12.71607
G1 X117.318 Y132.166 E12.75035
G1 X116.382 Y131.797 E12.78382
G1 X115.408 Y131.371 E12.81917
G1 X114.512 Y130.942 E12.85221
G1 X113.563 Y130.444 E12.88786
G1 X112.66 Y129.928 E12.92245
G1 X111.814 Y129.405 E12.95553
G1 X110.906 Y128.797 E12.99188
G1 X110.096 Y128.21 E13.02515
G1 X109.251 Y127.552 E13.06077
G1 X108.489 Y126.915 E13.0938
G1 X107.727 Y126.23 E13.12788
G1 X106.959 Y125.485 E13.16347
G1 X106.26 Y124.761 E13.19694
G1 X105.542 Y123.959 E13.23275
G1 X104.905 Y123.196 E13.2658
G1 X104.248 Y122.349 E13.30146
G1 X103.635 Y121.497 E13.33637
G1 X103.096 Y120.688 E13.3687
G1 X102.528 Y119.764 E13.40477
G1 X102.016 Y118.863 E13.43924
G1 X101.553 Y117.977 E13.47249
G1 X101.091 Y117.01 E13.50814
G1 X100.694 Y116.097 E13.54125
G1 X100.304 Y115.097 E13.57695
G1 X99.96 Y114.119 E13.61143
G1 X99.659 Y113.156 E13.64499
G1 X99.375 Y112.117 E13.68081
G1 X99.148 Y111.15 E13.71385
G1 X98.943 Y110.113 E13.74901
G1 X98.781 Y109.112 E13.78274
G1 X98.647 Y108.042 E13.8186
G1 X98.563 Y107.072 E13.85099
G1 X98.508 Y106.031 E13.88566
G1 X98.488 Y105.02 E13.91929
G1 X98.51 Y103.926 E13.95568
G1 X98.563 Y102.928 E13.98892
G1 X98.657 Y101.875 E14.02409
G1 X98.781 Y100.889 E14.05714
G1 X98.957 Y99.804 E14.0937
G1 X99.148 Y98.851 E14.12603
G1 X99.398 Y97.795 E14.16212
G1 X99.659 Y96.845 E14.19489
G1 X99.987 Y95.802 E14.23125
G1 X100.331 Y94.826 E14.26567
G1 X100.692 Y93.909 E14.29845
G1 X101.12 Y92.926 E14.33411
G1 X101.555 Y92.018 E14.3676
G1 X102.056 Y91.063 E14.40346
G1 X102.57 Y90.163 E14.43794
G1 X103.083 Y89.331 E14.47045
G1 X103.695 Y88.418 E14.507
G1 X104.289 Y87.596 E14.54074
G1 X104.936 Y86.767 E14.57571
G1 X105.585 Y85.988 E14.60943
G1 X106.268 Y85.229 E14.6434
G1 X107.005 Y84.469 E14.67861
G1 X107.739 Y83.76 E14.71255
G1 X108.546 Y83.037 E14.74859
G1 X109.287 Y82.417 E14.78072
G1 X110.14 Y81.756 E14.81661
G1 X110.985 Y81.147 E14.85126
G1 X111.8 Y80.604 E14.88383
G1 X112.736 Y80.028 E14.92038
G1 X113.637 Y79.516 E14.95485
G1 X114.517 Y79.056 E14.98788
G1 X115.478 Y78.597 E15.0233
G1 X116.38 Y78.204 E15.05602
G1 X117.403 Y77.804 E15.09256
G1 X118.363 Y77.466 E15.12641
G1 X119.331 Y77.163 E15.16014
G1 X120.363 Y76.881 E15.19573
G1 X121.345 Y76.649 E15.22929
G1 X122.387 Y76.443 E15.26462
G1 X123.369 Y76.285 E15.2977
G1 X124.445 Y76.149 E15.33377
G1 X125.42 Y76.064 E15.36632
G1 X126.511 Y76.006 E15.40266
G1 X127.498 Y75.988 E15.43549
G1 X128.574 Y76.009 E15.47129
G1 X129.579 Y76.064 E15.50476
G1 X130.646 Y76.159 E15.54039
G1 X131.624 Y76.284 E15.57319
G1 X132.697 Y76.457 E15.60934
G1 X133.654 Y76.649 E15.6418
G1 X134.719 Y76.902 E15.67821
G1 X135.659 Y77.16 E15.71063
G1 X136.699 Y77.487 E15.74689
G1 X137.675 Y77.831 E15.78131
G1 X138.618 Y78.203 E15.81502
G1 X139.592 Y78.629 E15.85038
G1 X140.482 Y79.055 E15.8832
G1 X141.437 Y79.556 E15.91907
G1 X142.337 Y80.07 E15.95354
G1 X143.169 Y80.583 E15.98605
G1 X144.082 Y81.195 E16.02261
G1 X144.904 Y81.79 E16.05636
G1 X145.744 Y82.444 E16.09177
G1 X146.511 Y83.085 E16.12501
G1 X147.271 Y83.768 E16.159
G1 X148.031 Y84.505 E16.19421
G1 X148.745 Y85.244 E16.22839
G1 X149.451 Y86.031 E16.26355
G1 X150.083 Y86.787 E16.29633
G1 X150.744 Y87.64 E16.33222
G1 X151.353 Y88.485 E16.36686
G1 X151.896 Y89.3 E16.39943
G1 X152.465 Y90.224 E16.43553
G1 X152.975 Y91.119 E16.46979
G1 X153.444 Y92.017 E16.50348
G1 X153.903 Y92.978 E16.5389
G1 X154.296 Y93.88 E16.57163
G1 X154.694 Y94.897 E16.60795
G1 X155.034 Y95.864 E16.64205
G1 X155.331 Y96.81 E16.67502
G1 X155.619 Y97.863 E16.71133
G1 X155.849 Y98.837 E16.74462
G1 X156.055 Y99.873 E16.77975
G1 X156.214 Y100.854 E16.81281
G1 X156.351 Y101.945 E16.84938
G1 X156.436 Y102.913 E16.8817
G1 X156.494 Y103.99 E16.91757
G1 X156.512 Y104.98 E16.9505
G1 X156.491 Y106.074 E16.9869
G1 X156.437 Y107.072 E17.02014
G1 X156.343 Y108.125 E17.0553
G1 X156.219 Y109.111 E17.08835
G1 X156.043 Y110.196 E17.12491
G1 X155.852 Y111.149 E17.15724
G1 X155.602 Y112.205 E17.19333
G1 X155.341 Y113.155 E17.2261
G1 X155.013 Y114.198 E17.26247
G1 X154.669 Y115.174 E17.29689
G1 X154.308 Y116.091 E17.32966
G1 X153.88 Y117.074 E17.36532
G1 X153.445 Y117.982 E17.39881
G1 X152.944 Y118.937 E17.43468
G1 X152.43 Y119.837 E17.46915
G1 X151.917 Y120.669 E17.50166
G1 X151.305 Y121.582 E17.53822
G1 X150.71 Y122.404 E17.57197
G1 X150.065 Y123.233 E17.6069
G1 X149.414 Y124.012 E17.64067
G1 X148.736 Y124.767 E17.67442
G1 X147.995 Y125.531 E17.70982
G1 X147.26 Y126.241 E17.74381
G1 X146.459 Y126.959 E17.77959
G1 X145.713 Y127.583 E17.81193
G1 X144.86 Y128.244 E17.84783
