;FLAVOR:Marlin
;TIME:1985
;Filament used: 0.948074m
;Layer height: 0.2
;MINX:106.629
;MINY:76.24
;MINZ:0.2
;MAXX:148.371
;MAXY:133.76
;MAXZ:29
;Generated with Cura_SteamEngine 4.13.0
M140 S60
M105
M190 S60
M104 S230
M105
M109 S230
M82 ;absolute extrusion mode
M220 S100 ;reset feedrate
M221 S100 ;reset flowrate
G90 ;use absolute coordinates
M82 ;absolute extrusion mode
G28 ;home
G1 Z2 F1500 ;raise z
G92 E0 ;reset extruder

G1 X75 Y5 F5000 ;start position
G1 Z0.28 F1500 ;lower z
G1 E4 F500 ;prime the filament
G1 X180 E10 F500 ;1st line
G1 Y5.4 F5000
G1 X75 E20 F500 ;2nd line
G1 Z2 F1500 ;raise z
G92 E0 ;reset extruder
G92 E0
G92 E0
G1 F1500 E-6.5
;LAYER_COUNT:145
;LAYER:0
M107
;MESH:TestMRPlace.stl
G0 F6000 X143.422 Y121.867 Z0.2
;TYPE:WALL-INNER
G1 F1500 E0
G1 F900 X144.129 Y121.969 E0.02376
G1 X144.835 Y121.867 E0.04748
G1 X145.486 Y121.57 E0.07128
G1 X146.025 Y121.102 E0.09502
G1 X146.411 Y120.503 E0.11873
G1 X146.611 Y119.816 E0.14252
G1 X146.611 Y119.103 E0.16624
G1 X146.411 Y118.416 E0.19004
G1 X146.025 Y117.817 E0.21374
G1 X145.485 Y117.349 E0.23751
G1 X144.833 Y117.052 E0.26133
G1 X144.129 Y116.952 E0.28499
G1 X143.422 Y117.052 E0.30873
G1 X142.774 Y117.349 E0.33244
G1 X142.629 Y117.474 E0.33881
G1 X142.629 Y114.71 E0.43074
G1 X125.629 Y114.71 E0.99616
G1 X125.629 Y117.474 E1.08809
G1 X125.485 Y117.349 E1.09444
G1 X124.833 Y117.052 E1.11827
G1 X124.129 Y116.952 E1.14192
G1 X123.422 Y117.052 E1.16567
G1 X122.774 Y117.349 E1.18937
G1 X122.233 Y117.816 E1.21314
G1 X121.846 Y118.416 E1.23689
G1 X121.645 Y119.103 E1.2607
G1 X121.645 Y119.816 E1.28441
G1 X121.846 Y120.503 E1.30822
G1 X122.233 Y121.103 E1.33197
G1 X122.774 Y121.57 E1.35574
G1 X123.422 Y121.867 E1.37945
G1 X124.129 Y121.969 E1.40321
G1 X124.835 Y121.867 E1.42693
G1 X125.486 Y121.57 E1.45073
G1 X125.629 Y121.446 E1.45703
G1 X125.629 Y124.21 E1.54896
G1 X142.629 Y124.21 E2.11438
G1 X142.629 Y121.445 E2.20634
G1 X142.774 Y121.57 E2.21271
G1 X143.422 Y121.867 E2.23642
G0 F6000 X143.536 Y121.479
G1 F900 X144.129 Y121.565 E2.25635
G1 X144.721 Y121.479 E2.27624
G1 X145.267 Y121.23 E2.2962
G1 X145.72 Y120.837 E2.31615
G1 X146.043 Y120.335 E2.33601
G1 X146.211 Y119.759 E2.35596
G1 X146.211 Y119.16 E2.37588
G1 X146.043 Y118.584 E2.39584
G1 X145.72 Y118.082 E2.41569
G1 X145.267 Y117.689 E2.43564
G1 X144.72 Y117.44 E2.45563
G1 X144.129 Y117.356 E2.47548
G1 X143.536 Y117.44 E2.4954
G1 X142.992 Y117.689 E2.5153
G1 X142.538 Y118.081 E2.53525
G1 X142.229 Y118.561 E2.55424
G1 X142.229 Y118.081 E2.55993
G1 X142.229 Y115.11 E2.65875
G1 X126.029 Y115.11 E3.19756
G1 X126.029 Y118.082 E3.29641
G1 X126.029 Y118.562 E3.31238
G1 X125.72 Y118.082 E3.32108
G1 X125.267 Y117.689 E3.34102
G1 X124.72 Y117.44 E3.36101
G1 X124.129 Y117.356 E3.38087
G1 X123.536 Y117.44 E3.40079
G1 X122.992 Y117.689 E3.42069
G1 X122.538 Y118.081 E3.44064
G1 X122.214 Y118.584 E3.46054
G1 X122.045 Y119.16 E3.4805
G1 X122.045 Y119.759 E3.50042
G1 X122.214 Y120.335 E3.52039
G1 X122.538 Y120.838 E3.54029
G1 X122.992 Y121.23 E3.56024
G1 X123.536 Y121.479 E3.58014
G1 X124.129 Y121.565 E3.60007
G1 X124.721 Y121.479 E3.61997
G1 X125.267 Y121.23 E3.63992
G1 X125.72 Y120.837 E3.65987
G1 X126.029 Y120.357 E3.67886
G1 X126.029 Y120.837 E3.68455
G1 X126.029 Y123.81 E3.78343
G1 X142.229 Y123.81 E4.32225
G1 X142.229 Y120.838 E4.4211
G1 X142.229 Y120.358 E4.43706
G1 X142.538 Y120.838 E4.44576
G1 X142.992 Y121.23 E4.46571
G1 X143.536 Y121.479 E4.48561
G0 F6000 X143.65 Y121.091
;TYPE:WALL-OUTER
G1 F900 X144.129 Y121.161 E4.50171
G1 X144.607 Y121.091 E4.51778
G1 X145.049 Y120.89 E4.53393
G1 X145.414 Y120.573 E4.55001
G1 X145.675 Y120.167 E4.56606
G1 X145.811 Y119.702 E4.58217
G1 X145.811 Y119.217 E4.59831
G1 X145.675 Y118.752 E4.61442
G1 X145.414 Y118.346 E4.63047
G1 X145.049 Y118.029 E4.64655
G1 X144.607 Y117.828 E4.6627
G1 X144.129 Y117.76 E4.67876
G1 X143.65 Y117.828 E4.69485
G1 X143.21 Y118.029 E4.71094
G1 X142.843 Y118.346 E4.72707
G1 X142.582 Y118.752 E4.74312
G1 X142.445 Y119.218 E4.75928
G1 X142.445 Y119.701 E4.77534
G1 X142.582 Y120.167 E4.7915
G1 X142.843 Y120.573 E4.80755
G1 X143.21 Y120.89 E4.82368
G1 X143.65 Y121.091 E4.83977
G0 F6000 X143.526 Y121.513
G1 F1500 E-1.66023
G0 F6000 X141.957 Y123.538
G0 X126.301 Y123.538
G0 X126.298 Y122.909
G0 X123.621 Y121.289
G1 F1500 E4.83977
G0 F6000 X123.65 Y121.091
G1 F900 X124.129 Y121.161 E4.85587
G1 X124.607 Y121.091 E4.87194
G1 X125.049 Y120.89 E4.88809
G1 X125.414 Y120.573 E4.90417
G1 X125.675 Y120.167 E4.92022
G1 X125.811 Y119.702 E4.93633
G1 X125.811 Y119.217 E4.95247
G1 X125.675 Y118.752 E4.96858
G1 X125.414 Y118.346 E4.98463
G1 X125.049 Y118.029 E5.00071
G1 X124.607 Y117.828 E5.01686
G1 X124.129 Y117.76 E5.03292
G1 X123.65 Y117.828 E5.04901
G1 X123.21 Y118.029 E5.0651
G1 X122.843 Y118.346 E5.08123
G1 X122.582 Y118.752 E5.09728
G1 X122.445 Y119.218 E5.11344
G1 X122.445 Y119.701 E5.1295
G1 X122.582 Y120.167 E5.14566
G1 X122.843 Y120.573 E5.16171
G1 X123.21 Y120.89 E5.17784
G1 X123.65 Y121.091 E5.19393
G0 F6000 X123.526 Y121.513
G1 F1500 E-1.30607
G0 F6000 X124.647 Y121.226
G0 X125.125 Y121.008
G0 X125.52 Y120.665
G0 X125.803 Y120.225
G0 X125.95 Y119.721
G0 X126.301 Y115.382
G1 F1500 E5.19393
G0 F6000 X126.429 Y115.51
G1 F900 X126.429 Y123.41 E5.45669
G1 X141.829 Y123.41 E5.96889
G1 X141.829 Y115.51 E6.23165
G1 X126.429 Y115.51 E6.74385
G0 F6000 X126.429 Y115.31
G0 X125.504 Y124.61
;TYPE:WALL-INNER
G1 F900 X126.742 Y124.61 E6.78503
G1 X143.029 Y124.61 E7.32674
G1 X143.029 Y122.127 E7.40932
G1 X143.308 Y122.255 E7.41953
G1 X144.129 Y122.373 E7.44712
G1 X144.949 Y122.255 E7.47467
G1 X145.705 Y121.91 E7.50231
G1 X146.33 Y121.367 E7.52985
G1 X146.779 Y120.671 E7.5574
G1 X147.011 Y119.873 E7.58504
G1 X147.011 Y119.109 E7.61045
G1 X147.082 Y119.429 E7.62135
G1 X147.135 Y119.795 E7.62557
G1 X147.162 Y120.106 E7.6334
G1 X147.171 Y120.403 E7.64012
G1 X147.163 Y120.695 E7.64984
G1 X147.141 Y120.941 E7.65805
G1 X147.086 Y121.305 E7.67029
G1 X147.038 Y121.536 E7.67814
G1 X146.954 Y121.834 E7.68844
G1 X146.854 Y122.114 E7.69833
G1 X146.735 Y122.389 E7.70829
G1 X146.598 Y122.655 E7.71825
G1 X146.432 Y122.929 E7.7289
G1 X146.259 Y123.176 E7.73893
G1 X146.047 Y123.44 E7.75019
G1 X145.827 Y123.679 E7.761
G1 X145.566 Y123.929 E7.77302
G1 X145.264 Y124.183 E7.78614
G1 X144.983 Y124.391 E7.79777
G1 X144.627 Y124.627 E7.81198
G1 X144.309 Y124.816 E7.82428
G1 X143.933 Y125.01 E7.83835
G1 X143.464 Y125.225 E7.85551
G1 X143.095 Y125.376 E7.86877
G1 X142.602 Y125.552 E7.88618
G1 X142.144 Y125.693 E7.90212
G1 X141.632 Y125.83 E7.91975
G1 X141.124 Y125.948 E7.9371
G1 X140.614 Y126.052 E7.95441
G1 X140.047 Y126.146 E7.97352
G1 X139.459 Y126.224 E7.99325
G1 X138.879 Y126.285 E8.01265
G1 X138.272 Y126.334 E8.0329
G1 X137.671 Y126.364 E8.05292
G1 X137.038 Y126.382 E8.07398
G1 X136.439 Y126.387 E8.0939
G1 X135.897 Y126.378 E8.11193
G1 X135.182 Y126.353 E8.13573
G1 X134.583 Y126.319 E8.15568
G1 X133.947 Y126.269 E8.1769
G1 X133.33 Y126.212 E8.19751
G1 X132.74 Y126.144 E8.21727
G1 X132.122 Y126.064 E8.23799
G1 X131.606 Y125.991 E8.25532
G1 X130.951 Y125.884 E8.2774
G1 X130.38 Y125.782 E8.29669
G1 X129.836 Y125.678 E8.31511
G1 X129.286 Y125.565 E8.33379
G1 X128.761 Y125.449 E8.35167
G1 X128.21 Y125.321 E8.37048
G1 X127.71 Y125.199 E8.3876
G1 X127.229 Y125.078 E8.4041
G1 X126.742 Y124.95 E8.42085
G1 X125.892 Y124.719 E8.43486
G1 X125.504 Y124.61 E8.44826
G1 F1500 E1.94826
G0 F6000 X125.039 Y122.42
G0 X122.737 Y120.665
G0 X122.454 Y120.225
G0 X122.306 Y119.72
G0 X122.462 Y116.864
G0 X125.039 Y116.5
G0 X125.046 Y114.272
G0 X117.627 Y111.776
G0 X114.768 Y110.454
G0 X111.407 Y108.56
G0 X110.641 Y108.004
G0 X110.121 Y107.389
G0 X109.954 Y107.01
G0 X109.866 Y106.496
G0 X107.829 Y82.294
G1 F1500 E8.44826
G1 F900 X107.86 Y82.737 E8.46303
G1 X108.227 Y87.49 E8.62159
G1 X108.281 Y88.183 E8.64471
G1 X108.409 Y89.98 E8.70463
G1 X108.523 Y91.754 E8.76375
G1 X108.572 Y92.625 E8.79277
G1 X108.656 Y94.34 E8.84988
G1 X108.69 Y95.177 E8.87774
G1 X108.742 Y96.697 E8.92832
G1 X108.775 Y98.246 E8.97985
G1 X108.787 Y99.61 E9.02522
G1 X108.788 Y100.25 E9.04651
G1 X108.781 Y101.446 E9.08629
G1 X108.763 Y102.533 E9.12245
G1 X108.722 Y104.416 E9.18509
G1 X108.712 Y105.149 E9.20947
G1 X108.714 Y105.537 E9.22238
G1 X108.721 Y105.854 E9.23292
G1 X108.738 Y106.19 E9.24411
G1 X108.804 Y106.765 E9.26336
G1 X108.943 Y107.35 E9.28336
G1 X109.192 Y107.914 E9.30387
G1 X109.543 Y108.409 E9.32405
G1 X109.938 Y108.799 E9.34251
G1 X110.365 Y109.136 E9.36061
G1 X110.598 Y109.298 E9.37004
G1 X110.836 Y109.454 E9.37951
G1 X111.331 Y109.763 E9.39892
G1 X111.899 Y110.093 E9.42077
G1 X112.5 Y110.437 E9.4438
G1 X113.189 Y110.818 E9.46999
G1 X113.546 Y111.01 E9.48347
G1 X114.283 Y111.396 E9.51114
G1 X114.704 Y111.609 E9.52683
G1 X115.07 Y111.791 E9.54043
G1 X115.512 Y112.004 E9.55675
G1 X116.342 Y112.385 E9.58712
G1 X117.23 Y112.759 E9.61917
G1 X117.672 Y112.93 E9.63493
G1 X118.142 Y113.103 E9.65159
G1 X118.552 Y113.244 E9.66601
G1 X119.03 Y113.396 E9.68269
G1 X119.511 Y113.535 E9.69935
G1 X119.985 Y113.656 E9.71562
G1 X120.404 Y113.757 E9.72995
G1 X120.884 Y113.852 E9.74623
G1 X121.36 Y113.935 E9.7623
G1 X121.775 Y113.995 E9.77624
G1 X122.249 Y114.05 E9.79211
G1 X122.724 Y114.09 E9.80797
G1 X123.194 Y114.116 E9.82362
G1 X123.6 Y114.127 E9.83713
G1 X124.063 Y114.128 E9.85253
G1 X124.469 Y114.12 E9.86604
G1 X124.99 Y114.092 E9.88339
G1 X125.387 Y114.063 E9.89663
G1 X125.838 Y114.021 E9.9117
G1 X126.29 Y113.968 E9.92683
G1 X126.705 Y113.912 E9.94076
G1 X127.11 Y113.856 E9.95436
G1 X127.987 Y113.711 E9.98393
G1 X128.854 Y113.554 E10.01323
G1 X130.453 Y113.259 E10.06731
G1 X131.283 Y113.116 E10.09532
G1 X132.115 Y112.984 E10.12334
G1 X132.929 Y112.874 E10.15066
G1 X133.78 Y112.78 E10.17914
G1 X134.565 Y112.718 E10.20533
G1 X135.424 Y112.679 E10.23393
G1 X135.827 Y112.67 E10.24734
G1 X136.205 Y112.669 E10.25991
G1 X136.613 Y112.678 E10.27348
G1 X137.044 Y112.694 E10.28783
G1 X137.454 Y112.719 E10.30149
G1 X137.824 Y112.753 E10.31385
G1 X138.225 Y112.796 E10.32726
G1 X138.647 Y112.852 E10.34142
G1 X139.008 Y112.906 E10.35356
G1 X139.408 Y112.981 E10.3671
G1 X139.747 Y113.051 E10.37861
G1 X140.163 Y113.148 E10.39282
G1 X140.531 Y113.245 E10.40547
G1 X140.888 Y113.349 E10.41784
G1 X141.24 Y113.465 E10.43017
G1 X141.608 Y113.597 E10.44317
G1 X141.934 Y113.726 E10.45483
G1 X142.304 Y113.887 E10.46825
G1 X142.615 Y114.035 E10.47971
G1 X142.93 Y114.195 E10.49146
G1 X143.215 Y114.354 E10.50231
G1 X143.52 Y114.537 E10.51415
G1 X143.824 Y114.736 E10.52623
G1 X144.121 Y114.946 E10.53833
G1 X144.375 Y115.142 E10.549
G1 X144.646 Y115.366 E10.56069
G1 X144.901 Y115.597 E10.57214
G1 X145.144 Y115.835 E10.58345
G1 X145.379 Y116.084 E10.59484
G1 X145.581 Y116.318 E10.60512
G1 X145.791 Y116.582 E10.61634
G1 X146.009 Y116.883 E10.6287
G1 X146.157 Y117.109 E10.63769
G1 X146.355 Y117.441 E10.65054
G1 X146.486 Y117.686 E10.65978
G1 X146.635 Y117.997 E10.67125
G1 X146.666 Y118.074 E10.67401
G1 X146.33 Y117.552 E10.68009
G1 X146.012 Y117.277 E10.68746
G1 X145.703 Y117.009 E10.69711
G1 X144.946 Y116.664 E10.72478
G1 X144.129 Y116.548 E10.75223
G1 X143.308 Y116.664 E10.7798
G1 X143.029 Y116.792 E10.79001
G1 X143.029 Y114.31 E10.86943
G1 X142.615 Y114.31 E10.87742
G1 X126.709 Y114.31 E11.40645
G1 X126.29 Y114.31 E11.4194
G1 X125.838 Y114.31 E11.43128
G1 X125.229 Y114.31 E11.44677
G1 X125.229 Y116.793 E11.52935
G1 X124.946 Y116.664 E11.5397
G1 X124.129 Y116.548 E11.56714
G1 X123.308 Y116.664 E11.59472
G1 X122.556 Y117.009 E11.62224
G1 X121.928 Y117.551 E11.64983
G1 X121.478 Y118.248 E11.67742
G1 X121.245 Y119.046 E11.70507
G1 X121.245 Y119.873 E11.73258
G1 X121.478 Y120.671 E11.76023
G1 X121.928 Y121.368 E11.78782
G1 X122.556 Y121.91 E11.81541
G1 X123.308 Y122.255 E11.84293
G1 X124.129 Y122.373 E11.87052
G1 X124.949 Y122.255 E11.89807
G1 X125.229 Y122.127 E11.90831
G1 X125.229 Y124.533 E11.98834
G1 X125.02 Y124.474 E11.99556
G1 X124.189 Y124.247 E12.02421
G1 X123.787 Y124.144 E12.03801
G1 X123.395 Y124.048 E12.05144
G1 X123.012 Y123.964 E12.06448
G1 X122.674 Y123.898 E12.07593
G1 X122.289 Y123.832 E12.08893
G1 X121.903 Y123.784 E12.10186
G1 X121.522 Y123.753 E12.11458
G1 X121.137 Y123.739 E12.12739
G1 X120.788 Y123.743 E12.139
G1 X120.398 Y123.772 E12.15201
G1 X120.005 Y123.822 E12.16518
G1 X119.633 Y123.893 E12.17778
G1 X119.244 Y123.988 E12.1911
G1 X118.874 Y124.104 E12.20399
G1 X118.505 Y124.239 E12.21706
G1 X118.11 Y124.406 E12.23133
G1 X117.736 Y124.585 E12.24512
G1 X117.362 Y124.782 E12.25918
G1 X116.973 Y125.009 E12.27416
G1 X116.61 Y125.235 E12.28838
G1 X116.226 Y125.493 E12.30377
G1 X115.843 Y125.767 E12.31943
G1 X115.458 Y126.058 E12.33548
G1 X115.072 Y126.365 E12.35188
G1 X114.684 Y126.688 E12.36868
G1 X114.297 Y127.026 E12.38576
G1 X113.911 Y127.38 E12.40318
G1 X113.529 Y127.746 E12.42078
G1 X113.112 Y128.159 E12.4403
G1 X112.741 Y128.549 E12.4582
G1 X112.402 Y128.914 E12.47477
G1 X112.009 Y129.366 E12.49469
G1 X111.654 Y129.79 E12.51309
G1 X111.314 Y130.222 E12.53137
G1 X110.984 Y130.663 E12.54969
G1 X110.666 Y131.112 E12.56799
G1 X110.364 Y131.57 E12.58624
G1 X110.083 Y132.034 E12.60428
G1 X109.819 Y132.501 E12.62212
G1 X109.789 Y132.56 E12.62432
G1 X107.829 Y132.56 E12.68951
G1 X107.829 Y87.504 E14.18808
G1 X107.829 Y82.737 E14.27357
G1 X107.829 Y82.294 E14.27414
G0 F6000 X107.984 Y77.04
G1 F900 X107.989 Y77.656 E14.29463
G1 X108.01 Y78.468 E14.32165
G1 X108.047 Y79.361 E14.35138
G1 X108.092 Y80.2 E14.37932
G1 X108.143 Y81.052 E14.40771
G1 X108.259 Y82.708 E14.46292
G1 X108.68 Y88.155 E14.64463
G1 X108.808 Y89.954 E14.70462
G1 X108.922 Y91.731 E14.76384
G1 X108.972 Y92.605 E14.79296
G1 X109.056 Y94.324 E14.8502
G1 X109.09 Y95.163 E14.87813
G1 X109.142 Y96.689 E14.92891
G1 X109.175 Y98.242 E14.98058
G1 X109.187 Y99.609 E15.02605
G1 X109.188 Y100.252 E15.04743
G1 X109.181 Y101.453 E15.08738
G1 X109.163 Y102.542 E15.1236
G1 X109.122 Y104.423 E15.18618
G1 X109.112 Y105.151 E15.2104
G1 X109.114 Y105.531 E15.22304
G1 X109.121 Y105.839 E15.23328
G1 X109.137 Y106.157 E15.24387
G1 X109.199 Y106.696 E15.26192
G1 X109.324 Y107.222 E15.2799
G1 X109.542 Y107.716 E15.29786
G1 X109.849 Y108.149 E15.31551
G1 X110.203 Y108.499 E15.33207
G1 X110.603 Y108.814 E15.34901
G1 X110.822 Y108.966 E15.35787
G1 X111.052 Y109.117 E15.36702
G1 X111.538 Y109.42 E15.38607
G1 X112.099 Y109.747 E15.40767
G1 X112.696 Y110.088 E15.43054
G1 X113.381 Y110.467 E15.45657
G1 X113.734 Y110.657 E15.46991
G1 X114.466 Y111.04 E15.49739
G1 X114.883 Y111.252 E15.51294
G1 X115.246 Y111.432 E15.52642
G1 X115.682 Y111.642 E15.54252
G1 X116.503 Y112.019 E15.57256
G1 X117.38 Y112.388 E15.60421
G1 X117.813 Y112.556 E15.61966
G1 X118.276 Y112.726 E15.63606
G1 X118.678 Y112.864 E15.6502
G1 X119.146 Y113.013 E15.66653
G1 X119.616 Y113.149 E15.68281
G1 X120.081 Y113.268 E15.69877
G1 X120.49 Y113.366 E15.71276
G1 X120.957 Y113.459 E15.7286
G1 X121.423 Y113.54 E15.74433
G1 X121.827 Y113.598 E15.7579
G1 X122.289 Y113.652 E15.77338
G1 X122.752 Y113.691 E15.78883
G1 X123.21 Y113.716 E15.80409
G1 X123.606 Y113.727 E15.81726
G1 X124.059 Y113.728 E15.83233
G1 X124.454 Y113.72 E15.84547
G1 X124.965 Y113.693 E15.86249
G1 X125.354 Y113.664 E15.87546
G1 X125.796 Y113.623 E15.89023
G1 X126.24 Y113.571 E15.9051
G1 X127.05 Y113.46 E15.93229
G1 X127.919 Y113.317 E15.96158
G1 X128.782 Y113.161 E15.99075
G1 X130.385 Y112.865 E16.04497
G1 X131.22 Y112.721 E16.07315
G1 X132.052 Y112.589 E16.10117
G1 X132.885 Y112.476 E16.12913
G1 X133.738 Y112.382 E16.15767
G1 X134.544 Y112.318 E16.18456
G1 X135.406 Y112.279 E16.21326
G1 X135.818 Y112.27 E16.22697
G1 X136.213 Y112.269 E16.2401
G1 X136.628 Y112.278 E16.25391
G1 X137.059 Y112.294 E16.26826
G1 X137.479 Y112.32 E16.28225
G1 X137.867 Y112.355 E16.29521
G1 X138.278 Y112.399 E16.30896
G1 X138.7 Y112.455 E16.32312
G1 X139.067 Y112.51 E16.33546
G1 X139.489 Y112.589 E16.34974
G1 X139.838 Y112.661 E16.36159
G1 X140.254 Y112.758 E16.3758
G1 X140.633 Y112.858 E16.38883
G1 X141.007 Y112.967 E16.40179
G1 X141.375 Y113.088 E16.41468
G1 X141.743 Y113.22 E16.42768
G1 X142.094 Y113.359 E16.44024
G1 X142.464 Y113.52 E16.45366
G1 X142.796 Y113.678 E16.46589
