;FLAVOR:Marlin
;TIME:21487
;Filament used: 21.2029m
;Layer height: 0.2
;MINX:45.335
;MINY:57.375
;MINZ:0.2
;MAXX:209.665
;MAXY:152.625
;MAXZ:27.4
;Generated with Cura_SteamEngine 4.13.0
M140 S60
M105
M190 S60
M104 S195
M105
M109 S195
M82 ;absolute extrusion mode
M220 S100 ;reset feedrate
M221 S100 ;reset flowrate
G90 ;use absolute coordinates
M82 ;absolute extrusion mode
G28 ;home
G1 Z2 F1500 ;raise z
G92 E0 ;reset extruder

G1 X75 Y5 F5000 ;start position
G1 Z0.28 F1500 ;lower z
G1 E4 F500 ;prime the filament
G1 X180 E10 F500 ;1st line
G1 Y5.4 F5000
G1 X75 E20 F500 ;2nd line
G1 Z2 F1500 ;raise z
G92 E0 ;reset extruder
G92 E0
G92 E0
G1 F1500 E-6.5
;LAYER_COUNT:137
;LAYER:0
M107
G0 F9000 X91.25 Y86.51 Z0.2
;TYPE:SKIRT
G1 F1500 E0
G1 F1800 X126.004 Y86.51 E1.4449
G1 X126.55 Y86.47 E1.46766
G1 X127.084 Y86.351 E1.49041
G1 X127.595 Y86.156 E1.51315
G1 X128.073 Y85.888 E1.53593
G1 X128.294 Y85.717 E1.54755
G1 X128.709 Y86.001 E1.56846
G1 X129.201 Y86.241 E1.59122
G1 X129.722 Y86.407 E1.61395
G1 X130.263 Y86.495 E1.63674
G1 X130.595 Y86.51 E1.65055
G1 X137.405 Y86.51 E1.93368
G1 X137.326 Y86.793 E1.9459
G1 X137.25 Y87.542 E1.9772
G1 X137.25 Y101.978 E2.57738
G1 X137.29 Y102.524 E2.60014
G1 X137.409 Y103.058 E2.62288
G1 X137.604 Y103.569 E2.64562
G1 X137.872 Y104.047 E2.6684
G1 X138.348 Y104.63 E2.6997
G1 X138.63 Y104.912 E2.71628
G1 X139.045 Y105.269 E2.73904
G1 X139.507 Y105.563 E2.7618
G1 X140.006 Y105.786 E2.78453
G1 X140.533 Y105.934 E2.80728
G1 X141.282 Y106.01 E2.83858
G1 X148.718 Y106.01 E3.14774
G1 X149.264 Y105.97 E3.1705
G1 X149.798 Y105.851 E3.19324
G1 X150.309 Y105.656 E3.21598
G1 X150.787 Y105.388 E3.23877
G1 X151.37 Y104.912 E3.27006
G1 X151.652 Y104.63 E3.28664
G1 X152.009 Y104.215 E3.3094
G1 X152.303 Y103.753 E3.33216
G1 X152.526 Y103.254 E3.35489
G1 X152.674 Y102.727 E3.37764
G1 X152.75 Y101.978 E3.40894
G1 X152.75 Y87.542 E4.00912
G1 X152.71 Y86.996 E4.03188
G1 X152.602 Y86.51 E4.05258
G1 X162.75 Y86.51 E4.47449
G1 X162.75 Y104.414 E5.21885
G1 X162.79 Y104.96 E5.24161
G1 X162.806 Y105.033 E5.24472
G1 X162.75 Y105.586 E5.26783
G1 X162.75 Y123.01 E5.99223
G1 X130.592 Y123.01 E7.32921
G1 X130.046 Y123.05 E7.35197
G1 X129.512 Y123.169 E7.37471
G1 X129.001 Y123.364 E7.39745
G1 X128.523 Y123.632 E7.42024
G1 X128.304 Y123.802 E7.43176
G1 X127.889 Y123.518 E7.45267
G1 X127.397 Y123.278 E7.47543
G1 X126.876 Y123.113 E7.49815
G1 X126.336 Y123.025 E7.5209
G1 X126.004 Y123.01 E7.53471
G1 X117.75 Y123.01 E7.87787
G1 X117.75 Y117.542 E8.10521
G1 X117.71 Y116.996 E8.12797
G1 X117.591 Y116.462 E8.15071
G1 X117.396 Y115.951 E8.17345
G1 X117.128 Y115.473 E8.19624
G1 X116.652 Y114.89 E8.22753
G1 X116.37 Y114.608 E8.24411
G1 X115.955 Y114.251 E8.26687
G1 X115.493 Y113.957 E8.28963
G1 X114.994 Y113.734 E8.31236
G1 X114.467 Y113.586 E8.33512
G1 X113.718 Y113.51 E8.36641
G1 X104.282 Y113.51 E8.75872
G1 X103.736 Y113.55 E8.78148
G1 X103.202 Y113.669 E8.80422
G1 X102.691 Y113.864 E8.82696
G1 X102.213 Y114.132 E8.84975
G1 X101.63 Y114.608 E8.88104
G1 X101.348 Y114.89 E8.89762
G1 X100.991 Y115.305 E8.92038
G1 X100.697 Y115.767 E8.94315
G1 X100.474 Y116.266 E8.96587
G1 X100.326 Y116.793 E8.98863
G1 X100.25 Y117.542 E9.01993
G1 X100.25 Y123.01 E9.24726
G1 X91.25 Y123.01 E9.62144
G1 X91.25 Y105.586 E10.34584
G1 X91.21 Y105.04 E10.3686
G1 X91.194 Y104.967 E10.37171
G1 X91.25 Y104.414 E10.39482
G1 X91.25 Y86.51 E11.13918
G0 F9000 X90.75 Y86.01
G1 F1800 X126.004 Y86.01 E12.60487
G1 X126.512 Y85.97 E12.62606
G1 X127.007 Y85.851 E12.64722
G1 X127.478 Y85.656 E12.66842
G1 X127.913 Y85.39 E12.68961
G1 X128.303 Y85.057 E12.71094
G1 X128.624 Y85.344 E12.72884
G1 X129.053 Y85.621 E12.75007
G1 X129.519 Y85.827 E12.77125
G1 X130.011 Y85.957 E12.79241
G1 X130.595 Y86.01 E12.81679
G1 X138.139 Y86.01 E13.13043
G1 X138.105 Y86.066 E13.13315
G1 X137.91 Y86.536 E13.15431
G1 X137.79 Y87.032 E13.17553
G1 X137.75 Y87.542 E13.19679
G1 X137.75 Y101.978 E13.79697
G1 X137.79 Y102.486 E13.81816
G1 X137.909 Y102.981 E13.83932
G1 X138.104 Y103.452 E13.86052
G1 X138.37 Y103.887 E13.88172
G1 X138.702 Y104.276 E13.90298
G1 X138.984 Y104.558 E13.91956
G1 X139.371 Y104.889 E13.94073
G1 X139.806 Y105.155 E13.96193
G1 X140.276 Y105.35 E13.98309
G1 X140.772 Y105.47 E14.0043
G1 X141.282 Y105.51 E14.02557
G1 X148.718 Y105.51 E14.33472
G1 X149.226 Y105.47 E14.35591
G1 X149.721 Y105.351 E14.37707
G1 X150.192 Y105.156 E14.39827
G1 X150.627 Y104.89 E14.41947
G1 X151.016 Y104.558 E14.44073
G1 X151.298 Y104.276 E14.45731
G1 X151.629 Y103.889 E14.47848
G1 X151.895 Y103.454 E14.49968
G1 X152.09 Y102.984 E14.52084
G1 X152.21 Y102.488 E14.54205
G1 X152.25 Y101.978 E14.56332
G1 X152.25 Y87.542 E15.1635
G1 X152.21 Y87.034 E15.18468
G1 X152.091 Y86.539 E15.20585
G1 X151.896 Y86.068 E15.22704
G1 X151.861 Y86.01 E15.22986
G1 X163.25 Y86.01 E15.70336
G1 X163.25 Y104.414 E16.46851
G1 X163.29 Y104.922 E16.4897
G1 X163.29 Y105.076 E16.4961
G1 X163.25 Y105.586 E16.51737
G1 X163.25 Y123.51 E17.26256
G1 X130.592 Y123.51 E18.62032
G1 X130.084 Y123.55 E18.64151
G1 X129.589 Y123.669 E18.66267
G1 X129.118 Y123.864 E18.68387
G1 X128.683 Y124.13 E18.70507
G1 X128.295 Y124.462 E18.7263
G1 X127.974 Y124.175 E18.7442
G1 X127.546 Y123.899 E18.76537
G1 X127.08 Y123.693 E18.78655
G1 X126.587 Y123.563 E18.80775
G1 X126.004 Y123.51 E18.83209
G1 X117.25 Y123.51 E19.19604
G1 X117.25 Y117.542 E19.44416
G1 X117.21 Y117.034 E19.46534
G1 X117.091 Y116.539 E19.48651
G1 X116.896 Y116.068 E19.5077
G1 X116.63 Y115.633 E19.5289
G1 X116.298 Y115.244 E19.55017
G1 X116.016 Y114.962 E19.56675
G1 X115.629 Y114.631 E19.58792
G1 X115.194 Y114.365 E19.60912
G1 X114.724 Y114.17 E19.63027
G1 X114.228 Y114.05 E19.65149
G1 X113.718 Y114.01 E19.67276
G1 X104.282 Y114.01 E20.06506
G1 X103.774 Y114.05 E20.08625
G1 X103.279 Y114.169 E20.10741
G1 X102.808 Y114.364 E20.1286
G1 X102.373 Y114.63 E20.1498
G1 X101.984 Y114.962 E20.17107
G1 X101.702 Y115.244 E20.18765
G1 X101.371 Y115.631 E20.20882
G1 X101.105 Y116.066 E20.23002
G1 X100.91 Y116.536 E20.25117
G1 X100.79 Y117.032 E20.27239
G1 X100.75 Y117.542 E20.29366
G1 X100.75 Y123.51 E20.54178
G1 X90.75 Y123.51 E20.95753
G1 X90.75 Y105.586 E21.70272
G1 X90.71 Y105.078 E21.72391
G1 X90.71 Y104.924 E21.73031
G1 X90.75 Y104.414 E21.75158
G1 X90.75 Y86.01 E22.51673
G0 F9000 X90.25 Y85.51
G1 F1800 X126.004 Y85.51 E24.00321
G1 X126.471 Y85.47 E24.02269
G1 X126.924 Y85.351 E24.04217
G1 X127.351 Y85.158 E24.06165
G1 X127.738 Y84.894 E24.08112
G1 X128.076 Y84.569 E24.10062
G1 X128.265 Y84.326 E24.11342
G1 X128.3 Y84.276 E24.11596
G1 X128.334 Y84.325 E24.11843
G1 X128.632 Y84.686 E24.1379
G1 X128.988 Y84.992 E24.15741
G1 X129.39 Y85.232 E24.17688
G1 X129.827 Y85.401 E24.19636
G1 X130.287 Y85.493 E24.21586
G1 X130.595 Y85.51 E24.22869
G1 X139.142 Y85.51 E24.58403
G1 X139.055 Y85.597 E24.58914
G1 X138.754 Y85.956 E24.60862
G1 X138.517 Y86.36 E24.6281
G1 X138.352 Y86.799 E24.64759
G1 X138.265 Y87.259 E24.66706
G1 X138.25 Y87.542 E24.67884
G1 X138.25 Y101.978 E25.27902
G1 X138.29 Y102.445 E25.29851
G1 X138.409 Y102.898 E25.31798
G1 X138.602 Y103.325 E25.33746
G1 X138.866 Y103.712 E25.35694
G1 X139.055 Y103.923 E25.36871
G1 X139.337 Y104.205 E25.38529
G1 X139.696 Y104.506 E25.40477
G1 X140.1 Y104.743 E25.42424
G1 X140.539 Y104.908 E25.44374
G1 X140.999 Y104.995 E25.46321
G1 X141.282 Y105.01 E25.47499
G1 X148.718 Y105.01 E25.78414
G1 X149.185 Y104.97 E25.80363
G1 X149.638 Y104.851 E25.8231
G1 X150.065 Y104.658 E25.84258
G1 X150.452 Y104.394 E25.86206
G1 X150.663 Y104.205 E25.87384
G1 X150.945 Y103.923 E25.89042
G1 X151.246 Y103.564 E25.90989
G1 X151.483 Y103.16 E25.92937
G1 X151.648 Y102.721 E25.94887
G1 X151.735 Y102.261 E25.96833
G1 X151.75 Y101.978 E25.98011
G1 X151.75 Y87.542 E26.58029
G1 X151.71 Y87.075 E26.59978
G1 X151.591 Y86.622 E26.61925
G1 X151.398 Y86.195 E26.63873
G1 X151.134 Y85.808 E26.65821
G1 X150.945 Y85.597 E26.66999
G1 X150.858 Y85.51 E26.6751
G1 X163.75 Y85.51 E27.21109
G1 X163.75 Y104.414 E27.99702
G1 X163.79 Y104.881 E28.01651
G1 X163.822 Y105.002 E28.02171
G1 X163.765 Y105.303 E28.03445
G1 X163.75 Y105.586 E28.04623
G1 X163.75 Y124.01 E28.81221
G1 X130.592 Y124.01 E30.19076
G1 X130.125 Y124.05 E30.21025
G1 X129.672 Y124.169 E30.22972
G1 X129.245 Y124.362 E30.24921
G1 X128.858 Y124.626 E30.26868
G1 X128.52 Y124.951 E30.28818
G1 X128.326 Y125.202 E30.30137
G1 X128.298 Y125.242 E30.3034
G1 X128.265 Y125.194 E30.30582
G1 X127.966 Y124.833 E30.32531
G1 X127.61 Y124.528 E30.3448
G1 X127.208 Y124.288 E30.36426
G1 X126.771 Y124.119 E30.38374
G1 X126.311 Y124.027 E30.40324
G1 X126.004 Y124.01 E30.41603
G1 X116.75 Y124.01 E30.80076
G1 X116.75 Y117.542 E31.06967
G1 X116.71 Y117.075 E31.08916
G1 X116.591 Y116.622 E31.10863
G1 X116.398 Y116.195 E31.12811
G1 X116.134 Y115.808 E31.14759
G1 X115.945 Y115.597 E31.15937
G1 X115.663 Y115.315 E31.17595
G1 X115.304 Y115.014 E31.19542
G1 X114.9 Y114.777 E31.2149
G1 X114.461 Y114.612 E31.2344
G1 X114.001 Y114.525 E31.25386
G1 X113.718 Y114.51 E31.26564
G1 X104.282 Y114.51 E31.65794
G1 X103.815 Y114.55 E31.67743
G1 X103.362 Y114.669 E31.6969
G1 X102.935 Y114.862 E31.71639
G1 X102.548 Y115.126 E31.73586
G1 X102.337 Y115.315 E31.74764
G1 X102.055 Y115.597 E31.76422
G1 X101.754 Y115.956 E31.7837
G1 X101.517 Y116.36 E31.80317
G1 X101.352 Y116.799 E31.82267
G1 X101.265 Y117.259 E31.84213
G1 X101.25 Y117.542 E31.85391
G1 X101.25 Y124.01 E32.12282
G1 X90.25 Y124.01 E32.58015
G1 X90.25 Y105.586 E33.34613
G1 X90.21 Y105.119 E33.36562
G1 X90.178 Y104.998 E33.37082
G1 X90.235 Y104.697 E33.38356
G1 X90.25 Y104.414 E33.39534
G1 X90.25 Y85.51 E34.18128
G0 F9000 X89.75 Y85.01
G1 F1800 X126.004 Y85.01 E35.68854
G1 X126.426 Y84.97 E35.70617
G1 X126.833 Y84.852 E35.72378
G1 X127.21 Y84.659 E35.74139
G1 X127.545 Y84.399 E35.75902
G1 X127.854 Y84.041 E35.77868
G1 X128.3 Y83.398 E35.81122
G1 X128.745 Y84.041 E35.84373
G1 X129.018 Y84.365 E35.86134
G1 X129.347 Y84.632 E35.87896
G1 X129.72 Y84.833 E35.89657
G1 X130.124 Y84.96 E35.91418
G1 X130.595 Y85.01 E35.93387
G1 X141.282 Y85.01 E36.37819
G1 X140.86 Y85.05 E36.39581
G1 X140.453 Y85.168 E36.41343
G1 X140.076 Y85.361 E36.43104
G1 X139.691 Y85.669 E36.45154
G1 X139.409 Y85.951 E36.46812
G1 X139.139 Y86.278 E36.48575
G1 X138.935 Y86.649 E36.50335
G1 X138.804 Y87.052 E36.52097
G1 X138.75 Y87.542 E36.54146
G1 X138.75 Y101.978 E37.14164
G1 X138.79 Y102.4 E37.15926
G1 X138.908 Y102.807 E37.17688
G1 X139.101 Y103.184 E37.19449
G1 X139.409 Y103.569 E37.21499
G1 X139.691 Y103.851 E37.23157
G1 X140.018 Y104.121 E37.2492
G1 X140.389 Y104.325 E37.2668
G1 X140.792 Y104.456 E37.28442
G1 X141.282 Y104.51 E37.30491
G1 X148.718 Y104.51 E37.61407
G1 X149.14 Y104.47 E37.63169
G1 X149.547 Y104.352 E37.64931
G1 X149.924 Y104.159 E37.66692
G1 X150.309 Y103.851 E37.68742
G1 X150.591 Y103.569 E37.704
G1 X150.861 Y103.242 E37.72163
G1 X151.065 Y102.871 E37.73923
G1 X151.196 Y102.468 E37.75685
G1 X151.25 Y101.978 E37.77734
G1 X151.25 Y87.542 E38.37752
G1 X151.21 Y87.12 E38.39514
G1 X151.092 Y86.713 E38.41276
G1 X150.899 Y86.336 E38.43037
G1 X150.591 Y85.951 E38.45087
G1 X150.309 Y85.669 E38.46745
G1 X149.982 Y85.399 E38.48508
G1 X149.611 Y85.195 E38.50268
G1 X149.208 Y85.064 E38.5203
G1 X148.718 Y85.01 E38.5408
G1 X164.25 Y85.01 E39.18654
G1 X164.25 Y104.414 E39.99327
G1 X164.29 Y104.836 E40.01089
G1 X164.336 Y104.996 E40.01781
G1 X164.304 Y105.096 E40.02218
G1 X164.25 Y105.586 E40.04267
G1 X164.25 Y124.51 E40.82944
G1 X130.592 Y124.51 E42.22878
G1 X130.17 Y124.55 E42.2464
G1 X129.763 Y124.668 E42.26402
G1 X129.386 Y124.861 E42.28163
G1 X129.051 Y125.121 E42.29926
G1 X128.738 Y125.485 E42.31921
G1 X128.3 Y126.123 E42.35139
G1 X127.854 Y125.479 E42.38396
G1 X127.581 Y125.155 E42.40157
G1 X127.252 Y124.888 E42.41919
G1 X126.878 Y124.687 E42.43684
G1 X126.474 Y124.56 E42.45445
G1 X126.004 Y124.51 E42.4741
G1 X116.25 Y124.51 E42.87962
G1 X116.25 Y117.542 E43.16932
G1 X116.21 Y117.12 E43.18694
G1 X116.092 Y116.713 E43.20456
G1 X115.899 Y116.336 E43.22217
G1 X115.591 Y115.951 E43.24267
G1 X115.309 Y115.669 E43.25925
G1 X114.982 Y115.399 E43.27688
G1 X114.611 Y115.195 E43.29448
G1 X114.208 Y115.064 E43.3121
G1 X113.718 Y115.01 E43.33259
G1 X104.282 Y115.01 E43.7249
G1 X103.86 Y115.05 E43.74252
G1 X103.453 Y115.168 E43.76014
G1 X103.076 Y115.361 E43.77774
G1 X102.691 Y115.669 E43.79824
G1 X102.409 Y115.951 E43.81482
G1 X102.139 Y116.278 E43.83245
G1 X101.935 Y116.649 E43.85006
G1 X101.804 Y117.052 E43.86767
G1 X101.75 Y117.542 E43.88817
G1 X101.75 Y124.51 E44.17786
G1 X89.75 Y124.51 E44.67677
G1 X89.75 Y105.586 E45.46354
G1 X89.71 Y105.164 E45.48116
G1 X89.664 Y105.004 E45.48808
G1 X89.696 Y104.904 E45.49245
G1 X89.75 Y104.414 E45.51294
G1 X89.75 Y85.01 E46.31967
G0 F9000 X89.25 Y84.51
G1 F1800 X126.004 Y84.51 E47.84772
G1 X126.375 Y84.47 E47.86323
G1 X126.73 Y84.352 E47.87879
G1 X127.052 Y84.162 E47.89433
G1 X127.325 Y83.908 E47.90983
G1 X127.443 Y83.756 E47.91783
G1 X128.04 Y82.894 E47.96143
G1 X128.218 Y82.566 E47.97694
G1 X128.301 Y82.284 E47.98916
G1 X128.319 Y82.387 E47.99351
G1 X128.46 Y82.733 E48.00904
G1 X128.56 Y82.895 E48.01696
G1 X129.156 Y83.756 E48.06049
G1 X129.4 Y84.039 E48.07603
G1 X129.699 Y84.263 E48.09156
G1 X130.039 Y84.419 E48.10711
G1 X130.403 Y84.499 E48.12261
G1 X130.595 Y84.51 E48.1306
G1 X164.75 Y84.51 E49.5506
G1 X164.75 Y104.414 E50.37812
G1 X164.79 Y104.785 E50.39363
G1 X164.857 Y104.987 E50.40248
G1 X164.768 Y105.335 E50.41741
G1 X164.75 Y105.586 E50.42787
G1 X164.75 Y125.01 E51.23543
G1 X130.592 Y125.01 E52.65556
G1 X130.221 Y125.05 E52.67107
G1 X129.866 Y125.168 E52.68662
G1 X129.544 Y125.358 E52.70217
G1 X129.271 Y125.612 E52.71767
G1 X129.15 Y125.769 E52.72591
G1 X128.556 Y126.633 E52.7695
G1 X128.378 Y126.961 E52.78502
G1 X128.3 Y127.234 E52.79682
G1 X128.283 Y127.139 E52.80083
G1 X128.142 Y126.792 E52.81641
G1 X128.04 Y126.626 E52.82451
G1 X127.443 Y125.764 E52.8681
G1 X127.198 Y125.481 E52.88366
G1 X126.9 Y125.257 E52.89916
G1 X126.56 Y125.101 E52.91471
G1 X126.195 Y125.02 E52.93026
G1 X126.004 Y125.01 E52.93821
G1 X115.748 Y125.01 E53.3646
G1 X115.75 Y124.978 E53.36594
G1 X115.75 Y117.542 E53.67509
G1 X115.71 Y117.171 E53.6906
G1 X115.592 Y116.816 E53.70616
G1 X115.402 Y116.494 E53.7217
G1 X115.237 Y116.305 E53.73213
G1 X114.955 Y116.023 E53.74871
G1 X114.665 Y115.788 E53.76423
G1 X114.331 Y115.621 E53.77976
G1 X113.969 Y115.528 E53.79529
G1 X113.718 Y115.51 E53.80576
G1 X104.282 Y115.51 E54.19806
G1 X103.911 Y115.55 E54.21357
G1 X103.556 Y115.668 E54.22913
G1 X103.234 Y115.858 E54.24467
G1 X103.045 Y116.023 E54.2551
G1 X102.763 Y116.305 E54.27168
G1 X102.528 Y116.595 E54.2872
G1 X102.361 Y116.929 E54.30273
G1 X102.268 Y117.291 E54.31827
G1 X102.25 Y117.542 E54.32873
G1 X102.25 Y124.978 E54.63788
G1 X102.253 Y125.01 E54.63922
G1 X89.25 Y125.01 E55.17982
G1 X89.25 Y105.586 E55.98737
G1 X89.21 Y105.215 E56.00289
G1 X89.143 Y105.013 E56.01174
G1 X89.232 Y104.665 E56.02667
G1 X89.25 Y104.414 E56.03713
G1 X89.25 Y84.51 E56.86464
G0 F9000 X88.75 Y84.01
G1 F1800 X126.004 Y84.01 E58.41349
G1 X126.317 Y83.97 E58.4266
G1 X126.61 Y83.853 E58.43972
G1 X126.865 Y83.667 E58.45284
G1 X127.032 Y83.472 E58.46352
G1 X127.629 Y82.61 E58.50711
G1 X127.774 Y82.33 E58.52022
G1 X127.845 Y82.022 E58.53336
G1 X127.836 Y81.707 E58.54646
G1 X127.77 Y81.456 E58.55725
G1 X127.587 Y80.973 E58.57873
G1 X127.557 Y80.74 E58.58849
G1 X127.605 Y80.498 E58.59875
G1 X127.801 Y80.209 E58.61327
G1 X127.906 Y80.129 E58.61876
G1 X128.284 Y79.932 E58.63648
G1 X128.673 Y80.118 E58.65441
G1 X128.858 Y80.268 E58.66431
G1 X128.987 Y80.479 E58.67459
G1 X129.042 Y80.719 E58.68483
G1 X129.012 Y80.972 E58.69542
G1 X128.829 Y81.46 E58.71709
G1 X128.756 Y81.767 E58.73021
G1 X128.763 Y82.083 E58.74335
G1 X128.848 Y82.386 E58.75643
G1 X128.971 Y82.61 E58.76705
G1 X129.567 Y83.471 E58.81059
G1 X129.778 Y83.706 E58.82372
G1 X130.041 Y83.881 E58.83685
G1 X130.339 Y83.984 E58.84996
G1 X130.595 Y84.01 E58.86066
G1 X165.25 Y84.01 E60.30145
G1 X165.25 Y104.414 E61.14975
G1 X165.29 Y104.727 E61.16287
G1 X165.401 Y105.004 E61.17527
G1 X165.298 Y105.242 E61.18606
G1 X165.25 Y105.586 E61.2005
G1 X165.25 Y125.51 E62.02884
G1 X130.592 Y125.51 E63.46975
