;FLAVOR:Marlin
;TIME:22231
;Filament used: 21.1065m
;Layer height: 0.2
;MINX:45.335
;MINY:57.375
;MINZ:0.2
;MAXX:209.665
;MAXY:152.625
;MAXZ:27.4
;Generated with Cura_SteamEngine 4.13.0
M140 S60
M105
M190 S60
M104 S195
M105
M109 S195
M82 ;absolute extrusion mode
M220 S100 ;reset feedrate
M221 S100 ;reset flowrate
G90 ;use absolute coordinates
M82 ;absolute extrusion mode
G28 ;home
G1 Z2 F1500 ;raise z
G92 E0 ;reset extruder

G1 X75 Y5 F5000 ;start position
G1 Z0.28 F1500 ;lower z
G1 E4 F500 ;prime the filament
G1 X180 E10 F500 ;1st line
G1 Y5.4 F5000
G1 X75 E20 F500 ;2nd line
G1 Z2 F1500 ;raise z
G92 E0 ;reset extruder
G92 E0
G92 E0
G1 F1500 E-6.5
;LAYER_COUNT:137
;LAYER:0
M107
G0 F9000 X92.25 Y86.99 Z0.2
;TYPE:SKIRT
G1 F1500 E0
G1 F1800 X124.408 Y86.99 E1.33697
G1 X124.954 Y86.95 E1.35974
G1 X125.488 Y86.831 E1.38248
G1 X125.999 Y86.636 E1.40522
G1 X126.477 Y86.368 E1.428
G1 X126.696 Y86.198 E1.43953
G1 X127.111 Y86.482 E1.46044
G1 X127.603 Y86.722 E1.4832
G1 X128.124 Y86.887 E1.50592
G1 X128.664 Y86.975 E1.52866
G1 X128.996 Y86.99 E1.54248
G1 X137.25 Y86.99 E1.88564
G1 X137.25 Y92.458 E2.11297
G1 X137.29 Y93.004 E2.13574
G1 X137.409 Y93.538 E2.15848
G1 X137.604 Y94.049 E2.18122
G1 X137.872 Y94.527 E2.204
G1 X138.348 Y95.11 E2.2353
G1 X138.63 Y95.392 E2.25188
G1 X139.045 Y95.749 E2.27463
G1 X139.507 Y96.043 E2.2974
G1 X140.006 Y96.266 E2.32013
G1 X140.533 Y96.414 E2.34288
G1 X141.282 Y96.49 E2.37418
G1 X150.718 Y96.49 E2.76649
G1 X151.264 Y96.45 E2.78925
G1 X151.798 Y96.331 E2.81199
G1 X152.309 Y96.136 E2.83473
G1 X152.787 Y95.868 E2.85752
G1 X153.37 Y95.392 E2.88881
G1 X153.652 Y95.11 E2.90539
G1 X154.009 Y94.695 E2.92815
G1 X154.303 Y94.233 E2.95091
G1 X154.526 Y93.734 E2.97364
G1 X154.674 Y93.207 E2.99639
G1 X154.75 Y92.458 E3.02769
G1 X154.75 Y86.99 E3.25503
G1 X163.75 Y86.99 E3.6292
G1 X163.75 Y104.414 E4.35361
G1 X163.79 Y104.96 E4.37637
G1 X163.806 Y105.033 E4.37948
G1 X163.75 Y105.586 E4.40259
G1 X163.75 Y123.49 E5.14695
G1 X128.996 Y123.49 E6.59185
G1 X128.45 Y123.53 E6.61461
G1 X127.916 Y123.649 E6.63736
G1 X127.405 Y123.844 E6.6601
G1 X126.927 Y124.112 E6.68288
G1 X126.706 Y124.283 E6.6945
G1 X126.291 Y123.999 E6.7154
G1 X125.799 Y123.759 E6.73816
G1 X125.278 Y123.593 E6.7609
G1 X124.737 Y123.505 E6.78368
G1 X124.405 Y123.49 E6.7975
G1 X117.595 Y123.49 E7.08063
G1 X117.674 Y123.207 E7.09284
G1 X117.75 Y122.458 E7.12414
G1 X117.75 Y106.022 E7.80747
G1 X117.71 Y105.476 E7.83023
G1 X117.591 Y104.942 E7.85298
G1 X117.396 Y104.431 E7.87572
G1 X117.128 Y103.953 E7.8985
G1 X116.652 Y103.37 E7.92979
G1 X116.37 Y103.088 E7.94637
G1 X115.955 Y102.731 E7.96913
G1 X115.493 Y102.437 E7.9919
G1 X114.994 Y102.214 E8.01462
G1 X114.467 Y102.066 E8.03738
G1 X113.718 Y101.99 E8.06868
G1 X106.282 Y101.99 E8.37783
G1 X105.736 Y102.03 E8.4006
G1 X105.202 Y102.149 E8.42334
G1 X104.691 Y102.344 E8.44608
G1 X104.213 Y102.612 E8.46886
G1 X103.63 Y103.088 E8.50015
G1 X103.348 Y103.37 E8.51674
G1 X102.991 Y103.785 E8.53949
G1 X102.697 Y104.247 E8.56226
G1 X102.474 Y104.746 E8.58499
G1 X102.326 Y105.273 E8.60774
G1 X102.25 Y106.022 E8.63904
G1 X102.25 Y122.458 E9.32237
G1 X102.29 Y123.004 E9.34513
G1 X102.398 Y123.49 E9.36583
G1 X92.25 Y123.49 E9.78774
G1 X92.25 Y105.586 E10.5321
G1 X92.21 Y105.04 E10.55486
G1 X92.194 Y104.967 E10.55797
G1 X92.25 Y104.414 E10.58107
G1 X92.25 Y86.99 E11.30548
G0 F9000 X91.75 Y86.49
G1 F1800 X124.408 Y86.49 E12.66324
G1 X124.916 Y86.45 E12.68443
G1 X125.411 Y86.331 E12.70559
G1 X125.882 Y86.136 E12.72679
G1 X126.317 Y85.87 E12.74799
G1 X126.705 Y85.538 E12.76922
G1 X127.026 Y85.825 E12.78712
G1 X127.454 Y86.101 E12.80829
G1 X127.92 Y86.307 E12.82947
G1 X128.413 Y86.437 E12.85067
G1 X128.996 Y86.49 E12.87501
G1 X137.75 Y86.49 E13.23896
G1 X137.75 Y92.458 E13.48708
G1 X137.79 Y92.966 E13.50826
G1 X137.909 Y93.461 E13.52943
G1 X138.104 Y93.932 E13.55062
G1 X138.37 Y94.367 E13.57182
G1 X138.702 Y94.756 E13.59309
G1 X138.984 Y95.038 E13.60967
G1 X139.371 Y95.369 E13.63084
G1 X139.806 Y95.635 E13.65204
G1 X140.276 Y95.83 E13.67319
G1 X140.772 Y95.95 E13.69441
G1 X141.282 Y95.99 E13.71568
G1 X150.718 Y95.99 E14.10798
G1 X151.226 Y95.95 E14.12917
G1 X151.721 Y95.831 E14.15033
G1 X152.192 Y95.636 E14.17153
G1 X152.627 Y95.37 E14.19272
G1 X153.016 Y95.038 E14.21399
G1 X153.298 Y94.756 E14.23057
G1 X153.629 Y94.369 E14.25174
G1 X153.895 Y93.934 E14.27294
G1 X154.09 Y93.464 E14.29409
G1 X154.21 Y92.968 E14.31531
G1 X154.25 Y92.458 E14.33658
G1 X154.25 Y86.49 E14.5847
G1 X164.25 Y86.49 E15.00045
G1 X164.25 Y104.414 E15.74564
G1 X164.29 Y104.922 E15.76683
G1 X164.29 Y105.076 E15.77323
G1 X164.25 Y105.586 E15.7945
G1 X164.25 Y123.99 E16.55965
G1 X128.996 Y123.99 E18.02534
G1 X128.488 Y124.03 E18.04652
G1 X127.993 Y124.149 E18.06769
G1 X127.522 Y124.344 E18.08888
G1 X127.087 Y124.61 E18.11008
G1 X126.697 Y124.943 E18.1314
G1 X126.376 Y124.656 E18.14931
G1 X125.947 Y124.379 E18.17054
G1 X125.481 Y124.173 E18.19172
G1 X124.989 Y124.043 E18.21288
G1 X124.405 Y123.99 E18.23726
G1 X116.861 Y123.99 E18.5509
G1 X116.895 Y123.934 E18.55362
G1 X117.09 Y123.464 E18.57478
G1 X117.21 Y122.968 E18.59599
G1 X117.25 Y122.458 E18.61726
G1 X117.25 Y106.022 E19.30059
G1 X117.21 Y105.514 E19.32178
G1 X117.091 Y105.019 E19.34294
G1 X116.896 Y104.548 E19.36414
G1 X116.63 Y104.113 E19.38534
G1 X116.298 Y103.724 E19.4066
G1 X116.016 Y103.442 E19.42318
G1 X115.629 Y103.111 E19.44435
G1 X115.194 Y102.845 E19.46555
G1 X114.724 Y102.65 E19.4867
G1 X114.228 Y102.53 E19.50792
G1 X113.718 Y102.49 E19.52919
G1 X106.282 Y102.49 E19.83834
G1 X105.774 Y102.53 E19.85953
G1 X105.279 Y102.649 E19.88069
G1 X104.808 Y102.844 E19.90189
G1 X104.373 Y103.11 E19.92309
G1 X103.984 Y103.442 E19.94435
G1 X103.702 Y103.724 E19.96093
G1 X103.371 Y104.111 E19.9821
G1 X103.105 Y104.546 E20.0033
G1 X102.91 Y105.016 E20.02445
G1 X102.79 Y105.512 E20.04567
G1 X102.75 Y106.022 E20.06694
G1 X102.75 Y122.458 E20.75027
G1 X102.79 Y122.966 E20.77145
G1 X102.909 Y123.461 E20.79262
G1 X103.104 Y123.932 E20.81381
G1 X103.139 Y123.99 E20.81663
G1 X91.75 Y123.99 E21.29013
G1 X91.75 Y105.586 E22.05528
G1 X91.71 Y105.078 E22.07647
G1 X91.71 Y104.924 E22.08287
G1 X91.75 Y104.414 E22.10414
G1 X91.75 Y86.49 E22.84933
G0 F9000 X91.25 Y85.99
G1 F1800 X124.408 Y85.99 E24.22788
G1 X124.875 Y85.95 E24.24737
G1 X125.328 Y85.831 E24.26684
G1 X125.755 Y85.638 E24.28632
G1 X126.142 Y85.374 E24.3058
G1 X126.48 Y85.049 E24.32529
G1 X126.674 Y84.798 E24.33848
G1 X126.702 Y84.758 E24.34051
G1 X126.735 Y84.806 E24.34293
G1 X127.034 Y85.167 E24.36242
G1 X127.39 Y85.472 E24.38191
G1 X127.792 Y85.712 E24.40138
G1 X128.229 Y85.881 E24.42085
G1 X128.689 Y85.973 E24.44036
G1 X128.996 Y85.99 E24.45314
G1 X138.25 Y85.99 E24.83788
G1 X138.25 Y92.458 E25.10679
G1 X138.29 Y92.925 E25.12627
G1 X138.409 Y93.378 E25.14575
G1 X138.602 Y93.805 E25.16523
G1 X138.866 Y94.192 E25.1847
G1 X139.055 Y94.403 E25.19648
G1 X139.337 Y94.685 E25.21306
G1 X139.696 Y94.986 E25.23254
G1 X140.1 Y95.223 E25.25201
G1 X140.539 Y95.388 E25.27151
G1 X140.999 Y95.475 E25.29097
G1 X141.282 Y95.49 E25.30276
G1 X150.718 Y95.49 E25.69506
G1 X151.185 Y95.45 E25.71455
G1 X151.638 Y95.331 E25.73402
G1 X152.065 Y95.138 E25.7535
G1 X152.452 Y94.874 E25.77298
G1 X152.663 Y94.685 E25.78475
G1 X152.945 Y94.403 E25.80133
G1 X153.246 Y94.044 E25.82081
G1 X153.483 Y93.64 E25.84029
G1 X153.648 Y93.201 E25.85978
G1 X153.735 Y92.741 E25.87925
G1 X153.75 Y92.458 E25.89103
G1 X153.75 Y85.99 E26.15994
G1 X164.75 Y85.99 E26.61726
G1 X164.75 Y104.414 E27.38325
G1 X164.79 Y104.881 E27.40273
G1 X164.822 Y105.002 E27.40794
G1 X164.765 Y105.303 E27.42067
G1 X164.75 Y105.586 E27.43245
G1 X164.75 Y124.49 E28.21839
G1 X128.996 Y124.49 E29.70487
G1 X128.529 Y124.53 E29.72436
G1 X128.076 Y124.649 E29.74383
G1 X127.649 Y124.842 E29.76331
G1 X127.262 Y125.106 E29.78279
G1 X126.924 Y125.431 E29.80228
G1 X126.735 Y125.674 E29.81508
G1 X126.7 Y125.724 E29.81762
G1 X126.666 Y125.675 E29.8201
G1 X126.368 Y125.314 E29.83956
G1 X126.012 Y125.008 E29.85908
G1 X125.61 Y124.768 E29.87854
G1 X125.173 Y124.599 E29.89802
G1 X124.713 Y124.507 E29.91753
G1 X124.405 Y124.49 E29.93035
G1 X115.858 Y124.49 E30.28569
G1 X115.945 Y124.403 E30.29081
G1 X116.246 Y124.044 E30.31029
G1 X116.483 Y123.64 E30.32976
G1 X116.648 Y123.201 E30.34926
G1 X116.735 Y122.741 E30.36872
G1 X116.75 Y122.458 E30.3805
G1 X116.75 Y106.022 E31.06383
G1 X116.71 Y105.555 E31.08332
G1 X116.591 Y105.102 E31.10279
G1 X116.398 Y104.675 E31.12227
G1 X116.134 Y104.288 E31.14175
G1 X115.945 Y104.077 E31.15353
G1 X115.663 Y103.795 E31.17011
G1 X115.304 Y103.494 E31.18958
G1 X114.9 Y103.257 E31.20906
G1 X114.461 Y103.092 E31.22856
G1 X114.001 Y103.005 E31.24802
G1 X113.718 Y102.99 E31.2598
G1 X106.282 Y102.99 E31.56896
G1 X105.815 Y103.03 E31.58844
G1 X105.362 Y103.149 E31.60791
G1 X104.935 Y103.342 E31.6274
G1 X104.548 Y103.606 E31.64687
G1 X104.337 Y103.795 E31.65865
G1 X104.055 Y104.077 E31.67523
G1 X103.754 Y104.436 E31.69471
G1 X103.517 Y104.84 E31.71418
G1 X103.352 Y105.279 E31.73368
G1 X103.265 Y105.739 E31.75314
G1 X103.25 Y106.022 E31.76493
G1 X103.25 Y122.458 E32.44825
G1 X103.29 Y122.925 E32.46774
G1 X103.409 Y123.378 E32.48721
G1 X103.602 Y123.805 E32.5067
G1 X103.866 Y124.192 E32.52617
G1 X104.055 Y124.403 E32.53795
G1 X104.142 Y124.49 E32.54306
G1 X91.25 Y124.49 E33.07905
G1 X91.25 Y105.586 E33.86499
G1 X91.21 Y105.119 E33.88448
G1 X91.178 Y104.998 E33.88968
G1 X91.235 Y104.697 E33.90242
G1 X91.25 Y104.414 E33.9142
G1 X91.25 Y85.99 E34.68018
G0 F9000 X90.75 Y85.49
G1 F1800 X124.408 Y85.49 E36.07952
G1 X124.83 Y85.45 E36.09714
G1 X125.237 Y85.332 E36.11476
G1 X125.614 Y85.139 E36.13237
G1 X125.949 Y84.879 E36.15
G1 X126.262 Y84.515 E36.16995
G1 X126.7 Y83.877 E36.20213
G1 X127.146 Y84.521 E36.2347
G1 X127.419 Y84.845 E36.25231
G1 X127.748 Y85.112 E36.26993
G1 X128.122 Y85.313 E36.28758
G1 X128.526 Y85.44 E36.30519
G1 X128.996 Y85.49 E36.32484
G1 X138.75 Y85.49 E36.73036
G1 X138.75 Y92.458 E37.02006
G1 X138.79 Y92.88 E37.03768
G1 X138.908 Y93.287 E37.0553
G1 X139.101 Y93.664 E37.07291
G1 X139.409 Y94.049 E37.0934
G1 X139.691 Y94.331 E37.10999
G1 X140.018 Y94.601 E37.12762
G1 X140.389 Y94.805 E37.14522
G1 X140.792 Y94.936 E37.16284
G1 X141.282 Y94.99 E37.18333
G1 X150.718 Y94.99 E37.57563
G1 X151.14 Y94.95 E37.59326
G1 X151.547 Y94.832 E37.61088
G1 X151.924 Y94.639 E37.62848
G1 X152.309 Y94.331 E37.64898
G1 X152.591 Y94.049 E37.66556
G1 X152.861 Y93.722 E37.68319
G1 X153.065 Y93.351 E37.7008
G1 X153.196 Y92.948 E37.71841
G1 X153.25 Y92.458 E37.73891
G1 X153.25 Y85.49 E38.0286
G1 X165.25 Y85.49 E38.52751
G1 X165.25 Y104.414 E39.31428
G1 X165.29 Y104.836 E39.3319
G1 X165.336 Y104.996 E39.33882
G1 X165.304 Y105.096 E39.34319
G1 X165.25 Y105.586 E39.36368
G1 X165.25 Y124.99 E40.1704
G1 X128.996 Y124.99 E41.67767
G1 X128.574 Y125.03 E41.69529
G1 X128.167 Y125.148 E41.71291
G1 X127.79 Y125.341 E41.73052
G1 X127.455 Y125.601 E41.74815
G1 X127.146 Y125.959 E41.76781
G1 X126.7 Y126.602 E41.80035
G1 X126.255 Y125.959 E41.83286
G1 X125.982 Y125.635 E41.85047
G1 X125.653 Y125.368 E41.86809
G1 X125.28 Y125.167 E41.8857
G1 X124.876 Y125.04 E41.90331
G1 X124.405 Y124.99 E41.923
G1 X113.718 Y124.99 E42.36732
G1 X114.14 Y124.95 E42.38494
G1 X114.547 Y124.832 E42.40256
G1 X114.924 Y124.639 E42.42017
G1 X115.309 Y124.331 E42.44066
G1 X115.591 Y124.049 E42.45724
G1 X115.861 Y123.722 E42.47487
G1 X116.065 Y123.351 E42.49248
G1 X116.196 Y122.948 E42.51009
G1 X116.25 Y122.458 E42.53059
G1 X116.25 Y106.022 E43.21392
G1 X116.21 Y105.6 E43.23154
G1 X116.092 Y105.193 E43.24916
G1 X115.899 Y104.816 E43.26677
G1 X115.591 Y104.431 E43.28727
G1 X115.309 Y104.149 E43.30385
G1 X114.982 Y103.879 E43.32148
G1 X114.611 Y103.675 E43.33908
G1 X114.208 Y103.544 E43.3567
G1 X113.718 Y103.49 E43.37719
G1 X106.282 Y103.49 E43.68635
G1 X105.86 Y103.53 E43.70397
G1 X105.453 Y103.648 E43.72159
G1 X105.076 Y103.841 E43.7392
G1 X104.691 Y104.149 E43.75969
G1 X104.409 Y104.431 E43.77627
G1 X104.139 Y104.758 E43.79391
G1 X103.935 Y105.129 E43.81151
G1 X103.804 Y105.532 E43.82913
G1 X103.75 Y106.022 E43.84962
G1 X103.75 Y122.458 E44.53295
G1 X103.79 Y122.88 E44.55057
G1 X103.908 Y123.287 E44.56819
G1 X104.101 Y123.664 E44.5858
G1 X104.409 Y124.049 E44.6063
G1 X104.691 Y124.331 E44.62288
G1 X105.018 Y124.601 E44.64051
G1 X105.389 Y124.805 E44.65811
G1 X105.792 Y124.936 E44.67573
G1 X106.282 Y124.99 E44.69622
G1 X90.75 Y124.99 E45.34197
G1 X90.75 Y105.586 E46.14869
G1 X90.71 Y105.164 E46.16632
G1 X90.664 Y105.004 E46.17324
G1 X90.696 Y104.904 E46.1776
G1 X90.75 Y104.414 E46.1981
G1 X90.75 Y85.49 E46.98487
G0 F9000 X90.25 Y84.99
G1 F1800 X124.408 Y84.99 E48.40499
G1 X124.779 Y84.95 E48.42051
G1 X125.134 Y84.832 E48.43606
G1 X125.456 Y84.642 E48.4516
G1 X125.729 Y84.388 E48.46711
G1 X125.85 Y84.231 E48.47535
G1 X126.444 Y83.367 E48.51894
G1 X126.622 Y83.039 E48.53445
G1 X126.7 Y82.766 E48.54626
G1 X126.717 Y82.861 E48.55027
G1 X126.858 Y83.208 E48.56584
G1 X126.96 Y83.374 E48.57394
G1 X127.557 Y84.236 E48.61754
G1 X127.802 Y84.519 E48.6331
G1 X128.1 Y84.743 E48.6486
G1 X128.44 Y84.899 E48.66415
G1 X128.805 Y84.98 E48.67969
G1 X128.996 Y84.99 E48.68765
G1 X139.252 Y84.99 E49.11404
G1 X139.25 Y85.022 E49.11537
G1 X139.25 Y92.458 E49.42453
G1 X139.29 Y92.829 E49.44004
G1 X139.408 Y93.184 E49.45559
G1 X139.598 Y93.506 E49.47114
G1 X139.763 Y93.695 E49.48157
G1 X140.045 Y93.977 E49.49815
G1 X140.335 Y94.212 E49.51367
G1 X140.669 Y94.379 E49.52919
G1 X141.031 Y94.472 E49.54473
G1 X141.282 Y94.49 E49.55519
G1 X150.718 Y94.49 E49.9475
G1 X151.089 Y94.45 E49.96301
G1 X151.444 Y94.332 E49.97856
G1 X151.766 Y94.142 E49.99411
G1 X151.955 Y93.977 E50.00454
G1 X152.237 Y93.695 E50.02112
G1 X152.472 Y93.405 E50.03664
G1 X152.639 Y93.071 E50.05216
G1 X152.732 Y92.709 E50.0677
G1 X152.75 Y92.458 E50.07816
G1 X152.75 Y85.022 E50.38732
G1 X152.747 Y84.99 E50.38865
G1 X165.75 Y84.99 E50.92926
G1 X165.75 Y104.414 E51.73681
G1 X165.79 Y104.785 E51.75233
G1 X165.857 Y104.987 E51.76117
G1 X165.768 Y105.335 E51.77611
G1 X165.75 Y105.586 E51.78657
G1 X165.75 Y125.49 E52.61408
G1 X128.996 Y125.49 E54.14214
G1 X128.625 Y125.53 E54.15765
G1 X128.27 Y125.648 E54.1732
G1 X127.948 Y125.838 E54.18875
G1 X127.675 Y126.092 E54.20425
G1 X127.557 Y126.244 E54.21225
G1 X126.96 Y127.106 E54.25584
G1 X126.782 Y127.434 E54.27136
G1 X126.699 Y127.716 E54.28358
G1 X126.681 Y127.613 E54.28793
G1 X126.54 Y127.267 E54.30346
G1 X126.44 Y127.105 E54.31138
G1 X125.844 Y126.244 E54.35491
G1 X125.6 Y125.961 E54.37045
G1 X125.301 Y125.737 E54.38598
G1 X124.961 Y125.581 E54.40153
G1 X124.597 Y125.501 E54.41703
G1 X124.405 Y125.49 E54.42502
G1 X90.25 Y125.49 E55.84502
G1 X90.25 Y105.586 E56.67253
G1 X90.21 Y105.215 E56.68805
G1 X90.143 Y105.013 E56.6969
G1 X90.232 Y104.665 E56.71183
G1 X90.25 Y104.414 E56.72229
G1 X90.25 Y84.99 E57.52985
G0 F9000 X89.75 Y84.49
G1 F1800 X124.408 Y84.49 E58.97076
G1 X124.721 Y84.45 E58.98388
G1 X125.014 Y84.333 E58.99699
G1 X125.269 Y84.147 E59.01012
G1 X125.438 Y83.948 E59.02097
G1 X126.032 Y83.084 E59.06456
G1 X126.177 Y82.804 E59.07767
G1 X126.246 Y82.496 E59.09079
G1 X126.237 Y82.18 E59.10394
G1 X126.172 Y81.935 E59.11448
G1 X125.985 Y81.438 E59.13655
G1 X125.958 Y81.194 E59.14676
G1 X126.011 Y80.961 E59.15669
G1 X126.135 Y80.756 E59.16665
G1 X126.321 Y80.599 E59.17677
G1 X126.716 Y80.41 E59.19498
G1 X127.097 Y80.611 E59.21289
G1 X127.276 Y80.77 E59.22284
G1 X127.393 Y80.971 E59.23251
G1 X127.443 Y81.22 E59.24307
G1 X127.413 Y81.453 E59.25284
G1 X127.23 Y81.936 E59.27431
G1 X127.156 Y82.242 E59.2874
G1 X127.162 Y82.558 E59.30054
G1 X127.247 Y82.862 E59.31366
G1 X127.371 Y83.09 E59.32445
G1 X127.968 Y83.952 E59.36805
G1 X128.179 Y84.186 E59.38115
G1 X128.442 Y84.361 E59.39428
G1 X128.741 Y84.464 E59.40743
G1 X128.996 Y84.49 E59.41809
G1 X139.879 Y84.49 E59.87055
G1 X139.798 Y84.678 E59.87906
G1 X139.75 Y85.022 E59.8935
G1 X139.75 Y92.458 E60.20265
G1 X139.79 Y92.771 E60.21577
G1 X139.907 Y93.064 E60.22889
G1 X140.116 Y93.342 E60.24335
G1 X140.398 Y93.624 E60.25993
G1 X140.648 Y93.817 E60.27306
G1 X140.938 Y93.942 E60.28619
G1 X141.282 Y93.99 E60.30063
